P3
300 250
255
0 2 11
0 2 11
0 2 11
0 2 11
0 2 11
0 2 11
0 2 11
0 2 11
0 2 11
0 2 11
0 2 11
0 2 11
0 2 11
0 2 11
0 2 11
0 2 11
0 2 11
0 2 11
0 2 11
0 2 11
0 2 11
0 2 11
0 2 11
0 2 11
0 2 11
0 2 11
0 2 11
0 2 11
0 2 11
0 2 11
0 2 11
0 2 11
0 2 11
0 2 11
0 2 11
0 2 11
0 2 11
0 2 11
0 2 11
0 2 11
0 2 11
0 2 11
0 2 11
0 2 11
0 2 11
0 2 11
0 2 11
0 2 11
0 2 11
0 2 11
0 2 11
0 2 11
0 2 11
0 2 11
0 2 11
0 2 11
0 2 11
0 2 11
0 2 11
0 2 11
0 2 11
0 2 11
0 2 11
0 2 11
0 2 11
0 2 11
0 2 11
0 2 11
0 2 11
0 2 11
0 2 11
0 2 11
0 2 11
0 2 11
0 2 11
0 2 11
0 2 11
0 2 11
0 2 11
0 2 11
0 2 11
0 2 11
0 2 11
0 2 11
0 2 11
0 2 11
0 2 11
0 2 11
0 2 11
0 2 11
0 2 11
0 2 11
0 2 11
0 2 11
0 2 11
0 2 11
0 2 11
0 2 11
0 2 11
0 2 11
0 2 11
0 2 11
0 2 11
0 2 11
0 2 11
0 2 11
0 2 11
0 2 11
0 2 11
0 2 11
0 2 11
0 2 11
0 2 11
0 2 11
0 2 11
0 2 11
0 2 11
0 2 11
0 2 11
0 2 11
0 2 11
0 2 11
0 2 11
0 2 11
0 2 11
0 2 11
0 2 11
0 2 11
0 2 11
0 2 11
0 2 11
0 2 11
0 2 11
0 2 11
0 2 11
0 2 11
0 2 11
0 2 11
0 2 11
0 2 11
0 2 11
0 2 11
0 2 11
0 2 11
0 2 11
0 2 11
0 2 11
0 2 11
0 2 11
0 2 11
0 2 11
0 2 11
0 2 11
0 2 11
0 2 11
0 2 11
0 2 11
0 2 11
0 2 11
0 2 11
0 2 11
0 2 11
0 2 11
0 2 11
0 2 11
0 2 11
0 2 11
0 2 11
0 2 11
0 2 11
0 2 11
0 2 11
0 2 11
0 2 11
0 2 11
0 2 11
0 2 11
0 2 11
0 2 11
0 2 11
0 2 11
0 2 11
0 2 11
0 2 11
0 2 11
0 2 11
0 2 11
0 2 11
0 2 11
0 2 11
0 2 11
0 2 11
0 2 11
0 2 11
0 2 11
0 2 11
0 2 11
0 2 11
0 2 11
0 2 11
0 2 11
0 2 11
0 2 11
0 2 11
0 2 11
0 2 11
0 2 11
0 2 11
0 2 11
0 2 11
0 2 11
0 2 11
0 2 11
0 2 11
0 2 11
0 2 11
0 2 11
0 2 11
0 2 11
0 2 11
0 2 11
0 2 11
0 2 11
0 2 11
0 2 11
0 2 11
0 2 11
0 2 11
0 2 11
0 2 11
0 2 11
0 2 11
0 2 11
0 2 11
0 2 11
0 2 11
0 2 11
0 2 11
0 2 11
0 2 11
0 2 11
0 2 11
0 2 11
0 2 11
0 2 11
0 2 11
0 2 11
0 2 11
0 2 11
0 2 11
0 2 11
0 2 11
0 2 11
0 2 11
0 2 11
0 2 11
0 2 11
0 2 11
0 2 11
0 2 11
0 2 11
0 2 11
0 2 11
0 2 11
0 2 11
0 2 11
0 2 11
0 2 11
0 2 11
0 2 11
0 2 11
0 2 11
0 2 11
0 2 11
0 2 11
0 2 11
0 2 11
0 2 11
0 2 11
0 2 11
0 2 11
0 2 11
0 2 11
0 2 11
0 2 11
0 2 11
0 2 11
0 2 11
0 2 11
0 2 11
0 2 11
0 2 11
0 2 11
0 2 11
0 2 11
0 2 11
0 2 11
0 2 11
0 2 11
0 2 11
0 2 11
0 2 11
0 2 11
0 2 11
0 2 11
0 2 11
0 2 11
0 2 11
0 2 11
0 2 11
0 2 11
0 2 11
0 2 11
0 2 11
0 2 11
0 2 11
0 2 11
0 2 11
0 2 11
0 2 11
0 2 11
0 2 11
0 2 11
0 2 11
0 2 11
0 2 11
0 2 11
0 2 11
0 2 11
0 2 11
0 2 11
0 2 11
0 2 11
0 2 11
0 2 11
0 2 11
0 2 11
0 2 11
0 2 11
0 2 11
0 2 11
0 2 11
0 2 11
0 2 11
0 2 11
0 2 11
0 2 11
0 2 11
0 2 11
0 2 11
0 2 11
0 2 11
0 2 11
0 2 11
0 2 11
0 2 11
0 2 11
0 2 11
0 2 11
0 2 11
0 2 11
0 2 11
0 2 11
0 2 11
0 2 11
0 2 11
0 2 11
0 2 11
0 2 11
0 2 11
0 2 11
0 2 11
0 2 11
0 2 11
0 2 11
0 2 11
0 2 11
0 2 11
0 2 11
0 2 11
0 2 11
0 2 11
0 2 11
0 2 11
0 2 11
0 2 11
0 2 11
0 2 11
0 2 11
0 2 11
0 2 11
0 2 11
0 2 11
0 2 11
0 2 11
0 2 11
0 2 11
0 2 11
0 2 11
0 2 11
0 2 11
0 2 11
0 2 11
0 2 11
0 2 11
0 2 11
0 2 11
0 2 11
0 2 11
0 2 11
0 2 11
0 2 11
0 2 11
0 2 11
0 2 11
0 2 11
0 2 11
0 2 11
0 2 11
0 2 11
0 2 11
0 2 11
0 2 11
0 2 11
0 2 11
0 2 11
0 2 11
0 2 11
0 2 11
0 2 11
0 2 11
0 2 11
0 2 11
0 2 11
0 2 11
0 2 11
0 2 11
0 2 11
0 2 11
0 2 11
0 2 11
0 2 11
0 2 11
0 2 11
0 2 11
0 2 11
0 2 11
0 2 11
0 2 11
0 2 11
0 2 11
0 2 11
0 2 11
0 2 11
0 2 11
0 2 11
0 2 11
0 2 11
0 2 11
0 2 11
0 2 11
0 2 11
0 2 11
0 2 11
0 2 11
0 2 11
0 2 11
0 2 11
0 2 11
0 2 11
0 2 11
0 2 11
0 2 11
0 2 11
0 2 11
0 2 11
0 2 11
0 2 11
0 2 11
0 2 11
0 2 11
0 2 11
0 2 11
0 2 11
0 2 11
0 2 11
0 2 11
0 2 11
0 2 11
0 2 11
0 2 11
0 2 11
0 2 11
0 2 11
0 2 11
0 2 11
0 2 11
0 2 11
0 2 11
0 2 11
0 2 11
0 2 11
0 2 11
0 2 11
0 2 11
0 2 11
0 2 11
0 2 11
0 2 11
0 2 11
0 2 11
0 2 11
0 2 11
0 2 11
0 2 11
0 2 11
0 2 11
0 2 11
0 2 11
0 2 11
0 2 11
0 2 11
0 2 11
0 2 11
0 2 11
0 2 11
0 2 11
0 2 11
0 2 11
0 2 11
0 2 11
0 2 11
0 2 11
0 2 11
0 2 11
0 2 11
0 2 11
0 2 11
0 2 11
0 2 11
0 2 11
0 2 11
0 2 11
0 2 11
0 2 11
0 2 11
0 2 11
0 2 11
0 2 11
0 2 11
0 2 11
0 2 11
0 2 11
0 2 11
0 2 11
0 2 11
0 2 11
0 2 11
0 2 11
0 2 11
0 2 11
0 2 11
0 2 11
0 2 11
0 2 11
0 2 11
0 2 11
0 2 11
0 2 11
0 2 11
0 2 11
0 2 11
0 2 11
0 2 11
0 2 11
0 2 11
0 2 11
0 2 11
0 2 11
0 2 11
0 2 11
0 2 11
0 2 11
0 2 11
0 2 11
0 2 11
0 2 11
0 2 11
0 2 11
0 2 11
0 2 11
0 2 11
0 2 11
0 2 11
0 2 11
0 2 11
0 2 11
0 2 11
0 2 11
0 2 11
0 2 11
0 2 11
0 2 11
0 2 11
0 2 11
0 2 11
0 2 11
0 2 11
0 2 11
0 2 11
0 2 11
0 2 11
0 2 11
0 2 11
0 2 11
0 2 11
0 2 11
0 2 11
0 2 11
0 2 11
0 2 11
0 2 11
0 2 11
0 2 11
0 2 11
0 2 11
0 2 11
0 2 11
0 2 11
0 2 11
0 2 11
0 2 11
0 2 11
0 2 11
0 2 11
0 2 11
0 2 11
0 2 11
0 2 11
0 2 11
0 2 11
0 2 11
0 2 11
0 2 11
0 2 11
0 2 11
0 2 11
0 2 11
0 2 11
0 2 11
0 2 11
0 2 11
0 2 11
0 2 11
0 2 11
0 2 11
0 2 11
0 2 11
0 2 11
0 2 11
0 2 11
0 2 11
0 2 11
0 2 11
0 2 11
0 2 11
0 2 11
0 2 11
0 2 11
0 2 11
0 2 11
0 2 11
0 2 11
0 2 11
0 2 11
0 2 11
0 2 11
0 2 11
0 2 11
0 2 11
0 2 11
0 2 11
0 2 11
0 2 11
0 2 11
0 2 11
0 2 11
0 2 11
0 2 11
0 2 11
0 2 11
0 2 11
0 2 11
0 2 11
0 2 11
0 2 11
0 2 11
0 2 11
0 2 11
0 2 11
0 2 11
0 2 11
0 2 11
0 2 11
0 2 11
0 2 11
0 2 11
0 2 11
0 2 11
0 2 11
0 2 11
0 2 11
0 2 11
0 2 11
0 2 11
0 2 11
0 2 11
0 2 11
0 2 11
0 2 11
0 2 11
0 2 11
0 2 11
0 2 11
0 2 11
0 2 11
0 2 11
0 2 11
0 2 11
0 2 11
0 2 11
0 2 11
0 2 11
0 2 11
0 2 11
0 2 11
0 2 11
0 2 11
0 2 11
0 2 11
0 2 11
0 2 11
0 2 11
0 2 11
0 2 11
0 2 11
0 2 11
0 2 11
0 2 11
0 2 11
0 2 11
0 2 11
0 2 11
0 2 11
0 2 11
0 2 11
0 2 11
0 2 11
0 2 11
0 2 11
0 2 11
0 2 11
0 2 11
0 2 11
0 2 11
0 2 11
0 2 11
0 2 11
0 2 11
0 2 11
0 2 11
0 2 11
0 2 11
0 2 11
0 2 11
0 2 11
0 2 11
0 2 11
0 2 11
0 2 11
0 2 11
0 2 11
0 2 11
0 2 11
0 2 11
0 2 11
0 2 11
0 2 11
0 2 11
0 2 11
0 2 11
0 2 11
0 2 11
0 2 11
0 2 11
0 2 11
0 2 11
0 2 11
0 2 11
0 2 11
0 2 11
0 2 11
0 2 11
0 2 11
0 2 11
0 2 11
0 2 11
0 2 11
0 2 11
0 2 11
0 2 11
0 2 11
0 2 11
0 2 11
0 2 11
0 2 11
0 2 11
0 2 11
0 2 11
0 2 11
0 2 11
0 2 11
0 2 11
0 2 11
0 2 11
0 2 11
0 2 11
0 2 11
0 2 11
0 2 11
0 2 11
0 2 11
0 2 11
0 2 11
0 2 11
0 2 11
0 2 11
0 2 11
0 2 11
0 2 11
0 2 11
0 2 11
0 2 11
0 2 11
0 2 11
0 2 11
0 2 11
0 2 11
0 2 11
0 2 11
0 2 11
0 2 11
0 2 11
0 2 11
0 2 11
0 2 11
0 2 11
0 2 11
0 2 11
0 2 11
0 2 11
0 2 11
0 2 11
0 2 11
0 2 11
0 2 11
0 2 11
0 2 11
0 2 11
0 2 11
0 2 11
0 2 11
0 2 11
0 2 11
0 2 11
0 2 11
0 2 11
0 2 11
0 2 11
0 2 11
0 2 11
0 2 11
0 2 11
0 2 11
0 2 11
0 2 11
0 2 11
0 2 11
0 2 11
0 2 11
0 2 11
0 2 11
0 2 11
0 2 11
0 2 11
0 2 11
0 2 11
0 2 11
0 2 11
0 2 11
0 2 11
0 2 11
0 2 11
0 2 11
0 2 11
0 2 11
0 2 11
0 2 11
0 2 11
0 2 11
0 2 11
0 2 11
0 2 11
0 2 11
0 2 11
0 2 11
0 2 11
0 2 11
0 2 11
0 2 11
0 2 11
0 2 11
0 2 11
0 2 11
0 2 11
0 2 11
0 2 11
0 2 11
0 2 11
0 2 11
0 2 11
0 2 11
0 2 11
0 2 11
0 2 11
0 2 11
0 2 11
0 2 11
0 2 11
0 2 11
0 2 11
0 2 11
0 2 11
0 2 11
0 2 11
0 2 11
0 2 11
0 2 11
0 2 11
0 2 11
0 2 11
0 2 11
0 2 11
0 2 11
0 2 11
0 2 11
0 2 11
0 2 11
0 2 11
0 2 11
0 2 11
0 2 11
0 2 11
0 2 11
0 2 11
0 2 11
0 2 11
0 2 11
0 2 11
0 2 11
0 2 11
0 2 11
0 2 11
0 2 11
0 2 11
0 2 11
0 2 11
0 2 11
0 2 11
0 2 11
0 2 11
0 2 11
0 2 11
0 2 11
0 2 11
0 2 11
0 2 11
0 2 11
0 2 11
0 2 11
0 2 11
0 2 11
0 2 11
0 2 11
0 2 11
0 2 11
0 2 11
0 2 11
0 2 11
0 2 11
0 2 11
0 2 11
0 2 11
0 2 11
0 2 11
0 2 11
0 2 11
0 2 11
0 2 11
0 2 11
0 2 11
0 2 11
0 2 11
0 2 11
0 2 11
0 2 11
0 2 11
0 2 11
0 2 11
0 2 11
0 2 11
0 2 11
0 2 11
0 2 11
0 2 11
0 2 11
0 2 11
0 2 11
0 2 11
0 2 11
0 2 11
0 2 11
0 2 11
0 2 11
0 2 11
0 2 11
0 2 11
0 2 11
0 2 11
0 2 11
0 2 11
0 2 11
0 2 11
0 2 11
0 2 11
0 2 11
0 2 11
0 2 11
0 2 11
0 2 11
0 2 11
0 2 11
0 2 11
0 2 11
0 2 11
0 2 11
0 2 11
0 2 11
0 2 11
0 2 11
0 2 11
0 2 11
0 2 11
0 2 11
0 2 11
0 2 11
0 2 11
0 2 11
0 2 11
0 2 11
0 2 11
0 2 11
0 2 11
0 2 11
0 2 11
0 2 11
0 2 11
0 2 11
0 2 11
0 2 11
0 2 11
0 2 11
0 2 11
0 2 11
0 2 11
0 2 11
0 2 11
0 2 11
0 2 11
0 2 11
0 2 11
0 2 11
0 2 11
0 2 11
0 2 11
0 2 11
0 2 11
0 2 11
0 2 11
0 2 11
0 2 11
0 2 11
0 2 11
0 2 11
0 2 11
0 2 11
0 2 11
0 2 11
0 2 11
0 2 11
0 2 11
0 2 11
0 2 11
0 2 11
0 2 11
0 2 11
0 2 11
0 2 11
0 2 11
0 2 11
0 2 11
0 2 11
0 2 11
0 2 11
0 2 11
0 2 11
0 2 11
0 2 11
0 2 11
0 2 11
0 2 11
0 2 11
0 2 11
0 2 11
0 2 11
0 2 11
0 2 11
0 2 11
0 2 11
0 2 11
0 2 11
0 2 11
0 2 11
0 2 11
0 2 11
0 2 11
0 2 11
0 2 11
0 2 11
0 2 11
0 2 11
0 2 11
0 2 11
0 2 11
0 2 11
0 2 11
0 2 11
0 2 11
0 2 11
0 2 11
0 2 11
0 2 11
0 2 11
0 2 11
0 2 11
0 2 11
0 2 11
0 2 11
0 2 11
0 2 11
0 2 11
0 2 11
0 2 11
0 2 11
0 2 11
0 2 11
0 2 11
0 2 11
0 2 11
0 2 11
0 2 11
0 2 11
0 2 11
0 2 11
0 2 11
0 2 11
0 2 11
0 2 11
0 2 11
0 2 11
0 2 11
0 2 11
0 2 11
0 2 11
0 2 11
0 2 11
0 2 11
0 2 11
0 2 11
0 2 11
0 2 11
0 2 11
0 2 11
0 2 11
0 2 11
0 2 11
0 2 11
0 2 11
0 2 11
0 2 11
0 2 11
0 2 11
0 2 11
0 2 11
0 2 11
0 2 11
0 2 11
0 2 11
0 2 11
0 2 11
0 2 11
0 2 11
0 2 11
0 2 11
0 2 11
0 2 11
0 2 11
0 2 11
0 2 11
0 2 11
0 2 11
0 2 11
0 2 11
0 2 11
0 2 11
0 2 11
0 2 11
0 2 11
0 2 11
0 2 11
0 2 11
0 2 11
0 2 11
0 2 11
0 2 11
0 2 11
0 2 11
0 2 11
0 2 11
0 2 11
0 2 11
0 2 11
0 2 11
0 2 11
0 2 11
0 2 11
0 2 11
0 2 11
0 2 11
0 2 11
0 2 11
0 2 11
0 2 11
0 2 11
0 2 11
0 2 11
0 2 11
0 2 11
0 2 11
0 2 11
0 2 11
0 2 11
0 2 11
0 2 11
0 2 11
0 2 11
0 2 11
0 2 11
0 2 11
0 2 11
0 2 11
0 2 11
0 2 11
0 2 11
0 2 11
0 2 11
0 2 11
0 2 11
0 2 11
0 2 11
0 2 11
0 2 11
0 2 11
0 2 11
0 2 11
0 2 11
0 2 11
0 2 11
0 2 11
0 2 11
0 2 11
0 2 11
0 2 11
0 2 11
0 2 11
0 2 11
0 2 11
0 2 11
0 2 11
0 2 11
0 2 11
0 2 11
0 2 11
0 2 11
0 2 11
0 2 11
0 2 11
0 2 11
0 2 11
0 2 11
0 2 11
0 2 11
0 2 11
0 2 11
0 2 11
0 2 11
0 2 11
0 2 11
0 2 11
0 2 11
0 2 11
0 2 11
0 2 11
0 2 11
0 2 11
0 2 11
0 2 11
0 2 11
0 2 11
0 2 11
0 2 11
0 2 11
0 2 11
0 2 11
0 2 11
0 2 11
0 2 11
0 2 11
0 2 11
0 2 11
0 2 11
0 2 11
0 2 11
0 2 11
0 2 11
0 2 11
0 2 11
0 2 11
0 2 11
0 2 11
0 2 11
0 2 11
0 2 11
0 2 11
0 2 11
0 2 11
0 2 11
0 2 11
0 2 11
0 2 11
0 2 11
0 2 11
0 2 11
0 2 11
0 2 11
0 2 11
0 2 11
0 2 11
0 2 11
0 2 11
0 2 11
0 2 11
0 2 11
0 2 11
0 2 11
0 2 11
0 2 11
0 2 11
0 2 11
0 2 11
0 2 11
0 2 11
0 2 11
0 2 11
0 2 11
0 2 11
0 2 11
0 2 11
0 2 11
0 2 11
0 2 11
0 2 11
0 2 11
0 2 11
0 2 11
0 2 11
0 2 11
0 2 11
0 2 11
0 2 11
0 2 11
0 2 11
0 2 11
0 2 11
0 2 11
0 2 11
0 2 11
0 2 11
0 2 11
0 2 11
0 2 11
0 2 11
0 2 11
0 2 11
0 2 11
0 2 11
0 2 11
0 2 11
0 2 11
0 2 11
0 2 11
0 2 11
0 2 11
0 2 11
0 2 11
0 2 11
0 2 11
0 2 11
0 2 11
0 2 11
0 2 11
0 2 11
0 2 11
0 2 11
0 2 11
0 2 11
0 2 11
0 2 11
0 2 11
0 2 11
0 2 11
0 2 11
0 2 11
0 2 11
0 2 11
0 2 11
0 2 11
0 2 11
0 2 11
0 2 11
0 2 11
0 2 11
0 2 11
0 2 11
0 2 11
0 2 11
0 2 11
0 2 11
0 2 11
0 2 11
0 2 11
0 2 11
0 2 11
0 2 11
0 2 11
0 2 11
0 2 11
0 2 11
0 2 11
0 2 11
0 2 11
0 2 11
0 2 11
0 2 11
0 2 11
0 2 11
0 2 11
0 2 11
0 2 11
0 2 11
0 2 11
0 2 11
0 2 11
0 2 11
0 2 11
0 2 11
0 2 11
0 2 11
0 2 11
0 2 11
0 2 11
0 2 11
0 2 11
0 2 11
0 2 11
0 2 11
0 2 11
0 2 11
0 2 11
0 2 11
0 2 11
0 2 11
0 2 11
0 2 11
0 2 11
0 2 11
0 2 11
0 2 11
0 2 11
0 2 11
0 2 11
0 2 11
0 2 11
0 2 11
0 2 11
0 2 11
0 2 11
0 2 11
0 2 11
0 2 11
0 2 11
0 2 11
0 2 11
0 2 11
0 2 11
0 2 11
0 2 11
0 2 11
0 2 11
0 2 11
0 2 11
0 2 11
0 2 11
0 2 11
0 2 11
0 2 11
0 2 11
0 2 11
0 2 11
0 2 11
0 2 11
0 2 11
0 2 11
0 2 11
0 2 11
0 2 11
0 2 11
0 2 11
0 2 11
0 2 11
0 2 11
0 2 11
0 2 11
0 2 11
0 2 11
0 2 11
0 2 11
0 2 11
0 2 11
0 2 11
0 2 11
0 2 11
0 2 11
0 2 11
0 2 11
0 2 11
0 2 11
0 2 11
0 2 11
0 2 11
0 2 11
0 2 11
0 2 11
0 2 11
0 2 11
0 2 11
0 2 11
0 2 11
0 2 11
0 2 11
0 2 11
0 2 11
0 2 11
0 2 11
0 2 11
0 2 11
0 2 11
0 2 11
0 2 11
0 2 11
0 2 11
0 2 11
0 2 11
0 2 11
0 2 11
0 2 11
0 2 11
0 2 11
0 2 11
0 2 11
0 2 11
0 2 11
0 2 11
0 2 11
0 2 11
0 2 11
0 2 11
0 2 11
0 2 11
0 2 11
0 2 11
0 2 11
0 2 11
0 2 11
0 2 11
0 2 11
0 2 11
0 2 11
0 2 11
0 2 11
0 2 11
0 2 11
0 2 11
0 2 11
0 2 11
0 2 11
0 2 11
0 2 11
0 2 11
0 2 11
0 2 11
0 2 11
0 2 11
0 2 11
0 2 11
0 2 11
0 2 11
0 2 11
0 2 11
0 2 11
0 2 11
0 2 11
0 2 11
0 2 11
0 2 11
0 2 11
0 2 11
0 2 11
0 2 11
0 2 11
0 2 11
0 2 11
0 2 11
0 2 11
0 2 11
0 2 11
0 2 11
0 2 11
0 2 11
0 2 11
0 2 11
0 2 11
0 2 11
0 2 11
0 2 11
0 2 11
0 2 11
0 2 11
0 2 11
0 2 11
0 2 11
0 2 11
0 2 11
0 2 11
0 2 11
0 2 11
0 2 11
0 2 11
0 2 11
0 2 11
0 2 11
0 2 11
0 2 11
0 2 11
0 2 11
0 2 11
0 2 11
0 2 11
0 2 11
0 2 11
0 2 11
0 2 11
0 2 11
0 2 11
0 2 11
0 2 11
0 2 11
0 2 11
0 2 11
0 2 11
0 2 11
0 2 11
0 2 11
0 2 11
0 2 11
0 2 11
0 2 11
0 2 11
0 2 11
0 2 11
0 2 11
0 2 11
0 2 11
0 2 11
0 2 11
0 2 11
0 2 11
0 2 11
0 2 11
0 2 11
0 2 11
0 2 11
0 2 11
0 2 11
0 2 11
0 2 11
0 2 11
0 2 11
0 2 11
0 2 11
0 2 11
0 2 11
0 2 11
0 2 11
0 2 11
0 2 11
0 2 11
0 2 11
0 2 11
0 2 11
0 2 11
0 2 11
0 2 11
0 2 11
0 2 11
0 2 11
0 2 11
0 2 11
0 2 11
0 2 11
0 2 11
0 2 11
0 2 11
0 2 11
0 2 11
0 2 11
0 2 11
0 2 11
0 2 11
0 2 11
0 2 11
0 2 11
0 2 11
0 2 11
0 2 11
0 2 11
0 2 11
0 2 11
0 2 11
0 2 11
0 2 11
0 2 11
0 2 11
0 2 11
0 2 11
0 2 11
0 2 11
0 2 11
0 2 11
0 2 11
0 2 11
0 2 11
0 2 11
0 2 11
0 2 11
0 2 11
0 2 11
0 2 11
0 2 11
0 2 11
0 2 11
0 2 11
0 2 11
0 2 11
0 2 11
0 2 11
0 2 11
0 2 11
0 2 11
0 2 11
0 2 11
0 2 11
0 2 11
0 2 11
0 2 11
0 2 11
0 2 11
0 2 11
0 2 11
0 2 11
0 2 11
0 2 11
0 2 11
0 2 11
0 2 11
0 2 11
0 2 11
0 2 11
0 2 11
0 2 11
0 2 11
0 2 11
0 2 11
0 2 11
0 2 11
0 2 11
0 2 11
0 2 11
0 2 11
0 2 11
0 2 11
0 2 11
0 2 11
0 2 11
0 2 11
0 2 11
0 2 11
0 2 11
0 2 11
0 2 11
0 2 11
0 2 11
0 2 11
0 2 11
0 2 11
0 2 11
0 2 11
0 2 11
0 2 11
0 2 11
0 2 11
0 2 11
0 2 11
0 2 11
0 2 11
0 2 11
0 2 11
0 2 11
0 2 11
0 2 11
0 2 11
0 2 11
0 2 11
0 2 11
0 2 11
0 2 11
0 2 11
0 2 11
0 2 11
0 2 11
0 2 11
0 2 11
0 2 11
0 2 11
0 2 11
0 2 11
0 2 11
0 2 11
0 2 11
0 2 11
0 2 11
0 2 11
0 2 11
0 2 11
0 2 11
0 2 11
0 2 11
0 2 11
0 2 11
0 2 11
0 2 11
0 2 11
0 2 11
0 2 11
0 2 11
0 2 11
0 2 11
0 2 11
0 2 11
0 2 11
0 2 11
0 2 11
0 2 11
0 2 11
0 2 11
0 2 11
0 2 11
0 2 11
0 2 11
0 2 11
0 2 11
0 2 11
0 2 11
0 2 11
0 2 11
0 2 11
0 2 11
0 2 11
0 2 11
0 2 11
0 2 11
0 2 11
0 2 11
0 2 11
0 2 11
0 2 11
0 2 11
0 2 11
0 2 11
0 2 11
0 2 11
0 2 11
0 2 11
0 2 11
0 2 11
0 2 11
0 2 11
0 2 11
0 2 11
0 2 11
0 2 11
0 2 11
0 2 11
0 2 11
0 2 11
0 2 11
0 2 11
0 2 11
0 2 11
0 2 11
0 2 11
0 2 11
0 2 11
0 2 11
0 2 11
0 2 11
0 2 11
0 2 11
0 2 11
0 2 11
0 2 11
0 2 11
0 2 11
0 2 11
0 2 11
0 2 11
0 2 11
0 2 11
0 2 11
0 2 11
0 2 11
0 2 11
0 2 11
0 2 11
0 2 11
0 2 11
0 2 11
0 2 11
0 2 11
0 2 11
0 2 11
0 2 11
0 2 11
0 2 11
0 2 11
0 2 11
0 2 11
0 2 11
0 2 11
0 2 11
0 2 11
0 2 11
0 2 11
0 2 11
0 2 11
0 2 11
0 2 11
0 2 11
0 2 11
0 2 11
0 2 11
0 2 11
0 2 11
0 2 11
0 2 11
0 2 11
0 2 11
0 2 11
0 2 11
0 2 11
0 2 11
0 2 11
0 2 11
0 2 11
0 2 11
0 2 11
0 2 11
0 2 11
0 2 11
0 2 11
0 2 11
0 2 11
0 2 11
0 2 11
0 2 11
0 2 11
0 2 11
0 2 11
0 2 11
0 2 11
0 2 11
0 2 11
0 2 11
0 2 11
0 2 11
0 2 11
0 2 11
0 2 11
0 2 11
0 2 11
0 2 11
0 2 11
0 2 11
0 2 11
0 2 11
0 2 11
0 2 11
0 2 11
0 2 11
0 2 11
0 2 11
0 2 11
0 2 11
0 2 11
0 2 11
0 2 11
0 2 11
0 2 11
0 2 11
0 2 11
0 2 11
0 2 11
0 2 11
0 2 11
0 2 11
0 2 11
0 2 11
0 2 11
0 2 11
0 2 11
0 2 11
0 2 11
0 2 11
0 2 11
0 2 11
0 2 11
0 2 11
0 2 11
0 2 11
0 2 11
0 2 11
0 2 11
0 2 11
0 2 11
0 2 11
0 2 11
0 2 11
0 2 11
0 2 11
0 2 11
0 2 11
0 2 11
0 2 11
0 2 11
0 2 11
0 2 11
0 2 11
0 2 11
0 2 11
0 2 11
0 2 11
0 2 11
0 2 11
0 2 11
0 2 11
0 2 11
0 2 11
0 2 11
0 2 11
0 2 11
0 2 11
0 2 11
0 2 11
0 2 11
0 2 11
0 2 11
0 2 11
0 2 11
0 2 11
0 2 11
0 2 11
0 2 11
0 2 11
0 2 11
0 2 11
0 2 11
0 2 11
0 2 11
0 2 11
0 2 11
0 2 11
0 2 11
0 2 11
0 2 11
0 2 11
0 2 11
0 2 11
0 2 11
0 2 11
0 2 11
0 2 11
0 2 11
0 2 11
0 2 11
0 2 11
0 2 11
0 2 11
0 2 11
0 2 11
0 2 11
0 2 11
0 2 11
0 2 11
0 2 11
0 2 11
0 2 11
0 2 11
0 2 11
0 2 11
0 2 11
0 2 11
0 2 11
0 2 11
0 2 11
0 2 11
0 2 11
0 2 11
0 2 11
0 2 11
0 2 11
0 2 11
0 2 11
0 2 11
0 2 11
0 2 11
0 2 11
0 2 11
0 2 11
0 2 11
0 2 11
0 2 11
0 2 11
0 2 11
0 2 11
0 2 11
0 2 11
0 2 11
0 2 11
0 2 11
0 2 11
0 2 11
0 2 11
0 2 11
0 2 11
0 2 11
0 2 11
0 2 11
0 2 11
0 2 11
0 2 11
0 2 11
0 2 11
0 2 11
0 2 11
0 2 11
0 2 11
0 2 11
0 2 11
0 2 11
0 2 11
0 2 11
0 2 11
0 2 11
0 2 11
0 2 11
0 2 11
0 2 11
0 2 11
0 2 11
0 2 11
0 2 11
0 2 11
0 2 11
0 2 11
0 2 11
0 2 11
0 2 11
0 2 11
0 2 11
0 2 11
0 2 11
0 2 11
0 2 11
0 2 11
0 2 11
0 2 11
0 2 11
0 2 11
0 2 11
0 2 11
0 2 11
0 2 11
0 2 11
0 2 11
0 2 11
0 2 11
0 2 11
0 2 11
0 2 11
0 2 11
0 2 11
0 2 11
0 2 11
0 2 11
0 2 11
0 2 11
0 2 11
0 2 11
0 2 11
0 2 11
0 2 11
0 2 11
0 2 11
0 2 11
0 2 11
0 2 11
0 2 11
0 2 11
0 2 11
0 2 11
0 2 11
0 2 11
0 2 11
0 2 11
0 2 11
0 2 11
0 2 11
0 2 11
0 2 11
0 2 11
0 2 11
0 2 11
0 2 11
0 2 11
0 2 11
0 2 11
0 2 11
0 2 11
0 2 11
0 2 11
0 2 11
0 2 11
0 2 11
0 2 11
0 2 11
0 2 11
0 2 11
0 2 11
0 2 11
0 2 11
0 2 11
0 2 11
0 2 11
0 2 11
0 2 11
0 2 11
0 2 11
0 2 11
0 2 11
0 2 11
0 2 11
0 2 11
0 2 11
0 2 11
0 2 11
0 2 11
0 2 11
0 2 11
0 2 11
0 2 11
0 2 11
0 2 11
0 2 11
0 2 11
0 2 11
0 2 11
0 2 11
0 2 11
0 2 11
0 2 11
0 2 11
0 2 11
0 2 11
0 2 11
0 2 11
0 2 11
0 2 11
0 2 11
0 2 11
0 2 11
0 2 11
0 2 11
0 2 11
0 2 11
0 2 11
0 2 11
0 2 11
0 2 11
0 2 11
0 2 11
0 2 11
0 2 11
0 2 11
0 2 11
0 2 11
0 2 11
0 2 11
0 2 11
0 2 11
0 2 11
0 2 11
0 2 11
0 2 11
0 2 11
0 2 11
0 2 11
0 2 11
0 2 11
0 2 11
0 2 11
0 2 11
0 2 11
0 2 11
0 2 11
0 2 11
0 2 11
0 2 11
0 2 11
0 2 11
0 2 11
0 2 11
0 2 11
0 2 11
0 2 11
0 2 11
0 2 11
0 2 11
0 2 11
0 2 11
0 2 11
0 2 11
0 2 11
0 2 11
0 2 11
0 2 11
0 2 11
0 2 11
0 2 11
0 2 11
0 2 11
0 2 11
0 2 11
0 2 11
0 2 11
0 2 11
0 2 11
0 2 11
0 2 11
0 2 11
0 2 11
0 2 11
0 2 11
0 2 11
0 2 11
0 2 11
0 2 11
0 2 11
0 2 11
0 2 11
0 2 11
0 2 11
0 2 11
0 2 11
0 2 11
0 2 11
0 2 11
0 2 11
0 2 11
0 2 11
0 2 11
0 2 11
0 2 11
0 2 11
0 2 11
0 2 11
0 2 11
0 2 11
0 2 11
0 2 11
0 2 11
0 2 11
0 2 11
0 2 11
0 2 11
0 2 11
0 2 11
0 2 11
0 2 11
0 2 11
0 2 11
0 2 11
0 2 11
0 2 11
0 2 11
0 2 11
0 2 11
0 2 11
0 2 11
0 2 11
0 2 11
0 2 11
0 2 11
0 2 11
0 2 11
0 2 11
0 2 11
0 2 11
0 2 11
0 2 11
0 2 11
0 2 11
0 2 11
0 2 11
0 2 11
0 2 11
0 2 11
0 2 11
0 2 11
0 2 11
0 2 11
0 2 11
0 2 11
0 2 11
0 2 11
0 2 11
0 2 11
0 2 11
0 2 11
0 2 11
0 2 11
0 2 11
0 2 11
0 2 11
0 2 11
0 2 11
0 2 11
0 2 11
0 2 11
0 2 11
0 2 11
0 2 11
0 2 11
0 2 11
0 2 11
0 2 11
0 2 11
0 2 11
0 2 11
0 2 11
0 2 11
0 2 11
0 2 11
0 2 11
0 2 11
0 2 11
0 2 11
0 2 11
0 2 11
0 2 11
0 2 11
0 2 11
0 2 11
0 2 11
0 2 11
0 2 11
0 2 11
0 2 11
0 2 11
0 2 11
0 2 11
0 2 11
0 2 11
0 2 11
0 2 11
0 2 11
0 2 11
0 2 11
0 2 11
0 2 11
0 2 11
0 2 11
0 2 11
0 2 11
0 2 11
0 2 11
0 2 11
0 2 11
0 2 11
0 2 11
0 2 11
0 2 11
0 2 11
0 2 11
0 2 11
0 2 11
0 2 11
0 2 11
0 2 11
0 2 11
0 2 11
0 2 11
0 2 11
0 2 11
0 2 11
0 2 11
0 2 11
0 2 11
0 2 11
0 2 11
0 2 11
0 2 11
0 2 11
0 2 11
0 2 11
0 2 11
0 2 11
0 2 11
0 2 11
0 2 11
0 2 11
0 2 11
0 2 11
0 2 11
0 2 11
0 2 11
0 2 11
0 2 11
0 2 11
0 2 11
0 2 11
0 2 11
0 2 11
0 2 11
0 2 11
0 2 11
0 2 11
0 2 11
0 2 11
0 2 11
0 2 11
0 2 11
0 2 11
0 2 11
0 2 11
0 2 11
0 2 11
0 2 11
0 2 11
0 2 11
0 2 11
0 2 11
0 2 11
0 2 11
0 2 11
0 2 11
0 2 11
0 2 11
0 2 11
0 2 11
0 2 11
0 2 11
0 2 11
0 2 11
0 2 11
0 2 11
0 2 11
0 2 11
0 2 11
0 2 11
0 2 11
0 2 11
0 2 11
0 2 11
0 2 11
0 2 11
0 2 11
0 2 11
0 2 11
0 2 11
0 2 11
0 2 11
0 2 11
0 2 11
0 2 11
0 2 11
0 2 11
0 2 11
0 2 11
0 2 11
0 2 11
0 2 11
0 2 11
0 2 11
0 2 11
0 2 11
0 2 11
0 2 11
0 2 11
0 2 11
0 2 11
0 2 11
0 2 11
0 2 11
0 2 11
0 2 11
0 2 11
0 2 11
0 2 11
0 2 11
0 2 11
0 2 11
0 2 11
0 2 11
0 2 11
0 2 11
0 2 11
0 2 11
0 2 11
0 2 11
0 2 11
0 2 11
0 2 11
0 2 11
0 2 11
0 2 11
0 2 11
0 2 11
0 2 11
0 2 11
0 2 11
0 2 11
0 2 11
0 2 11
0 2 11
0 2 11
0 2 11
0 2 11
0 2 11
0 2 11
0 2 11
0 2 11
0 2 11
0 2 11
0 2 11
0 2 11
0 2 11
0 2 11
0 2 11
0 2 11
0 2 11
0 2 11
0 2 11
0 2 11
0 2 11
0 2 11
0 2 11
0 2 11
0 2 11
0 2 11
0 2 11
0 2 11
0 2 11
0 2 11
0 2 11
0 2 11
0 2 11
0 2 11
0 2 11
0 2 11
0 2 11
0 2 11
0 2 11
0 2 11
0 2 11
0 2 11
0 2 11
0 2 11
0 2 11
0 2 11
0 2 11
0 2 11
0 2 11
0 2 11
0 2 11
0 2 11
0 2 11
0 2 11
0 2 11
0 2 11
0 2 11
0 2 11
0 2 11
0 2 11
0 2 11
0 2 11
0 2 11
0 2 11
0 2 11
0 2 11
0 2 11
0 2 11
0 2 11
0 2 11
0 2 11
0 2 11
0 2 11
0 2 11
0 2 11
0 2 11
0 2 11
0 2 11
0 2 11
0 2 11
0 2 11
0 2 11
0 2 11
0 2 11
0 2 11
0 2 11
0 2 11
0 2 11
0 2 11
0 2 11
0 2 11
0 2 11
0 2 11
0 2 11
0 2 11
0 2 11
0 2 11
0 2 11
0 2 11
0 2 11
0 2 11
0 2 11
0 2 11
0 2 11
0 2 11
0 2 11
0 2 11
0 2 11
0 2 11
0 2 11
0 2 11
0 2 11
0 2 11
0 2 11
0 2 11
0 2 11
0 2 11
0 2 11
0 2 11
0 2 11
0 2 11
0 2 11
0 2 11
0 2 11
0 2 11
0 2 11
0 2 11
0 2 11
0 2 11
0 2 11
0 2 11
0 2 11
0 2 11
0 2 11
0 2 11
0 2 11
0 2 11
0 2 11
0 2 11
0 2 11
0 2 11
0 2 11
0 2 11
0 2 11
0 2 11
0 2 11
0 2 11
0 2 11
0 2 11
0 2 11
0 2 11
0 2 11
0 2 11
0 2 11
0 2 11
0 2 11
0 2 11
0 2 11
0 2 11
0 2 11
0 2 11
0 2 11
0 2 11
0 2 11
0 2 11
0 2 11
0 2 11
0 2 11
0 2 11
0 2 11
0 2 11
0 2 11
0 2 11
0 2 11
0 2 11
0 2 11
0 2 11
0 2 11
0 2 11
0 2 11
0 2 11
0 2 11
0 2 11
0 2 11
0 2 11
0 2 11
0 2 11
0 2 11
0 2 11
0 2 11
0 2 11
0 2 11
0 2 11
0 2 11
0 2 11
0 2 11
0 2 11
0 2 11
0 2 11
0 2 11
0 2 11
0 2 11
0 2 11
0 2 11
0 2 11
0 2 11
0 2 11
0 2 11
0 2 11
0 2 11
0 2 11
0 2 11
0 2 11
0 2 11
0 2 11
0 2 11
0 2 11
0 2 11
0 2 11
0 2 11
0 2 11
0 2 11
0 2 11
0 2 11
0 2 11
0 2 11
0 2 11
0 2 11
0 2 11
0 2 11
0 2 11
0 2 11
0 2 11
0 2 11
0 2 11
0 2 11
0 2 11
0 2 11
0 2 11
0 2 11
0 2 11
0 2 11
0 2 11
0 2 11
0 2 11
0 2 11
0 2 11
0 2 11
0 2 11
0 2 11
0 2 11
0 2 11
0 2 11
0 2 11
0 2 11
0 2 11
0 2 11
0 2 11
0 2 11
0 2 11
0 2 11
0 2 11
0 2 11
0 2 11
0 2 11
0 2 11
0 2 11
0 2 11
0 2 11
0 2 11
0 2 11
0 2 11
0 2 11
0 2 11
0 2 11
0 2 11
0 2 11
0 2 11
0 2 11
0 2 11
0 2 11
0 2 11
0 2 11
0 2 11
0 2 11
0 2 11
0 2 11
0 2 11
0 2 11
0 2 11
0 2 11
0 2 11
0 2 11
0 2 11
0 2 11
0 2 11
0 2 11
0 2 11
0 2 11
0 2 11
0 2 11
0 2 11
0 2 11
0 2 11
0 2 11
0 2 11
0 2 11
0 2 11
0 2 11
0 2 11
0 2 11
0 2 11
0 2 11
0 2 11
0 2 11
0 2 11
0 2 11
0 2 11
0 2 11
0 2 11
0 2 11
0 2 11
0 2 11
0 2 11
0 2 11
0 2 11
0 2 11
0 2 11
0 2 11
0 2 11
0 2 11
0 2 11
0 2 11
0 2 11
0 2 11
0 2 11
0 2 11
0 2 11
0 2 11
0 2 11
0 2 11
0 2 11
0 2 11
0 2 11
0 2 11
0 2 11
0 2 11
0 2 11
0 2 11
0 2 11
0 2 11
0 2 11
0 2 11
0 2 11
0 2 11
0 2 11
0 2 11
0 2 11
0 2 11
0 2 11
0 2 11
0 2 11
0 2 11
0 2 11
0 2 11
0 2 11
0 2 11
0 2 11
0 2 11
0 2 11
0 2 11
0 2 11
0 2 11
0 2 11
0 2 11
0 2 11
0 2 11
0 2 11
0 2 11
0 2 11
0 2 11
0 2 11
0 2 11
0 2 11
0 2 11
0 2 11
0 2 11
0 2 11
0 2 11
0 2 11
0 2 11
0 2 11
0 2 11
0 2 11
0 2 11
0 2 11
0 2 11
0 2 11
0 2 11
0 2 11
0 2 11
0 2 11
0 2 11
0 2 11
0 2 11
0 2 11
0 2 11
0 2 11
0 2 11
0 2 11
0 2 11
0 2 11
0 2 11
0 2 11
0 2 11
0 2 11
0 2 11
0 2 11
0 2 11
0 2 11
0 2 11
0 2 11
0 2 11
0 2 11
0 2 11
0 2 11
0 2 11
0 2 11
0 2 11
0 2 11
0 2 11
0 2 11
0 2 11
0 2 11
0 2 11
0 2 11
0 2 11
0 2 11
0 2 11
0 2 11
0 2 11
0 2 11
0 2 11
0 2 11
0 2 11
0 2 11
0 2 11
0 2 11
0 2 11
0 2 11
0 2 11
0 2 11
0 2 11
0 2 11
0 2 11
0 2 11
0 2 11
0 2 11
0 2 11
0 2 11
0 2 11
0 2 11
0 2 11
0 2 11
0 2 11
0 2 11
0 2 11
0 2 11
0 2 11
0 2 11
0 2 11
0 2 11
0 2 11
0 2 11
0 2 11
0 2 11
0 2 11
0 2 11
0 2 11
0 2 11
0 2 11
0 2 11
0 2 11
0 2 11
0 2 11
0 2 11
0 2 11
0 2 11
0 2 11
0 2 11
0 2 11
0 2 11
0 2 11
0 2 11
0 2 11
0 2 11
0 2 11
0 2 11
0 2 11
0 2 11
0 2 11
0 2 11
0 2 11
0 2 11
0 2 11
0 2 11
0 2 11
0 2 11
0 2 11
0 2 11
0 2 11
0 2 11
0 2 11
0 2 11
0 2 11
0 2 11
0 2 11
0 2 11
0 2 11
0 2 11
0 2 11
0 2 11
0 2 11
0 2 11
0 2 11
0 2 11
0 2 11
0 2 11
0 2 11
0 2 11
0 2 11
0 2 11
0 2 11
0 2 11
0 2 11
0 2 11
0 2 11
0 2 11
0 2 11
0 2 11
0 2 11
0 2 11
0 2 11
0 2 11
0 2 11
0 2 11
0 2 11
0 2 11
0 2 11
0 2 11
0 2 11
0 2 11
0 2 11
0 2 11
0 2 11
0 2 11
0 2 11
0 2 11
0 2 11
0 2 11
0 2 11
0 2 11
0 2 11
0 2 11
0 2 11
0 2 11
0 2 11
0 2 11
0 2 11
0 2 11
0 2 11
0 2 11
0 2 11
0 2 11
0 2 11
0 2 11
0 2 11
0 2 11
0 2 11
0 2 11
0 2 11
0 2 11
0 2 11
0 2 11
0 2 11
0 2 11
0 2 11
0 2 11
0 2 11
0 2 11
0 2 11
0 2 11
0 2 11
0 2 11
0 2 11
0 2 11
0 2 11
0 2 11
0 2 11
0 2 11
0 2 11
0 2 11
0 2 11
0 2 11
0 2 11
0 2 11
0 2 11
0 2 11
0 2 11
0 2 11
0 2 11
0 2 11
0 2 11
0 2 11
0 2 11
0 2 11
0 2 11
0 2 11
0 2 11
0 2 11
0 2 11
0 2 11
0 2 11
0 2 11
0 2 11
0 2 11
0 2 11
0 2 11
0 2 11
0 2 11
0 2 11
0 2 11
0 2 11
0 2 11
0 2 11
0 2 11
0 2 11
0 2 11
0 2 11
0 2 11
0 2 11
0 2 11
0 2 11
0 2 11
0 2 11
0 2 11
0 2 11
0 2 11
0 2 11
0 2 11
0 2 11
0 2 11
0 2 11
0 2 11
0 2 11
0 2 11
0 2 11
0 2 11
0 2 11
0 2 11
0 2 11
0 2 11
0 2 11
0 2 11
0 2 11
0 2 11
0 2 11
0 2 11
0 2 11
0 2 11
0 2 11
0 2 11
0 2 11
0 2 11
0 2 11
0 2 11
0 2 11
0 2 11
0 2 11
0 2 11
0 2 11
0 2 11
0 2 11
0 2 11
0 2 11
0 2 11
0 2 11
0 2 11
0 2 11
0 2 11
0 2 11
0 2 11
0 2 11
0 2 11
0 2 11
0 2 11
0 2 11
0 2 11
0 2 11
0 2 11
0 2 11
0 2 11
0 2 11
0 2 11
0 2 11
0 2 11
0 2 11
0 2 11
0 2 11
0 2 11
0 2 11
0 2 11
0 2 11
0 2 11
0 2 11
0 2 11
0 2 11
0 2 11
0 2 11
0 2 11
0 2 11
0 2 11
0 2 11
0 2 11
0 2 11
0 2 11
0 2 11
0 2 11
0 2 11
0 2 11
0 2 11
0 2 11
0 2 11
0 2 11
0 2 11
0 2 11
0 2 11
0 2 11
0 2 11
0 2 11
0 2 11
0 2 11
0 2 11
0 2 11
0 2 11
0 2 11
0 2 11
0 2 11
0 2 11
0 2 11
0 2 11
0 2 11
0 2 11
0 2 11
0 2 11
0 2 11
0 2 11
0 2 11
0 2 11
0 2 11
0 2 11
0 2 11
0 2 11
0 2 11
0 2 11
0 2 11
0 2 11
0 2 11
0 2 11
0 2 11
0 2 11
0 2 11
0 2 11
0 2 11
0 2 11
0 2 11
0 2 11
0 2 11
0 2 11
0 2 11
0 2 11
0 2 11
0 2 11
0 2 11
0 2 11
0 2 11
0 2 11
0 2 11
0 2 11
0 2 11
0 2 11
0 2 11
0 2 11
0 2 11
0 2 11
0 2 11
0 2 11
0 2 11
0 2 11
0 2 11
0 2 11
0 2 11
0 2 11
0 2 11
0 2 11
0 2 11
0 2 11
0 2 11
0 2 11
0 2 11
0 2 11
0 2 11
0 2 11
0 2 11
0 2 11
0 2 11
0 2 11
0 2 11
0 2 11
0 2 11
0 2 11
0 2 11
0 2 11
0 2 11
0 2 11
0 2 11
0 2 11
0 2 11
0 2 11
0 2 11
0 2 11
0 2 11
0 2 11
0 2 11
0 2 11
0 2 11
0 2 11
0 2 11
0 2 11
0 2 11
0 2 11
0 2 11
0 2 11
0 2 11
0 2 11
0 2 11
0 2 11
0 2 11
0 2 11
0 2 11
0 2 11
0 2 11
0 2 11
0 2 11
0 2 11
0 2 11
0 2 11
0 2 11
0 2 11
0 2 11
0 2 11
0 2 11
0 2 11
0 2 11
0 2 11
0 2 11
0 2 11
0 2 11
0 2 11
0 2 11
0 2 11
0 2 11
0 2 11
0 2 11
0 2 11
0 2 11
0 2 11
0 2 11
0 2 11
0 2 11
0 2 11
0 2 11
0 2 11
0 2 11
0 2 11
0 2 11
0 2 11
0 2 11
0 2 11
0 2 11
0 2 11
0 2 11
0 2 11
0 2 11
0 2 11
0 2 11
0 2 11
0 2 11
0 2 11
0 2 11
0 2 11
0 2 11
0 2 11
0 2 11
0 2 11
0 2 11
0 2 11
0 2 11
0 2 11
0 2 11
0 2 11
0 2 11
0 2 11
0 2 11
0 2 11
0 2 11
0 2 11
0 2 11
0 2 11
0 2 11
0 2 11
0 2 11
0 2 11
0 2 11
0 2 11
0 2 11
0 2 11
0 2 11
0 2 11
0 2 11
0 2 11
0 2 11
0 2 11
0 2 11
0 2 11
0 2 11
0 2 11
0 2 11
0 2 11
0 2 11
0 2 11
0 2 11
0 2 11
0 2 11
0 2 11
0 2 11
0 2 11
0 2 11
0 2 11
0 2 11
0 2 11
0 2 11
0 2 11
0 2 11
0 2 11
0 2 11
0 2 11
0 2 11
0 2 11
0 2 11
0 2 11
0 2 11
0 2 11
0 2 11
0 2 11
0 2 11
0 2 11
0 2 11
0 2 11
0 2 11
0 2 11
0 2 11
0 2 11
0 2 11
0 2 11
0 2 11
0 2 11
0 2 11
0 2 11
0 2 11
0 2 11
0 2 11
0 2 11
0 2 11
0 2 11
0 2 11
0 2 11
0 2 11
0 2 11
0 2 11
0 2 11
0 2 11
0 2 11
0 2 11
0 2 11
0 2 11
0 2 11
0 2 11
0 2 11
0 2 11
0 2 11
0 2 11
0 2 11
0 2 11
0 2 11
0 2 11
0 2 11
0 2 11
0 2 11
0 2 11
0 2 11
0 2 11
0 2 11
0 2 11
0 2 11
0 2 11
0 2 11
0 2 11
0 2 11
0 2 11
0 2 11
0 2 11
0 2 11
0 2 11
0 2 11
0 2 11
0 2 11
0 2 11
0 2 11
0 2 11
0 2 11
0 2 11
0 2 11
0 2 11
0 2 11
0 2 11
0 2 11
0 2 11
0 2 11
0 2 11
0 2 11
0 2 11
0 2 11
0 2 11
0 2 11
0 2 11
0 2 11
0 2 11
0 2 11
0 2 11
0 2 11
0 2 11
0 2 11
0 2 11
0 2 11
0 2 11
0 2 11
0 2 11
0 2 11
0 2 11
0 2 11
0 2 11
0 2 11
0 2 11
0 2 11
0 2 11
0 2 11
0 2 11
0 2 11
0 2 11
0 2 11
0 2 11
0 2 11
0 2 11
0 2 11
0 2 11
0 2 11
0 2 11
0 2 11
0 2 11
0 2 11
0 2 11
0 2 11
0 2 11
0 2 11
0 2 11
0 2 11
0 2 11
0 2 11
0 2 11
0 2 11
0 2 11
0 2 11
0 2 11
0 2 11
0 2 11
0 2 11
0 2 11
0 2 11
0 2 11
0 2 11
0 2 11
0 2 11
0 2 11
0 2 11
0 2 11
0 2 11
0 2 11
0 2 11
0 2 11
0 2 11
0 2 11
0 2 11
0 2 11
0 2 11
0 2 11
0 2 11
0 2 11
0 2 11
0 2 11
0 2 11
0 2 11
0 2 11
0 2 11
0 2 11
0 2 11
0 2 11
0 2 11
0 2 11
0 2 11
0 2 11
0 2 11
0 2 11
0 2 11
0 2 11
0 2 11
0 2 11
0 2 11
0 2 11
0 2 11
0 2 11
0 2 11
0 2 11
0 2 11
0 2 11
0 2 11
0 2 11
0 2 11
0 2 11
0 2 11
0 2 11
0 2 11
0 2 11
0 2 11
0 2 11
0 2 11
0 2 11
0 2 11
0 2 11
0 2 11
0 2 11
0 2 11
0 2 11
0 2 11
0 2 11
0 2 11
0 2 11
0 2 11
0 2 11
0 2 11
0 2 11
0 2 11
0 2 11
0 2 11
0 2 11
0 2 11
0 2 11
0 2 11
0 2 11
0 2 11
0 2 11
0 2 11
0 2 11
0 2 11
0 2 11
0 2 11
0 2 11
0 2 11
0 2 11
0 2 11
0 2 11
0 2 11
0 2 11
0 2 11
0 2 11
0 2 11
0 2 11
0 2 11
0 2 11
0 2 11
0 2 11
0 2 11
0 2 11
0 2 11
0 2 11
0 2 11
0 2 11
0 2 11
0 2 11
0 2 11
0 2 11
0 2 11
0 2 11
0 2 11
0 2 11
0 2 11
0 2 11
0 2 11
0 2 11
0 2 11
0 2 11
0 2 11
0 2 11
0 2 11
0 2 11
0 2 11
0 2 11
0 2 11
0 2 11
0 2 11
0 2 11
0 2 11
0 2 11
0 2 11
0 2 11
0 2 11
0 2 11
0 2 11
0 2 11
0 2 11
0 2 11
0 2 11
0 2 11
0 2 11
0 2 11
0 2 11
0 2 11
0 2 11
0 2 11
0 2 11
0 2 11
0 2 11
0 2 11
0 2 11
0 2 11
0 2 11
0 2 11
0 2 11
0 2 11
0 2 11
0 2 11
0 2 11
0 2 11
0 2 11
0 2 11
0 2 11
0 2 11
0 2 11
0 2 11
0 2 11
0 2 11
0 2 11
0 2 11
0 2 11
0 2 11
0 2 11
0 2 11
0 2 11
0 2 11
0 2 11
0 2 11
0 2 11
0 2 11
0 2 11
0 2 11
0 2 11
0 2 11
0 2 11
0 2 11
0 2 11
0 2 11
0 2 11
0 2 11
0 2 11
0 2 11
0 2 11
0 2 11
0 2 11
0 2 11
0 2 11
0 2 11
0 2 11
0 2 11
0 2 11
0 2 11
0 2 11
0 2 11
0 2 11
0 2 11
0 2 11
0 2 11
0 2 11
0 2 11
0 2 11
0 2 11
0 2 11
0 2 11
0 2 11
0 2 11
0 2 11
0 2 11
0 2 11
0 2 11
0 2 11
0 2 11
0 2 11
0 2 11
0 2 11
0 2 11
0 2 11
0 2 11
0 2 11
0 2 11
0 2 11
0 2 11
0 2 11
0 2 11
0 2 11
0 2 11
0 2 11
0 2 11
0 2 11
0 2 11
0 2 11
0 2 11
0 2 11
0 2 11
0 2 11
0 2 11
0 2 11
0 2 11
0 2 11
0 2 11
0 2 11
0 2 11
0 2 11
0 2 11
0 2 11
0 2 11
0 2 11
0 2 11
0 2 11
0 2 11
0 2 11
0 2 11
0 2 11
0 2 11
0 2 11
0 2 11
0 2 11
0 2 11
0 2 11
0 2 11
0 2 11
0 2 11
0 2 11
0 2 11
0 2 11
0 2 11
0 2 11
0 2 11
0 2 11
0 2 11
0 2 11
0 2 11
0 2 11
0 2 11
0 2 11
0 2 11
0 2 11
0 2 11
0 2 11
0 2 11
0 2 11
0 2 11
0 2 11
0 2 11
0 2 11
0 2 11
0 2 11
0 2 11
0 2 11
0 2 11
0 2 11
0 2 11
0 2 11
0 2 11
0 2 11
0 2 11
0 2 11
0 2 11
0 2 11
0 2 11
0 2 11
0 2 11
0 2 11
0 2 11
0 2 11
0 2 11
0 2 11
0 2 11
0 2 11
0 2 11
0 2 11
0 2 11
0 2 11
0 2 11
0 2 11
0 2 11
0 2 11
0 2 11
0 2 11
0 2 11
0 2 11
0 2 11
0 2 11
0 2 11
0 2 11
0 2 11
0 2 11
0 2 11
0 2 11
0 2 11
0 2 11
0 2 11
0 2 11
0 2 11
0 2 11
0 2 11
0 2 11
0 2 11
0 2 11
0 2 11
0 2 11
0 2 11
0 2 11
0 2 11
0 2 11
0 2 11
0 2 11
0 2 11
0 2 11
0 2 11
0 2 11
0 2 11
0 2 11
0 2 11
0 2 11
0 2 11
0 2 11
0 2 11
0 2 11
0 2 11
0 2 11
0 2 11
0 2 11
0 2 11
0 2 11
0 2 11
0 2 11
0 2 11
0 2 11
0 2 11
0 2 11
0 2 11
0 2 11
0 2 11
0 2 11
0 2 11
0 2 11
0 2 11
0 2 11
0 2 11
0 2 11
0 2 11
0 2 11
0 2 11
0 2 11
0 2 11
0 2 11
0 2 11
0 2 11
0 2 11
0 2 11
0 2 11
0 2 11
0 2 11
0 2 11
0 2 11
0 2 11
0 2 11
0 2 11
0 2 11
0 2 11
0 2 11
0 2 11
0 2 11
0 2 11
0 2 11
0 2 11
0 2 11
0 2 11
0 2 11
0 2 11
0 2 11
0 2 11
0 2 11
0 2 11
0 2 11
0 2 11
0 2 11
0 2 11
0 2 11
0 2 11
0 2 11
0 2 11
0 2 11
0 2 11
0 2 11
0 2 11
0 2 11
0 2 11
0 2 11
0 2 11
0 2 11
0 2 11
0 2 11
0 2 11
0 2 11
0 2 11
0 2 11
0 2 11
0 2 11
0 2 11
0 2 11
0 2 11
0 2 11
0 2 11
0 2 11
0 2 11
0 2 11
0 2 11
0 2 11
0 2 11
0 2 11
0 2 11
0 2 11
0 2 11
0 2 11
0 2 11
0 2 11
0 2 11
0 2 11
0 2 11
0 2 11
0 2 11
0 2 11
0 2 11
0 2 11
0 2 11
0 2 11
0 2 11
0 2 11
0 2 11
0 2 11
0 2 11
0 2 11
0 2 11
0 2 11
0 2 11
0 2 11
0 2 11
0 2 11
0 2 11
0 2 11
0 2 11
0 2 11
0 2 11
0 2 11
0 2 11
0 2 11
0 2 11
0 2 11
0 2 11
0 2 11
0 2 11
0 2 11
0 2 11
0 2 11
0 2 11
0 2 11
0 2 11
0 2 11
0 2 11
0 2 11
0 2 11
0 2 11
0 2 11
0 2 11
0 2 11
0 2 11
0 2 11
0 2 11
0 2 11
0 2 11
0 2 11
0 2 11
0 2 11
0 2 11
0 2 11
0 2 11
0 2 11
0 2 11
0 2 11
0 2 11
0 2 11
0 2 11
0 2 11
0 2 11
0 2 11
0 2 11
0 2 11
0 2 11
0 2 11
0 2 11
0 2 11
0 2 11
0 2 11
0 2 11
0 2 11
0 2 11
0 2 11
0 2 11
0 2 11
0 2 11
0 2 11
0 2 11
0 2 11
0 2 11
0 2 11
0 2 11
0 2 11
0 2 11
0 2 11
0 2 11
0 2 11
0 2 11
0 2 11
0 2 11
0 2 11
0 2 11
0 2 11
0 2 11
0 2 11
0 2 11
0 2 11
0 2 11
0 2 11
0 2 11
0 2 11
0 2 11
0 2 11
0 2 11
0 2 11
0 2 11
0 2 11
0 2 11
0 2 11
0 2 11
0 2 11
0 2 11
0 2 11
0 2 11
0 2 11
0 2 11
0 2 11
0 2 11
0 2 11
0 2 11
0 2 11
0 2 11
0 2 11
0 2 11
0 2 11
0 2 11
0 2 11
0 2 11
0 2 11
0 2 11
0 2 11
0 2 11
0 2 11
0 2 11
0 2 11
0 2 11
0 2 11
0 2 11
0 2 11
0 2 11
0 2 11
0 2 11
0 2 11
0 2 11
0 2 11
0 2 11
0 2 11
0 2 11
0 2 11
0 2 11
0 2 11
0 2 11
0 2 11
0 2 11
0 2 11
0 2 11
0 2 11
0 2 11
0 2 11
0 2 11
0 2 11
0 2 11
0 2 11
0 2 11
0 2 11
0 2 11
0 2 11
0 2 11
0 2 11
0 2 11
0 2 11
0 2 11
0 2 11
0 2 11
0 2 11
0 2 11
0 2 11
0 2 11
0 2 11
0 2 11
0 2 11
0 2 11
0 2 11
0 2 11
0 2 11
0 2 11
0 2 11
0 2 11
0 2 11
0 2 11
0 2 11
0 2 11
0 2 11
0 2 11
0 2 11
0 2 11
0 2 11
0 2 11
0 2 11
0 2 11
0 2 11
0 2 11
0 2 11
0 2 11
0 2 11
0 2 11
0 2 11
0 2 11
0 2 11
0 2 11
0 2 11
0 2 11
0 2 11
0 2 11
0 2 11
0 2 11
0 2 11
0 2 11
0 2 11
0 2 11
0 2 11
0 2 11
0 2 11
0 2 11
0 2 11
0 2 11
0 2 11
0 2 11
0 2 11
0 2 11
0 2 11
0 2 11
0 2 11
0 2 11
0 2 11
0 2 11
0 2 11
0 2 11
0 2 11
0 2 11
0 2 11
0 2 11
0 2 11
0 2 11
0 2 11
0 2 11
0 2 11
0 2 11
0 2 11
0 2 11
0 2 11
0 2 11
0 2 11
0 2 11
0 2 11
0 2 11
0 2 11
0 2 11
0 2 11
0 2 11
0 2 11
0 2 11
0 2 11
0 2 11
0 2 11
0 2 11
0 2 11
0 2 11
0 2 11
0 2 11
0 2 11
0 2 11
0 2 11
0 2 11
0 2 11
0 2 11
0 2 11
0 2 11
0 2 11
0 2 11
0 2 11
0 2 11
0 2 11
0 2 11
0 2 11
0 2 11
0 2 11
0 2 11
0 2 11
0 2 11
0 2 11
0 2 11
0 2 11
0 2 11
0 2 11
0 2 11
0 2 11
0 2 11
0 2 11
0 2 11
0 2 11
0 2 11
0 2 11
0 2 11
0 2 11
0 2 11
0 2 11
0 2 11
0 2 11
0 2 11
0 2 11
0 2 11
0 2 11
0 2 11
0 2 11
0 2 11
0 2 11
0 2 11
0 2 11
0 2 11
0 2 11
0 2 11
0 2 11
0 2 11
0 2 11
0 2 11
0 2 11
0 2 11
0 2 11
0 2 11
0 2 11
0 2 11
0 2 11
0 2 11
0 2 11
0 2 11
0 2 11
0 2 11
0 2 11
0 2 11
0 2 11
0 2 11
0 2 11
0 2 11
0 2 11
0 2 11
0 2 11
0 2 11
0 2 11
0 2 11
0 2 11
0 2 11
0 2 11
0 2 11
0 2 11
0 2 11
0 2 11
0 2 11
0 2 11
0 2 11
0 2 11
0 2 11
0 2 11
0 2 11
0 2 11
0 2 11
0 2 11
0 2 11
0 2 11
0 2 11
0 2 11
0 2 11
0 2 11
0 2 11
0 2 11
0 2 11
0 2 11
0 2 11
0 2 11
0 2 11
0 2 11
0 2 11
0 2 11
0 2 11
0 2 11
0 2 11
0 2 11
0 2 11
0 2 11
0 2 11
0 2 11
0 2 11
0 2 11
0 2 11
0 2 11
0 2 11
0 2 11
0 2 11
0 2 11
0 2 11
0 2 11
0 2 11
0 2 11
0 2 11
0 2 11
0 2 11
0 2 11
0 2 11
0 2 11
0 2 11
0 2 11
0 2 11
0 2 11
0 2 11
0 2 11
0 2 11
0 2 11
0 2 11
0 2 11
0 2 11
0 2 11
0 2 11
0 2 11
0 2 11
0 2 11
0 2 11
0 2 11
0 2 11
0 2 11
0 2 11
0 2 11
0 2 11
0 2 11
0 2 11
0 2 11
0 2 11
0 2 11
0 2 11
0 2 11
0 2 11
0 2 11
0 2 11
0 2 11
0 2 11
0 2 11
0 2 11
0 2 11
0 2 11
0 2 11
0 2 11
0 2 11
0 2 11
0 2 11
0 2 11
0 2 11
0 2 11
0 2 11
0 2 11
0 2 11
0 2 11
0 2 11
0 2 11
0 2 11
0 2 11
0 2 11
0 2 11
0 2 11
0 2 11
0 2 11
0 2 11
0 2 11
0 2 11
0 2 11
0 2 11
0 2 11
0 2 11
0 2 11
0 2 11
0 2 11
0 2 11
0 2 11
0 2 11
0 2 11
0 2 11
0 2 11
0 2 11
0 2 11
0 2 11
0 2 11
0 2 11
0 2 11
0 2 11
0 2 11
0 2 11
0 2 11
0 2 11
0 2 11
0 2 11
0 2 11
0 2 11
0 2 11
0 2 11
0 2 11
0 2 11
0 2 11
0 2 11
0 2 11
0 2 11
0 2 11
0 2 11
0 2 11
0 2 11
0 2 11
0 2 11
0 2 11
0 2 11
0 2 11
0 2 11
0 2 11
0 2 11
0 2 11
0 2 11
0 2 11
0 2 11
0 2 11
0 2 11
0 2 11
0 2 11
0 2 11
0 2 11
0 2 11
0 2 11
0 2 11
0 2 11
0 2 11
0 2 11
0 2 11
0 2 11
0 2 11
0 2 11
0 2 11
0 2 11
0 2 11
0 2 11
0 2 11
0 2 11
0 2 11
0 2 11
0 2 11
0 2 11
0 2 11
0 2 11
0 2 11
0 2 11
0 2 11
0 2 11
0 2 11
0 2 11
0 2 11
0 2 11
0 2 11
0 2 11
0 2 11
0 2 11
0 2 11
0 2 11
0 2 11
0 2 11
0 2 11
0 2 11
0 2 11
0 2 11
0 2 11
0 2 11
0 2 11
0 2 11
0 2 11
0 2 11
0 2 11
0 2 11
0 2 11
0 2 11
0 2 11
0 2 11
0 2 11
0 2 11
0 2 11
0 2 11
0 2 11
0 2 11
0 2 11
0 2 11
0 2 11
0 2 11
0 2 11
0 2 11
0 2 11
0 2 11
0 2 11
0 2 11
0 2 11
0 2 11
0 2 11
0 2 11
0 2 11
0 2 11
0 2 11
0 2 11
0 2 11
0 2 11
0 2 11
0 2 11
0 2 11
0 2 11
0 2 11
0 2 11
0 2 11
0 2 11
0 2 11
0 2 11
0 2 11
0 2 11
0 2 11
0 2 11
0 2 11
0 2 11
0 2 11
0 2 11
0 2 11
0 2 11
0 2 11
0 2 11
0 2 11
0 2 11
0 2 11
0 2 11
0 2 11
0 2 11
0 2 11
0 2 11
0 2 11
0 2 11
0 2 11
0 2 11
0 2 11
0 2 11
0 2 11
0 2 11
0 2 11
0 2 11
0 2 11
0 2 11
0 2 11
0 2 11
0 2 11
0 2 11
0 2 11
0 2 11
0 2 11
0 2 11
0 2 11
0 2 11
0 2 11
0 2 11
0 2 11
0 2 11
0 2 11
0 2 11
0 2 11
0 2 11
0 2 11
0 2 11
0 2 11
0 2 11
0 2 11
0 2 11
0 2 11
0 2 11
0 2 11
0 2 11
0 2 11
0 2 11
0 2 11
0 2 11
0 2 11
0 2 11
0 2 11
0 2 11
0 2 11
0 2 11
0 2 11
0 2 11
0 2 11
0 2 11
0 2 11
0 2 11
0 2 11
0 2 11
0 2 11
0 2 11
0 2 11
0 2 11
0 2 11
0 2 11
0 2 11
0 2 11
0 2 11
0 2 11
0 2 11
0 2 11
0 2 11
0 2 11
0 2 11
0 2 11
0 2 11
0 2 11
0 2 11
0 2 11
0 2 11
0 2 11
0 2 11
0 2 11
0 2 11
0 2 11
0 2 11
0 2 11
0 2 11
0 2 11
0 2 11
0 2 11
0 2 11
0 2 11
0 2 11
0 2 11
0 2 11
0 2 11
0 2 11
0 2 11
0 2 11
0 2 11
0 2 11
0 2 11
0 2 11
0 2 11
0 2 11
0 2 11
0 2 11
0 2 11
0 2 11
0 2 11
0 2 11
0 2 11
0 2 11
0 2 11
0 2 11
0 2 11
0 2 11
0 2 11
0 2 11
0 2 11
0 2 11
0 2 11
0 2 11
0 2 11
0 2 11
0 2 11
0 2 11
0 2 11
0 2 11
0 2 11
0 2 11
0 2 11
0 2 11
0 2 11
0 2 11
0 2 11
0 2 11
0 2 11
0 2 11
0 2 11
0 2 11
0 2 11
0 2 11
0 2 11
0 2 11
0 2 11
0 2 11
0 2 11
0 2 11
0 2 11
0 2 11
0 2 11
0 2 11
0 2 11
0 2 11
0 2 11
0 2 11
0 2 11
0 2 11
0 2 11
0 2 11
0 2 11
0 2 11
0 2 11
0 2 11
0 2 11
0 2 11
0 2 11
0 2 11
0 2 11
0 2 11
0 2 11
0 2 11
0 2 11
0 2 11
0 2 11
0 2 11
0 2 11
0 2 11
0 2 11
0 2 11
0 2 11
0 2 11
0 2 11
0 2 11
0 2 11
0 2 11
0 2 11
0 2 11
0 2 11
0 2 11
0 2 11
0 2 11
0 2 11
0 2 11
0 2 11
0 2 11
0 2 11
0 2 11
0 2 11
0 2 11
0 2 11
0 2 11
0 2 11
0 2 11
0 2 11
0 2 11
0 2 11
0 2 11
0 2 11
0 2 11
0 2 11
0 2 11
0 2 11
0 2 11
0 2 11
0 2 11
0 2 11
0 2 11
0 2 11
0 2 11
0 2 11
0 2 11
0 2 11
0 2 11
0 2 11
0 2 11
0 2 11
0 2 11
0 2 11
0 2 11
0 2 11
0 2 11
0 2 11
0 2 11
0 2 11
0 2 11
0 2 11
0 2 11
0 2 11
0 2 11
0 2 11
0 2 11
0 2 11
0 2 11
0 2 11
0 2 11
0 2 11
0 2 11
0 2 11
0 2 11
0 2 11
0 2 11
0 2 11
0 2 11
0 2 11
0 2 11
0 2 11
0 2 11
0 2 11
0 2 11
0 2 11
0 2 11
0 2 11
0 2 11
0 2 11
0 2 11
0 2 11
0 2 11
0 2 11
0 2 11
0 2 11
0 2 11
0 2 11
0 2 11
0 2 11
0 2 11
0 2 11
0 2 11
0 2 11
0 2 11
0 2 11
0 2 11
0 2 11
0 2 11
0 2 11
0 2 11
0 2 11
0 2 11
0 2 11
0 2 11
0 2 11
0 2 11
0 2 11
0 2 11
0 2 11
0 2 11
0 2 11
0 2 11
0 2 11
0 2 11
0 2 11
0 2 11
0 2 11
0 2 11
0 2 11
0 2 11
0 2 11
0 2 11
0 2 11
0 2 11
0 2 11
0 2 11
0 2 11
0 2 11
0 2 11
0 2 11
0 2 11
0 2 11
0 2 11
0 2 11
0 2 11
0 2 11
0 2 11
0 2 11
0 2 11
0 2 11
0 2 11
0 2 11
0 2 11
0 2 11
0 2 11
0 2 11
0 2 11
0 2 11
0 2 11
0 2 11
0 2 11
0 2 11
0 2 11
0 2 11
0 2 11
0 2 11
0 2 11
0 2 11
0 2 11
0 2 11
0 2 11
0 2 11
0 2 11
0 2 11
0 2 11
0 2 11
0 2 11
0 2 11
0 2 11
0 2 11
0 2 11
0 2 11
0 2 11
0 2 11
0 2 11
0 2 11
0 2 11
0 2 11
0 2 11
0 2 11
0 2 11
0 2 11
0 2 11
0 2 11
0 2 11
0 2 11
0 2 11
0 2 11
0 2 11
0 2 11
0 2 11
0 2 11
0 2 11
0 2 11
0 2 11
0 2 11
0 2 11
0 2 11
0 2 11
0 2 11
0 2 11
0 2 11
0 2 11
0 2 11
0 2 11
0 2 11
0 2 11
0 2 11
0 2 11
0 2 11
0 2 11
0 2 11
0 2 11
0 2 11
0 2 11
0 2 11
0 2 11
0 2 11
0 2 11
0 2 11
0 2 11
0 2 11
0 2 11
0 2 11
0 2 11
0 2 11
0 2 11
0 2 11
0 2 11
0 2 11
0 2 11
0 2 11
0 2 11
0 2 11
0 2 11
0 2 11
0 2 11
0 2 11
0 2 11
0 2 11
0 2 11
0 2 11
0 2 11
0 2 11
0 2 11
0 2 11
0 2 11
0 2 11
0 2 11
0 2 11
0 2 11
0 2 11
0 2 11
0 2 11
0 2 11
0 2 11
0 2 11
0 2 11
0 2 11
0 2 11
0 2 11
0 2 11
0 2 11
0 2 11
0 2 11
0 2 11
0 2 11
0 2 11
0 2 11
0 2 11
0 2 11
0 2 11
0 2 11
0 2 11
0 2 11
0 2 11
0 2 11
0 2 11
0 2 11
0 2 11
0 2 11
0 2 11
0 2 11
0 2 11
0 2 11
0 2 11
0 2 11
0 2 11
0 2 11
0 2 11
0 2 11
0 2 11
0 2 11
0 2 11
0 2 11
0 2 11
0 2 11
0 2 11
0 2 11
0 2 11
0 2 11
0 2 11
0 2 11
0 2 11
0 2 11
0 2 11
0 2 11
0 2 11
0 2 11
0 2 11
0 2 11
0 2 11
0 2 11
0 2 11
0 2 11
0 2 11
0 2 11
0 2 11
0 2 11
0 2 11
0 2 11
0 2 11
0 2 11
0 2 11
0 2 11
0 2 11
0 2 11
0 2 11
0 2 11
0 2 11
0 2 11
0 2 11
0 2 11
0 2 11
0 2 11
0 2 11
0 2 11
0 2 11
0 2 11
0 2 11
0 2 11
0 2 11
0 2 11
0 2 11
0 2 11
0 2 11
0 2 11
0 2 11
0 2 11
0 2 11
0 2 11
0 2 11
0 2 11
0 2 11
0 2 11
0 2 11
0 2 11
0 2 11
0 2 11
0 2 11
0 2 11
0 2 11
0 2 11
0 2 11
0 2 11
0 2 11
0 2 11
0 2 11
0 2 11
0 2 11
0 2 11
0 2 11
0 2 11
0 2 11
0 2 11
0 2 11
0 2 11
0 2 11
0 2 11
0 2 11
0 2 11
0 2 11
0 2 11
0 2 11
0 2 11
0 2 11
0 2 11
0 2 11
0 2 11
0 2 11
0 2 11
0 2 11
0 2 11
0 2 11
0 2 11
0 2 11
0 2 11
0 2 11
0 2 11
0 2 11
0 2 11
0 2 11
0 2 11
0 2 11
0 2 11
0 2 11
0 2 11
0 2 11
0 2 11
0 2 11
0 2 11
0 2 11
0 2 11
0 2 11
0 2 11
0 2 11
0 2 11
0 2 11
0 2 11
0 2 11
0 2 11
0 2 11
0 2 11
0 2 11
0 2 11
0 2 11
0 2 11
0 2 11
0 2 11
0 2 11
0 2 11
0 2 11
0 2 11
0 2 11
0 2 11
0 2 11
0 2 11
0 2 11
0 2 11
0 2 11
0 2 11
0 2 11
0 2 11
0 2 11
0 2 11
0 2 11
0 2 11
0 2 11
0 2 11
0 2 11
0 2 11
0 2 11
0 2 11
0 2 11
0 2 11
0 2 11
0 2 11
0 2 11
0 2 11
0 2 11
0 2 11
0 2 11
0 2 11
0 2 11
0 2 11
0 2 11
0 2 11
0 2 11
0 2 11
0 2 11
0 2 11
0 2 11
0 2 11
0 2 11
0 2 11
0 2 11
0 2 11
0 2 11
0 2 11
0 2 11
0 2 11
0 2 11
0 2 11
0 2 11
0 2 11
0 2 11
0 2 11
0 2 11
0 2 11
0 2 11
0 2 11
0 2 11
0 2 11
0 2 11
0 2 11
0 2 11
0 2 11
0 2 11
0 2 11
0 2 11
0 2 11
0 2 11
0 2 11
0 2 11
0 2 11
0 2 11
0 2 11
0 2 11
0 2 11
0 2 11
0 2 11
0 2 11
0 2 11
0 2 11
0 2 11
0 2 11
0 2 11
0 2 11
0 2 11
0 2 11
0 2 11
0 2 11
0 2 11
0 2 11
0 2 11
0 2 11
0 2 11
0 2 11
0 2 11
0 2 11
0 2 11
0 2 11
0 2 11
0 2 11
0 2 11
0 2 11
0 2 11
0 2 11
0 2 11
0 2 11
0 2 11
0 2 11
0 2 11
0 2 11
0 2 11
0 2 11
0 2 11
0 2 11
0 2 11
0 2 11
0 2 11
0 2 11
0 2 11
0 2 11
0 2 11
0 2 11
0 2 11
0 2 11
0 2 11
0 2 11
0 2 11
0 2 11
0 2 11
0 2 11
0 2 11
0 2 11
0 2 11
0 2 11
0 2 11
0 2 11
0 2 11
0 2 11
0 2 11
0 2 11
0 2 11
0 2 11
0 2 11
0 2 11
0 2 11
0 2 11
0 2 11
0 2 11
0 2 11
0 2 11
0 2 11
0 2 11
0 2 11
0 2 11
0 2 11
0 2 11
0 2 11
0 2 11
0 2 11
0 2 11
0 2 11
0 2 11
0 2 11
0 2 11
0 2 11
0 2 11
0 2 11
0 2 11
0 2 11
0 2 11
0 2 11
0 2 11
0 2 11
0 2 11
0 2 11
0 2 11
0 2 11
0 2 11
0 2 11
0 2 11
0 2 11
0 2 11
0 2 11
0 2 11
0 2 11
0 2 11
0 2 11
0 2 11
0 2 11
0 2 11
0 2 11
0 2 11
0 2 11
0 2 11
0 2 11
0 2 11
0 2 11
0 2 11
0 2 11
0 2 11
0 2 11
0 2 11
0 2 11
0 2 11
0 2 11
0 2 11
0 2 11
0 2 11
0 2 11
0 2 11
0 2 11
0 2 11
0 2 11
0 2 11
0 2 11
0 2 11
0 2 11
0 2 11
0 2 11
0 2 11
0 2 11
0 2 11
0 2 11
0 2 11
0 2 11
0 2 11
0 2 11
0 2 11
0 2 11
0 2 11
0 2 11
0 2 11
0 2 11
0 2 11
0 2 11
0 2 11
0 2 11
0 2 11
0 2 11
0 2 11
0 2 11
0 2 11
0 2 11
0 2 11
0 2 11
0 2 11
0 2 11
0 2 11
0 2 11
0 2 11
0 2 11
0 2 11
0 2 11
0 2 11
0 2 11
0 2 11
0 2 11
0 2 11
0 2 11
0 2 11
0 2 11
0 2 11
0 2 11
0 2 11
0 2 11
0 2 11
0 2 11
0 2 11
0 2 11
0 2 11
0 2 11
0 2 11
0 2 11
0 2 11
0 2 11
0 2 11
0 2 11
0 2 11
0 2 11
0 2 11
0 2 11
0 2 11
0 2 11
0 2 11
0 2 11
0 2 11
0 2 11
0 2 11
0 2 11
0 2 11
0 2 11
0 2 11
0 2 11
0 2 11
0 2 11
0 2 11
0 2 11
0 2 11
0 2 11
0 2 11
0 2 11
0 2 11
0 2 11
0 2 11
0 2 11
0 2 11
0 2 11
0 2 11
0 2 11
0 2 11
0 2 11
0 2 11
0 2 11
0 2 11
0 2 11
0 2 11
0 2 11
0 2 11
0 2 11
0 2 11
0 2 11
0 2 11
0 2 11
0 2 11
0 2 11
0 2 11
0 2 11
0 2 11
0 2 11
0 2 11
0 2 11
0 2 11
0 2 11
0 2 11
0 2 11
0 2 11
0 2 11
0 2 11
0 2 11
0 2 11
0 2 11
0 2 11
0 2 11
0 2 11
0 2 11
0 2 11
0 2 11
0 2 11
0 2 11
0 2 11
0 2 11
0 2 11
0 2 11
0 2 11
0 2 11
0 2 11
0 2 11
0 2 11
0 2 11
0 2 11
0 2 11
0 2 11
0 2 11
0 2 11
0 2 11
0 2 11
0 2 11
0 2 11
0 2 11
0 2 11
0 2 11
0 2 11
0 2 11
0 2 11
0 2 11
0 2 11
0 2 11
0 2 11
0 2 11
0 2 11
0 2 11
0 2 11
0 2 11
0 2 11
0 2 11
0 2 11
0 2 11
0 2 11
0 2 11
0 2 11
0 2 11
0 2 11
0 2 11
0 2 11
0 2 11
0 2 11
0 2 11
0 2 11
0 2 11
0 2 11
0 2 11
0 2 11
0 2 11
0 2 11
0 2 11
0 2 11
0 2 11
0 2 11
0 2 11
0 2 11
0 2 11
0 2 11
0 2 11
0 2 11
0 2 11
0 2 11
0 2 11
0 2 11
0 2 11
0 2 11
0 2 11
0 2 11
0 2 11
0 2 11
0 2 11
0 2 11
0 2 11
0 2 11
0 2 11
0 2 11
0 2 11
0 2 11
0 2 11
0 2 11
0 2 11
0 2 11
0 2 11
0 2 11
0 2 11
0 2 11
0 2 11
0 2 11
0 2 11
0 2 11
0 2 11
0 2 11
0 2 11
0 2 11
0 2 11
0 2 11
0 2 11
0 2 11
0 2 11
0 2 11
0 2 11
0 2 11
0 2 11
0 2 11
0 2 11
0 2 11
0 2 11
0 2 11
0 2 11
0 2 11
0 2 11
0 2 11
0 2 11
0 2 11
0 2 11
0 2 11
0 2 11
0 2 11
0 2 11
0 2 11
0 2 11
0 2 11
0 2 11
0 2 11
0 2 11
0 2 11
0 2 11
0 2 11
0 2 11
0 2 11
0 2 11
0 2 11
0 2 11
0 2 11
0 2 11
0 2 11
0 2 11
0 2 11
0 2 11
0 2 11
0 2 11
0 2 11
0 2 11
0 2 11
0 2 11
0 2 11
0 2 11
0 2 11
0 2 11
0 2 11
0 2 11
0 2 11
0 2 11
0 2 11
0 2 11
0 2 11
0 2 11
0 2 11
0 2 11
0 2 11
0 2 11
0 2 11
0 2 11
0 2 11
0 2 11
0 2 11
0 2 11
0 2 11
0 2 11
0 2 11
0 2 11
0 2 11
0 2 11
0 2 11
0 2 11
0 2 11
0 2 11
0 2 11
0 2 11
0 2 11
0 2 11
0 2 11
0 2 11
0 2 11
0 2 11
0 2 11
0 2 11
0 2 11
0 2 11
0 2 11
0 2 11
0 2 11
0 2 11
0 2 11
0 2 11
0 2 11
0 2 11
0 2 11
0 2 11
0 2 11
0 2 11
0 2 11
0 2 11
0 2 11
0 2 11
0 2 11
0 2 11
0 2 11
0 2 11
0 2 11
0 2 11
0 2 11
0 2 11
0 2 11
0 2 11
0 2 11
0 2 11
0 2 11
0 2 11
0 2 11
0 2 11
0 2 11
0 2 11
0 2 11
0 2 11
0 2 11
0 2 11
0 2 11
0 2 11
0 2 11
0 2 11
0 2 11
0 2 11
0 2 11
0 2 11
0 2 11
0 2 11
0 2 11
0 2 11
0 2 11
0 2 11
0 2 11
0 2 11
0 2 11
0 2 11
0 2 11
0 2 11
0 2 11
0 2 11
0 2 11
0 2 11
0 2 11
0 2 11
0 2 11
0 2 11
0 2 11
0 2 11
0 2 11
0 2 11
0 2 11
0 2 11
0 2 11
0 2 11
0 2 11
0 2 11
0 2 11
0 2 11
0 2 11
0 2 11
0 2 11
0 2 11
0 2 11
0 2 11
0 2 11
0 2 11
0 2 11
0 2 11
0 2 11
0 2 11
0 2 11
0 2 11
0 2 11
0 2 11
0 2 11
0 2 11
0 2 11
0 2 11
0 2 11
0 2 11
0 2 11
0 2 11
0 2 11
0 2 11
0 2 11
0 2 11
0 2 11
0 2 11
0 2 11
0 2 11
0 2 11
0 2 11
0 2 11
0 2 11
0 2 11
0 2 11
0 2 11
0 2 11
0 2 11
0 2 11
0 2 11
0 2 11
0 2 11
0 2 11
0 2 11
0 2 11
0 2 11
0 2 11
0 2 11
0 2 11
0 2 11
0 2 11
0 2 11
0 2 11
0 2 11
0 2 11
0 2 11
0 2 11
0 2 11
0 2 11
0 2 11
0 2 11
0 2 11
0 2 11
0 2 11
0 2 11
0 2 11
0 2 11
0 2 11
0 2 11
0 2 11
0 2 11
0 2 11
0 2 11
0 2 11
0 2 11
0 2 11
0 2 11
0 2 11
0 2 11
0 2 11
0 2 11
0 2 11
0 2 11
0 2 11
0 2 11
0 2 11
0 2 11
0 2 11
0 2 11
0 2 11
0 2 11
0 2 11
0 2 11
0 2 11
0 2 11
0 2 11
0 2 11
0 2 11
0 2 11
0 2 11
0 2 11
0 2 11
0 2 11
0 2 11
0 2 11
0 2 11
0 2 11
0 2 11
0 2 11
0 2 11
0 2 11
0 2 11
0 2 11
0 2 11
0 2 11
0 2 11
0 2 11
0 2 11
0 2 11
0 2 11
0 2 11
0 2 11
0 2 11
0 2 11
0 2 11
0 2 11
0 2 11
0 2 11
0 2 11
0 2 11
0 2 11
0 2 11
0 2 11
0 2 11
0 2 11
0 2 11
0 2 11
0 2 11
0 2 11
0 2 11
0 2 11
0 2 11
0 2 11
0 2 11
0 2 11
0 2 11
0 2 11
0 2 11
0 2 11
0 2 11
0 2 11
0 2 11
0 2 11
0 2 11
0 2 11
0 2 11
0 2 11
0 2 11
0 2 11
0 2 11
0 2 11
0 2 11
0 2 11
0 2 11
0 2 11
0 2 11
0 2 11
0 2 11
0 2 11
0 2 11
0 2 11
0 2 11
0 2 11
0 2 11
0 2 11
0 2 11
0 2 11
0 2 11
0 2 11
0 2 11
0 2 11
0 2 11
0 2 11
0 2 11
0 2 11
0 2 11
0 2 11
0 2 11
0 2 11
0 2 11
0 2 11
0 2 11
0 2 11
0 2 11
0 2 11
0 2 11
0 2 11
0 2 11
0 2 11
0 2 11
0 2 11
0 2 11
0 2 11
0 2 11
0 2 11
0 2 11
0 2 11
0 2 11
0 2 11
0 2 11
0 2 11
0 2 11
0 2 11
0 2 11
0 2 11
0 2 11
0 2 11
0 2 11
0 2 11
0 2 11
0 2 11
0 2 11
0 2 11
0 2 11
0 2 11
0 2 11
0 2 11
0 2 11
0 2 11
0 2 11
0 2 11
0 2 11
0 2 11
0 2 11
0 2 11
0 2 11
0 2 11
0 2 11
0 2 11
0 2 11
0 2 11
0 2 11
0 2 11
0 2 11
0 2 11
0 2 11
0 2 11
0 2 11
0 2 11
0 2 11
0 2 11
0 2 11
0 2 11
0 2 11
0 2 11
0 2 11
0 2 11
0 2 11
0 2 11
0 2 11
0 2 11
0 2 11
0 2 11
0 2 11
0 2 11
0 2 11
0 2 11
0 2 11
0 2 11
0 2 11
0 2 11
0 2 11
0 2 11
0 2 11
0 2 11
0 2 11
0 2 11
0 2 11
0 2 11
0 2 11
0 2 11
0 2 11
0 2 11
0 2 11
0 2 11
0 2 11
0 2 11
0 2 11
0 2 11
0 2 11
0 2 11
0 2 11
0 2 11
0 2 11
0 2 11
0 2 11
0 2 11
0 2 11
0 2 11
0 2 11
0 2 11
0 2 11
0 2 11
0 2 11
0 2 11
0 2 11
0 2 11
0 2 11
0 2 11
0 2 11
0 2 11
0 2 11
0 2 11
0 2 11
0 2 11
0 2 11
0 2 11
0 2 11
0 2 11
0 2 11
0 2 11
0 2 11
0 2 11
0 2 11
0 2 11
0 2 11
0 2 11
0 2 11
0 2 11
0 2 11
0 2 11
0 2 11
0 2 11
0 2 11
0 2 11
0 2 11
0 2 11
0 2 11
0 2 11
0 2 11
0 2 11
0 2 11
0 2 11
0 2 11
0 2 11
0 2 11
0 2 11
0 2 11
0 2 11
0 2 11
0 2 11
0 2 11
0 2 11
0 2 11
0 2 11
0 2 11
0 2 11
0 2 11
0 2 11
0 2 11
0 2 11
0 2 11
0 2 11
0 2 11
0 2 11
0 2 11
0 2 11
0 2 11
0 2 11
0 2 11
0 2 11
0 2 11
0 2 11
0 2 11
0 2 11
0 2 11
0 2 11
0 2 11
0 2 11
0 2 11
0 2 11
0 2 11
0 2 11
0 2 11
0 2 11
0 2 11
0 2 11
0 2 11
0 2 11
0 2 11
0 2 11
0 2 11
0 2 11
0 2 11
0 2 11
0 2 11
0 2 11
0 2 11
0 2 11
0 2 11
0 2 11
0 2 11
0 2 11
0 2 11
0 2 11
0 2 11
0 2 11
0 2 11
0 2 11
0 2 11
0 2 11
0 2 11
0 2 11
0 2 11
0 2 11
0 2 11
0 2 11
0 2 11
0 2 11
0 2 11
0 2 11
0 2 11
0 2 11
0 2 11
0 2 11
0 2 11
0 2 11
0 2 11
0 2 11
0 2 11
0 2 11
0 2 11
0 2 11
0 2 11
0 2 11
0 2 11
0 2 11
0 2 11
0 2 11
0 2 11
0 2 11
0 2 11
0 2 11
0 2 11
0 2 11
0 2 11
0 2 11
0 2 11
0 2 11
0 2 11
0 2 11
0 2 11
0 2 11
0 2 11
0 2 11
0 2 11
0 2 11
0 2 11
0 2 11
0 2 11
0 2 11
0 2 11
0 2 11
0 2 11
0 2 11
0 2 11
0 2 11
0 2 11
0 2 11
0 2 11
0 2 11
0 2 11
0 2 11
0 2 11
0 2 11
0 2 11
0 2 11
0 2 11
0 2 11
0 2 11
0 2 11
0 2 11
0 2 11
0 2 11
0 2 11
0 2 11
0 2 11
0 2 11
0 2 11
0 2 11
0 2 11
0 2 11
0 2 11
0 2 11
0 2 11
0 2 11
0 2 11
0 2 11
0 2 11
0 2 11
0 2 11
0 2 11
0 2 11
0 2 11
0 2 11
0 2 11
0 2 11
0 2 11
0 2 11
0 2 11
0 2 11
0 2 11
0 2 11
0 2 11
0 2 11
0 2 11
0 2 11
0 2 11
0 2 11
0 2 11
0 2 11
0 2 11
0 2 11
0 2 11
0 2 11
0 2 11
0 2 11
0 2 11
0 2 11
0 2 11
0 2 11
0 2 11
0 2 11
0 2 11
0 2 11
0 2 11
0 2 11
0 2 11
0 2 11
0 2 11
0 2 11
0 2 11
0 2 11
0 2 11
0 2 11
0 2 11
0 2 11
0 2 11
0 2 11
0 2 11
0 2 11
0 2 11
0 2 11
0 2 11
0 2 11
0 2 11
0 2 11
0 2 11
0 2 11
0 2 11
0 2 11
0 2 11
0 2 11
0 2 11
0 2 11
0 2 11
0 2 11
0 2 11
0 2 11
0 2 11
0 2 11
0 2 11
0 2 11
0 2 11
0 2 11
0 2 11
0 2 11
0 2 11
0 2 11
0 2 11
0 2 11
0 2 11
0 2 11
0 2 11
0 2 11
0 2 11
0 2 11
0 2 11
0 2 11
0 2 11
0 2 11
0 2 11
0 2 11
0 2 11
0 2 11
0 2 11
0 2 11
0 2 11
0 2 11
0 2 11
0 2 11
0 2 11
0 2 11
0 2 11
0 2 11
0 2 11
0 2 11
0 2 11
0 2 11
0 2 11
0 2 11
0 2 11
0 2 11
0 2 11
0 2 11
0 2 11
0 2 11
0 2 11
0 2 11
0 2 11
0 2 11
0 2 11
0 2 11
0 2 11
0 2 11
0 2 11
0 2 11
0 2 11
0 2 11
0 2 11
0 2 11
0 2 11
0 2 11
0 2 11
0 2 11
0 2 11
0 2 11
0 2 11
0 2 11
0 2 11
0 2 11
0 2 11
0 2 11
0 2 11
0 2 11
0 2 11
0 2 11
0 2 11
0 2 11
0 2 11
0 2 11
0 2 11
0 2 11
0 2 11
0 2 11
0 2 11
0 2 11
0 2 11
0 2 11
0 2 11
0 2 11
0 2 11
0 2 11
0 2 11
0 2 11
0 2 11
0 2 11
0 2 11
0 2 11
0 2 11
0 2 11
0 2 11
0 2 11
0 2 11
0 2 11
0 2 11
0 2 11
0 2 11
0 2 11
0 2 11
0 2 11
0 2 11
0 2 11
0 2 11
0 2 11
0 2 11
0 2 11
0 2 11
0 2 11
0 2 11
0 2 11
0 2 11
0 2 11
0 2 11
0 2 11
0 2 11
0 2 11
0 2 11
0 2 11
0 2 11
0 2 11
0 2 11
0 2 11
0 2 11
0 2 11
0 2 11
0 2 11
0 2 11
0 2 11
0 2 11
0 2 11
0 2 11
0 2 11
0 2 11
0 2 11
0 2 11
0 2 11
0 2 11
0 2 11
0 2 11
0 2 11
0 2 11
0 2 11
0 2 11
0 2 11
0 2 11
0 2 11
0 2 11
0 2 11
0 2 11
0 2 11
0 2 11
0 2 11
0 2 11
0 2 11
0 2 11
0 2 11
0 2 11
0 2 11
0 2 11
0 2 11
0 2 11
0 2 11
0 2 11
0 2 11
0 2 11
0 2 11
0 2 11
0 2 11
0 2 11
0 2 11
0 2 11
0 2 11
0 2 11
0 2 11
0 2 11
0 2 11
0 2 11
0 2 11
0 2 11
0 2 11
0 2 11
0 2 11
0 2 11
0 2 11
0 2 11
0 2 11
0 2 11
0 2 11
0 2 11
0 2 11
0 2 11
0 2 11
0 2 11
0 2 11
0 2 11
0 2 11
0 2 11
0 2 11
0 2 11
0 2 11
0 2 11
0 2 11
0 2 11
0 2 11
0 2 11
0 2 11
0 2 11
0 2 11
0 2 11
0 2 11
0 2 11
0 2 11
0 2 11
0 2 11
0 2 11
0 2 11
0 2 11
0 2 11
0 2 11
0 2 11
0 2 11
0 2 11
0 2 11
0 2 11
0 2 11
0 2 11
0 2 11
0 2 11
0 2 11
0 2 11
0 2 11
0 2 11
0 2 11
0 2 11
0 2 11
0 2 11
0 2 11
0 2 11
0 2 11
0 2 11
0 2 11
0 2 11
0 2 11
0 2 11
0 2 11
0 2 11
0 2 11
0 2 11
0 2 11
0 2 11
0 2 11
0 2 11
0 2 11
0 2 11
0 2 11
0 2 11
0 2 11
0 2 11
0 2 11
0 2 11
0 2 11
0 2 11
0 2 11
0 2 11
0 2 11
0 2 11
0 2 11
0 2 11
0 2 11
0 2 11
0 2 11
0 2 11
0 2 11
0 2 11
0 2 11
0 2 11
0 2 11
0 2 11
0 2 11
0 2 11
0 2 11
0 2 11
0 2 11
0 2 11
0 2 11
0 2 11
0 2 11
0 2 11
0 2 11
0 2 11
0 2 11
0 2 11
0 2 11
0 2 11
0 2 11
0 2 11
0 2 11
0 2 11
0 2 11
0 2 11
0 2 11
0 2 11
0 2 11
0 2 11
0 2 11
0 2 11
0 2 11
0 2 11
0 2 11
0 2 11
0 2 11
0 2 11
0 2 11
0 2 11
0 2 11
0 2 11
0 2 11
0 2 11
0 2 11
0 2 11
0 2 11
0 2 11
0 2 11
0 2 11
0 2 11
0 2 11
0 2 11
0 2 11
0 2 11
0 2 11
0 2 11
0 2 11
0 2 11
0 2 11
0 2 11
0 2 11
0 2 11
0 2 11
0 2 11
0 2 11
0 2 11
0 2 11
0 2 11
0 2 11
0 2 11
0 2 11
0 2 11
0 2 11
0 2 11
0 2 11
0 2 11
0 2 11
0 2 11
0 2 11
0 2 11
0 2 11
0 2 11
0 2 11
0 2 11
0 2 11
0 2 11
0 2 11
0 2 11
0 2 11
0 2 11
0 2 11
0 2 11
0 2 11
0 2 11
0 2 11
0 2 11
0 2 11
0 2 11
0 2 11
0 2 11
0 2 11
0 2 11
0 2 11
0 2 11
0 2 11
0 2 11
0 2 11
0 2 11
0 2 11
0 2 11
0 2 11
0 2 11
0 2 11
0 2 11
0 2 11
0 2 11
0 2 11
0 2 11
0 2 11
0 2 11
0 2 11
0 2 11
0 2 11
0 2 11
0 2 11
0 2 11
0 2 11
0 2 11
0 2 11
0 2 11
0 2 11
0 2 11
0 2 11
0 2 11
0 2 11
0 2 11
0 2 11
0 2 11
0 2 11
0 2 11
0 2 11
0 2 11
0 2 11
0 2 11
0 2 11
0 2 11
0 2 11
0 2 11
0 2 11
0 2 11
0 2 11
0 2 11
0 2 11
0 2 11
0 2 11
0 2 11
0 2 11
0 2 11
0 2 11
0 2 11
0 2 11
0 2 11
0 2 11
0 2 11
0 2 11
0 2 11
0 2 11
0 2 11
0 2 11
0 2 11
0 2 11
0 2 11
0 2 11
0 2 11
0 2 11
0 2 11
0 2 11
0 2 11
0 2 11
0 2 11
0 2 11
0 2 11
0 2 11
0 2 11
0 2 11
0 2 11
0 2 11
0 2 11
0 2 11
0 2 11
0 2 11
0 2 11
0 2 11
0 2 11
0 2 11
0 2 11
0 2 11
0 2 11
0 2 11
0 2 11
0 2 11
0 2 11
0 2 11
0 2 11
0 2 11
0 2 11
0 2 11
0 2 11
0 2 11
0 2 11
0 2 11
0 2 11
0 2 11
0 2 11
0 2 11
0 2 11
0 2 11
0 2 11
0 2 11
0 2 11
0 2 11
0 2 11
0 2 11
0 2 11
0 2 11
0 2 11
0 2 11
0 2 11
0 2 11
0 2 11
0 2 11
0 2 11
0 2 11
0 2 11
0 2 11
0 2 11
0 2 11
0 2 11
0 2 11
0 2 11
0 2 11
0 2 11
0 2 11
0 2 11
0 2 11
0 2 11
0 2 11
0 2 11
0 2 11
0 2 11
0 2 11
0 2 11
0 2 11
0 2 11
0 2 11
0 2 11
0 2 11
0 2 11
0 2 11
0 2 11
0 2 11
0 2 11
0 2 11
0 2 11
0 2 11
0 2 11
0 2 11
0 2 11
0 2 11
0 2 11
0 2 11
0 2 11
0 2 11
0 2 11
0 2 11
0 2 11
0 2 11
0 2 11
0 2 11
0 2 11
0 2 11
0 2 11
0 2 11
0 2 11
0 2 11
0 2 11
0 2 11
0 2 11
0 2 11
0 2 11
0 2 11
0 2 11
0 2 11
0 2 11
0 2 11
0 2 11
0 2 11
0 2 11
0 2 11
0 2 11
0 2 11
0 2 11
0 2 11
0 2 11
0 2 11
0 2 11
0 2 11
0 2 11
0 2 11
0 2 11
0 2 11
0 2 11
0 2 11
0 2 11
0 2 11
0 2 11
0 2 11
0 2 11
0 2 11
0 2 11
0 2 11
0 2 11
0 2 11
0 2 11
0 2 11
0 2 11
0 2 11
0 2 11
0 2 11
0 2 11
0 2 11
0 2 11
0 2 11
0 2 11
0 2 11
0 2 11
0 2 11
0 2 11
0 2 11
0 2 11
0 2 11
0 2 11
0 2 11
0 2 11
0 2 11
0 2 11
0 2 11
0 2 11
0 2 11
0 2 11
0 2 11
0 2 11
0 2 11
0 2 11
0 2 11
0 2 11
0 2 11
0 2 11
0 2 11
0 2 11
0 2 11
0 2 11
0 2 11
0 2 11
0 2 11
0 2 11
0 2 11
0 2 11
0 2 11
0 2 11
0 2 11
0 2 11
0 2 11
0 2 11
0 2 11
0 2 11
0 2 11
0 2 11
0 2 11
0 2 11
0 2 11
0 2 11
0 2 11
0 2 11
0 2 11
0 2 11
0 2 11
0 2 11
0 2 11
0 2 11
0 2 11
0 2 11
0 2 11
0 2 11
0 2 11
0 2 11
0 2 11
0 2 11
0 2 11
0 2 11
0 2 11
0 2 11
0 2 11
0 2 11
0 2 11
0 2 11
0 2 11
0 2 11
0 2 11
0 2 11
0 2 11
0 2 11
0 2 11
0 2 11
0 2 11
0 2 11
0 2 11
0 2 11
0 2 11
0 2 11
0 2 11
0 2 11
0 2 11
0 2 11
0 2 11
0 2 11
0 2 11
0 2 11
0 2 11
0 2 11
0 2 11
0 2 11
0 2 11
0 2 11
0 2 11
0 2 11
0 2 11
0 2 11
0 2 11
0 2 11
0 2 11
0 2 11
0 2 11
0 2 11
0 2 11
0 2 11
0 2 11
0 2 11
0 2 11
0 2 11
0 2 11
0 2 11
0 2 11
0 2 11
0 2 11
0 2 11
0 2 11
0 2 11
0 2 11
0 2 11
0 2 11
0 2 11
0 2 11
0 2 11
0 2 11
0 2 11
0 2 11
0 2 11
0 2 11
0 2 11
0 2 11
0 2 11
0 2 11
0 2 11
0 2 11
0 2 11
0 2 11
0 2 11
0 2 11
0 2 11
0 2 11
0 2 11
0 2 11
0 2 11
0 2 11
0 2 11
0 2 11
0 2 11
0 2 11
0 2 11
0 2 11
0 2 11
0 2 11
0 2 11
0 2 11
0 2 11
0 2 11
0 2 11
0 2 11
0 2 11
0 2 11
0 2 11
0 2 11
0 2 11
0 2 11
0 2 11
0 2 11
0 2 11
0 2 11
0 2 11
0 2 11
0 2 11
0 2 11
0 2 11
0 2 11
0 2 11
0 2 11
0 2 11
0 2 11
0 2 11
0 2 11
0 2 11
0 2 11
0 2 11
0 2 11
0 2 11
0 2 11
0 2 11
0 2 11
0 2 11
0 2 11
0 2 11
0 2 11
0 2 11
0 2 11
0 2 11
0 2 11
0 2 11
0 2 11
0 2 11
0 2 11
0 2 11
0 2 11
0 2 11
0 2 11
0 2 11
0 2 11
0 2 11
0 2 11
0 2 11
0 2 11
0 2 11
0 2 11
0 2 11
0 2 11
0 2 11
0 2 11
0 2 11
0 2 11
0 2 11
0 2 11
0 2 11
0 2 11
0 2 11
0 2 11
0 2 11
0 2 11
0 2 11
0 2 11
0 2 11
0 2 11
0 2 11
0 2 11
0 2 11
0 2 11
0 2 11
0 2 11
0 2 11
0 2 11
0 2 11
0 2 11
0 2 11
0 2 11
0 2 11
0 2 11
0 2 11
0 2 11
0 2 11
0 2 11
0 2 11
0 2 11
0 2 11
0 2 11
0 2 11
0 2 11
0 2 11
0 2 11
0 2 11
0 2 11
0 2 11
0 2 11
0 2 11
0 2 11
0 2 11
0 2 11
0 2 11
0 2 11
0 2 11
0 2 11
0 2 11
0 2 11
0 2 11
0 2 11
0 2 11
0 2 11
0 2 11
0 2 11
0 2 11
0 2 11
0 2 11
0 2 11
0 2 11
0 2 11
0 2 11
0 2 11
0 2 11
0 2 11
0 2 11
0 2 11
0 2 11
0 2 11
0 2 11
0 2 11
0 2 11
0 2 11
0 2 11
0 2 11
0 2 11
0 2 11
0 2 11
0 2 11
0 2 11
0 2 11
0 2 11
0 2 11
0 2 11
0 2 11
0 2 11
0 2 11
0 2 11
0 2 11
0 2 11
0 2 11
0 2 11
0 2 11
0 2 11
0 2 11
0 2 11
0 2 11
0 2 11
0 2 11
0 2 11
0 2 11
0 2 11
0 2 11
0 2 11
0 2 11
0 2 11
0 2 11
0 2 11
0 2 11
0 2 11
0 2 11
0 2 11
0 2 11
0 2 11
0 2 11
0 2 11
0 2 11
0 2 11
0 2 11
0 2 11
0 2 11
0 2 11
0 2 11
0 2 11
0 2 11
0 2 11
0 2 11
0 2 11
0 2 11
0 2 11
0 2 11
0 2 11
0 2 11
0 2 11
0 2 11
0 2 11
0 2 11
0 2 11
0 2 11
0 2 11
0 2 11
0 2 11
0 2 11
0 2 11
0 2 11
0 2 11
0 2 11
0 2 11
0 2 11
0 2 11
0 2 11
0 2 11
0 2 11
0 2 11
0 2 11
0 2 11
0 2 11
0 2 11
0 2 11
0 2 11
0 2 11
0 2 11
0 2 11
0 2 11
0 2 11
0 2 11
0 2 11
0 2 11
0 2 11
0 2 11
0 2 11
0 2 11
0 2 11
0 2 11
0 2 11
0 2 11
0 2 11
0 2 11
0 2 11
0 2 11
0 2 11
0 2 11
0 2 11
0 2 11
0 2 11
0 2 11
0 2 11
0 2 11
0 2 11
0 2 11
0 2 11
0 2 11
0 2 11
0 2 11
0 2 11
0 2 11
0 2 11
0 2 11
0 2 11
0 2 11
0 2 11
0 2 11
0 2 11
0 2 11
0 2 11
0 2 11
0 2 11
0 2 11
0 2 11
0 2 11
0 2 11
0 2 11
0 2 11
0 2 11
0 2 11
0 2 11
0 2 11
0 2 11
0 2 11
0 2 11
0 2 11
0 2 11
0 2 11
0 2 11
0 2 11
0 2 11
0 2 11
0 2 11
0 2 11
0 2 11
0 2 11
0 2 11
0 2 11
0 2 11
0 2 11
0 2 11
0 2 11
0 2 11
0 2 11
0 2 11
0 2 11
0 2 11
0 2 11
0 2 11
0 2 11
0 2 11
0 2 11
0 2 11
0 2 11
0 2 11
0 2 11
0 2 11
0 2 11
0 2 11
0 2 11
0 2 11
0 2 11
0 2 11
0 2 11
0 2 11
0 2 11
0 2 11
0 2 11
0 2 11
0 2 11
0 2 11
0 2 11
0 2 11
0 2 11
0 2 11
0 2 11
0 2 11
0 2 11
0 2 11
0 2 11
0 2 11
0 2 11
0 2 11
0 2 11
0 2 11
0 2 11
0 2 11
0 2 11
0 2 11
0 2 11
0 2 11
0 2 11
0 2 11
0 2 11
0 2 11
0 2 11
0 2 11
0 2 11
0 2 11
0 2 11
0 2 11
0 2 11
0 2 11
0 2 11
0 2 11
0 2 11
0 2 11
0 2 11
0 2 11
0 2 11
0 2 11
0 2 11
0 2 11
0 2 11
0 2 11
0 2 11
0 2 11
0 2 11
0 2 11
0 2 11
0 2 11
0 2 11
0 2 11
0 2 11
0 2 11
0 2 11
0 2 11
0 2 11
0 2 11
0 2 11
0 2 11
0 2 11
0 2 11
0 2 11
0 2 11
0 2 11
0 2 11
0 2 11
0 2 11
0 2 11
0 2 11
0 2 11
0 2 11
0 2 11
0 2 11
0 2 11
0 2 11
0 2 11
0 2 11
0 2 11
0 2 11
0 2 11
0 2 11
0 2 11
0 2 11
0 2 11
0 2 11
0 2 11
0 2 11
0 2 11
0 2 11
0 2 11
0 2 11
0 2 11
0 2 11
0 2 11
0 2 11
0 2 11
0 2 11
0 2 11
0 2 11
0 2 11
0 2 11
0 2 11
0 2 11
0 2 11
0 2 11
0 2 11
0 2 11
0 2 11
0 2 11
0 2 11
0 2 11
0 2 11
0 2 11
0 2 11
0 2 11
0 2 11
0 2 11
0 2 11
0 2 11
0 2 11
0 2 11
0 2 11
0 2 11
0 2 11
0 2 11
0 2 11
0 2 11
0 2 11
0 2 11
0 2 11
0 2 11
0 2 11
0 2 11
0 2 11
0 2 11
0 2 11
0 2 11
0 2 11
0 2 11
0 2 11
0 2 11
0 2 11
0 2 11
0 2 11
0 2 11
0 2 11
0 2 11
0 2 11
0 2 11
0 2 11
0 2 11
0 2 11
0 2 11
0 2 11
0 2 11
0 2 11
0 2 11
0 2 11
0 2 11
0 2 11
0 2 11
0 2 11
0 2 11
0 2 11
0 2 11
0 2 11
0 2 11
0 2 11
0 2 11
0 2 11
0 2 11
0 2 11
0 2 11
0 2 11
0 2 11
0 2 11
0 2 11
0 2 11
0 2 11
0 2 11
0 2 11
0 2 11
0 2 11
0 2 11
0 2 11
0 2 11
0 2 11
0 2 11
0 2 11
0 2 11
0 2 11
0 2 11
0 2 11
0 2 11
0 2 11
0 2 11
0 2 11
0 2 11
0 2 11
0 2 11
0 2 11
0 2 11
0 2 11
0 2 11
0 2 11
0 2 11
0 2 11
0 2 11
0 2 11
0 2 11
0 2 11
0 2 11
0 2 11
0 2 11
0 2 11
0 2 11
0 2 11
0 2 11
0 2 11
0 2 11
0 2 11
0 2 11
0 2 11
0 2 11
0 2 11
0 2 11
0 2 11
0 2 11
0 2 11
0 2 11
0 2 11
0 2 11
0 2 11
0 2 11
0 2 11
0 2 11
0 2 11
0 2 11
0 2 11
0 2 11
0 2 11
0 2 11
0 2 11
0 2 11
0 2 11
0 2 11
0 2 11
0 2 11
0 2 11
0 2 11
0 2 11
0 2 11
0 2 11
0 2 11
0 2 11
0 2 11
0 2 11
0 2 11
0 2 11
0 2 11
0 2 11
0 2 11
0 2 11
0 2 11
0 2 11
0 2 11
0 2 11
0 2 11
0 2 11
0 2 11
0 2 11
0 2 11
0 2 11
0 2 11
0 2 11
0 2 11
0 2 11
0 2 11
0 2 11
0 2 11
0 2 11
0 2 11
0 2 11
0 2 11
0 2 11
0 2 11
0 2 11
0 2 11
0 2 11
0 2 11
0 2 11
0 2 11
0 2 11
0 2 11
0 2 11
0 2 11
0 2 11
0 2 11
0 2 11
0 2 11
0 2 11
0 2 11
0 2 11
0 2 11
0 2 11
0 2 11
0 2 11
0 2 11
0 2 11
0 2 11
0 2 11
0 2 11
0 2 11
0 2 11
0 2 11
0 2 11
0 2 11
0 2 11
0 2 11
0 2 11
0 2 11
0 2 11
0 2 11
0 2 11
0 2 11
0 2 11
0 2 11
0 2 11
0 2 11
0 2 11
0 2 11
0 2 11
0 2 11
0 2 11
0 2 11
0 2 11
0 2 11
0 2 11
0 2 11
0 2 11
0 2 11
0 2 11
0 2 11
0 2 11
0 2 11
0 2 11
0 2 11
0 2 11
0 2 11
0 2 11
0 2 11
0 2 11
0 2 11
0 2 11
0 2 11
0 2 11
0 2 11
0 2 11
0 2 11
0 2 11
0 2 11
0 2 11
0 2 11
0 2 11
0 2 11
0 2 11
0 2 11
0 2 11
0 2 11
0 2 11
0 2 11
0 2 11
0 2 11
0 2 11
0 2 11
0 2 11
0 2 11
0 2 11
0 2 11
0 2 11
0 2 11
0 2 11
0 2 11
0 2 11
0 2 11
0 2 11
0 2 11
0 2 11
0 2 11
0 2 11
0 2 11
0 2 11
0 2 11
0 2 11
0 2 11
0 2 11
0 2 11
0 2 11
0 2 11
0 2 11
0 2 11
0 2 11
0 2 11
0 2 11
0 2 11
0 2 11
0 2 11
0 2 11
0 2 11
0 2 11
0 2 11
0 2 11
0 2 11
0 2 11
0 2 11
0 2 11
0 2 11
0 2 11
0 2 11
0 2 11
0 2 11
0 2 11
0 2 11
0 2 11
0 2 11
0 2 11
0 2 11
0 2 11
0 2 11
0 2 11
0 2 11
0 2 11
0 2 11
0 2 11
0 2 11
0 2 11
0 2 11
0 2 11
0 2 11
0 2 11
0 2 11
0 2 11
0 2 11
0 2 11
0 2 11
0 2 11
0 2 11
0 2 11
0 2 11
0 2 11
0 2 11
0 2 11
0 2 11
0 2 11
0 2 11
0 2 11
0 2 11
0 2 11
0 2 11
0 2 11
0 2 11
0 2 11
0 2 11
0 2 11
0 2 11
0 2 11
0 2 11
0 2 11
0 2 11
0 2 11
0 2 11
0 2 11
0 2 11
0 2 11
0 2 11
0 2 11
0 2 11
0 2 11
0 2 11
0 2 11
0 2 11
0 2 11
0 2 11
0 2 11
0 2 11
0 2 11
0 2 11
0 2 11
0 2 11
0 2 11
0 2 11
0 2 11
0 2 11
0 2 11
0 2 11
0 2 11
0 2 11
0 2 11
0 2 11
0 2 11
0 2 11
0 2 11
0 2 11
0 2 11
0 2 11
0 2 11
0 2 11
0 2 11
0 2 11
0 2 11
0 2 11
0 2 11
0 2 11
0 2 11
0 2 11
0 2 11
0 2 11
0 2 11
0 2 11
0 2 11
0 2 11
0 2 11
0 2 11
0 2 11
0 2 11
0 2 11
0 2 11
0 2 11
0 2 11
0 2 11
0 2 11
0 2 11
0 2 11
0 2 11
0 2 11
0 2 11
0 2 11
0 2 11
0 2 11
0 2 11
0 2 11
0 2 11
0 2 11
0 2 11
0 2 11
0 2 11
0 2 11
0 2 11
0 2 11
0 2 11
0 2 11
0 2 11
0 2 11
0 2 11
0 2 11
0 2 11
0 2 11
0 2 11
0 2 11
0 2 11
0 2 11
0 2 11
0 2 11
0 2 11
0 2 11
0 2 11
0 2 11
0 2 11
0 2 11
0 2 11
0 2 11
0 2 11
0 2 11
0 2 11
0 2 11
0 2 11
0 2 11
0 2 11
0 2 11
0 2 11
0 2 11
0 2 11
0 2 11
0 2 11
0 2 11
0 2 11
0 2 11
0 2 11
0 2 11
0 2 11
0 2 11
0 2 11
0 2 11
0 2 11
0 2 11
0 2 11
0 2 11
0 2 11
0 2 11
0 2 11
0 2 11
0 2 11
0 2 11
0 2 11
0 2 11
0 2 11
0 2 11
0 2 11
0 2 11
0 2 11
0 2 11
0 2 11
0 2 11
0 2 11
0 2 11
0 2 11
0 2 11
0 2 11
0 2 11
0 2 11
0 2 11
0 2 11
0 2 11
0 2 11
0 2 11
0 2 11
0 2 11
0 2 11
0 2 11
0 2 11
0 2 11
0 2 11
0 2 11
0 2 11
0 2 11
0 2 11
0 2 11
0 2 11
0 2 11
0 2 11
0 2 11
0 2 11
0 2 11
0 2 11
0 2 11
0 2 11
0 2 11
0 2 11
0 2 11
0 2 11
0 2 11
0 2 11
0 2 11
0 2 11
0 2 11
0 2 11
0 2 11
0 2 11
0 2 11
0 2 11
0 2 11
0 2 11
0 2 11
0 2 11
0 2 11
0 2 11
0 2 11
0 2 11
0 2 11
0 2 11
0 2 11
0 2 11
0 2 11
0 2 11
0 2 11
0 2 11
0 2 11
0 2 11
0 2 11
0 2 11
0 2 11
0 2 11
0 2 11
0 2 11
0 2 11
0 2 11
0 2 11
0 2 11
0 2 11
0 2 11
0 2 11
0 2 11
0 2 11
0 2 11
0 2 11
0 2 11
0 2 11
0 2 11
0 2 11
0 2 11
0 2 11
0 2 11
0 2 11
0 2 11
0 2 11
0 2 11
0 2 11
0 2 11
0 2 11
0 2 11
0 2 11
0 2 11
0 2 11
0 2 11
0 2 11
0 2 11
0 2 11
0 2 11
0 2 11
0 2 11
0 2 11
0 2 11
0 2 11
0 2 11
0 2 11
0 2 11
0 2 11
0 2 11
0 2 11
0 2 11
0 2 11
0 2 11
0 2 11
0 2 11
0 2 11
0 2 11
0 2 11
0 2 11
0 2 11
0 2 11
0 2 11
0 2 11
0 2 11
0 2 11
0 2 11
0 2 11
0 2 11
0 2 11
0 2 11
0 2 11
0 2 11
0 2 11
0 2 11
0 2 11
0 2 11
0 2 11
0 2 11
0 2 11
0 2 11
0 2 11
0 2 11
0 2 11
0 2 11
0 2 11
0 2 11
0 2 11
0 2 11
0 2 11
0 2 11
0 2 11
0 2 11
0 2 11
0 2 11
0 2 11
0 2 11
0 2 11
0 2 11
0 2 11
0 2 11
0 2 11
0 2 11
0 2 11
0 2 11
0 2 11
0 2 11
0 2 11
0 2 11
0 2 11
0 2 11
0 2 11
0 2 11
0 2 11
0 2 11
0 2 11
0 2 11
0 2 11
0 2 11
0 2 11
0 2 11
0 2 11
0 2 11
0 2 11
0 2 11
0 2 11
0 2 11
0 2 11
0 2 11
0 2 11
0 2 11
0 2 11
0 2 11
0 2 11
0 2 11
0 2 11
0 2 11
0 2 11
0 2 11
0 2 11
0 2 11
0 2 11
0 2 11
0 2 11
0 2 11
0 2 11
0 2 11
0 2 11
0 2 11
0 2 11
0 2 11
0 2 11
0 2 11
0 2 11
0 2 11
0 2 11
0 2 11
0 2 11
0 2 11
0 2 11
0 2 11
0 2 11
0 2 11
0 2 11
0 2 11
0 2 11
0 2 11
0 2 11
0 2 11
0 2 11
0 2 11
0 2 11
0 2 11
0 2 11
0 2 11
0 2 11
0 2 11
0 2 11
0 2 11
0 2 11
0 2 11
0 2 11
0 2 11
0 2 11
0 2 11
0 2 11
0 2 11
0 2 11
0 2 11
0 2 11
0 2 11
0 2 11
0 2 11
0 2 11
0 2 11
0 2 11
0 2 11
0 2 11
0 2 11
0 2 11
0 2 11
0 2 11
0 2 11
0 2 11
0 2 11
0 2 11
0 2 11
0 2 11
0 2 11
0 2 11
0 2 11
0 2 11
0 2 11
0 2 11
0 2 11
0 2 11
0 2 11
0 2 11
0 2 11
0 2 11
0 2 11
0 2 11
0 2 11
0 2 11
0 2 11
0 2 11
0 2 11
0 2 11
0 2 11
0 2 11
0 2 11
0 2 11
0 2 11
0 2 11
0 2 11
0 2 11
0 2 11
0 2 11
0 2 11
0 2 11
0 2 11
0 2 11
0 2 11
0 2 11
0 2 11
0 2 11
0 2 11
0 2 11
0 2 11
0 2 11
0 2 11
0 2 11
0 2 11
0 2 11
0 2 11
0 2 11
0 2 11
0 2 11
0 2 11
0 2 11
0 2 11
0 2 11
0 2 11
0 2 11
0 2 11
0 2 11
0 2 11
0 2 11
0 2 11
0 2 11
0 2 11
0 2 11
0 2 11
0 2 11
0 2 11
0 2 11
0 2 11
0 2 11
0 2 11
0 2 11
0 2 11
0 2 11
0 2 11
0 2 11
0 2 11
0 2 11
0 2 11
0 2 11
0 2 11
0 2 11
0 2 11
0 2 11
0 2 11
0 2 11
0 2 11
0 2 11
0 2 11
0 2 11
0 2 11
0 2 11
0 2 11
0 2 11
0 2 11
0 2 11
0 2 11
0 2 11
0 2 11
0 2 11
0 2 11
0 2 11
0 2 11
0 2 11
0 2 11
0 2 11
0 2 11
0 2 11
0 2 11
0 2 11
0 2 11
0 2 11
0 2 11
0 2 11
0 2 11
0 2 11
0 2 11
0 2 11
0 2 11
0 2 11
0 2 11
0 2 11
0 2 11
0 2 11
0 2 11
0 2 11
0 2 11
0 2 11
0 2 11
0 2 11
0 2 11
0 2 11
0 2 11
0 2 11
0 2 11
0 2 11
0 2 11
0 2 11
0 2 11
0 2 11
0 2 11
0 2 11
0 2 11
0 2 11
0 2 11
0 2 11
0 2 11
0 2 11
0 2 11
0 2 11
0 2 11
0 2 11
0 2 11
0 2 11
0 2 11
0 2 11
0 2 11
0 2 11
0 2 11
0 2 11
0 2 11
0 2 11
0 2 11
0 2 11
0 2 11
0 2 11
0 2 11
0 2 11
0 2 11
0 2 11
0 2 11
0 2 11
0 2 11
0 2 11
0 2 11
0 2 11
0 2 11
0 2 11
0 2 11
0 2 11
0 2 11
0 2 11
0 2 11
0 2 11
0 2 11
0 2 11
0 2 11
0 2 11
0 2 11
0 2 11
0 2 11
0 2 11
0 2 11
0 2 11
0 2 11
0 2 11
0 2 11
0 2 11
0 2 11
0 2 11
0 2 11
0 2 11
0 2 11
0 2 11
0 2 11
0 2 11
0 2 11
0 2 11
0 2 11
0 2 11
0 2 11
0 2 11
0 2 11
0 2 11
0 2 11
0 2 11
0 2 11
0 2 11
0 2 11
0 2 11
0 2 11
0 2 11
0 2 11
0 2 11
0 2 11
0 2 11
0 2 11
0 2 11
0 2 11
0 2 11
0 2 11
0 2 11
0 2 11
0 2 11
0 2 11
0 2 11
0 2 11
0 2 11
0 2 11
0 2 11
0 2 11
0 2 11
0 2 11
0 2 11
0 2 11
0 2 11
0 2 11
0 2 11
0 2 11
0 2 11
0 2 11
0 2 11
0 2 11
0 2 11
0 2 11
0 2 11
0 2 11
0 2 11
0 2 11
0 2 11
0 2 11
0 2 11
0 2 11
0 2 11
0 2 11
0 2 11
0 2 11
0 2 11
0 2 11
0 2 11
0 2 11
0 2 11
0 2 11
0 2 11
0 2 11
0 2 11
0 2 11
0 2 11
0 2 11
0 2 11
0 2 11
0 2 11
0 2 11
0 2 11
0 2 11
0 2 11
0 2 11
0 2 11
0 2 11
0 2 11
0 2 11
0 2 11
0 2 11
0 2 11
0 2 11
0 2 11
0 2 11
0 2 11
0 2 11
0 2 11
0 2 11
0 2 11
0 2 11
0 2 11
0 2 11
0 2 11
0 2 11
0 2 11
0 2 11
0 2 11
0 2 11
0 2 11
0 2 11
0 2 11
0 2 11
0 2 11
0 2 11
0 2 11
0 2 11
0 2 11
0 2 11
0 2 11
0 2 11
0 2 11
0 2 11
0 2 11
0 2 11
0 2 11
0 2 11
0 2 11
0 2 11
0 2 11
0 2 11
0 2 11
0 2 11
0 2 11
0 2 11
0 2 11
0 2 11
0 2 11
0 2 11
0 2 11
0 2 11
0 2 11
0 2 11
0 2 11
0 2 11
0 2 11
0 2 11
0 2 11
0 2 11
0 2 11
0 2 11
0 2 11
0 2 11
0 2 11
0 2 11
0 2 11
0 2 11
0 2 11
0 2 11
0 2 11
0 2 11
0 2 11
0 2 11
0 2 11
0 2 11
0 2 11
0 2 11
0 2 11
0 2 11
0 2 11
0 2 11
0 2 11
0 2 11
0 2 11
0 2 11
0 2 11
0 2 11
0 2 11
0 2 11
0 2 11
0 2 11
0 2 11
0 2 11
0 2 11
0 2 11
0 2 11
0 2 11
0 2 11
0 2 11
0 2 11
0 2 11
0 2 11
0 2 11
0 2 11
0 2 11
0 2 11
0 2 11
0 2 11
0 2 11
0 2 11
0 2 11
0 2 11
0 2 11
0 2 11
0 2 11
0 2 11
0 2 11
0 2 11
0 2 11
0 2 11
0 2 11
0 2 11
0 2 11
0 2 11
0 2 11
0 2 11
0 2 11
0 2 11
0 2 11
0 2 11
0 2 11
0 2 11
0 2 11
0 2 11
0 2 11
0 2 11
0 2 11
0 2 11
0 2 11
0 2 11
0 2 11
0 2 11
0 2 11
0 2 11
0 2 11
0 2 11
0 2 11
0 2 11
0 2 11
0 2 11
0 2 11
0 2 11
0 2 11
0 2 11
0 2 11
0 2 11
0 2 11
0 2 11
0 2 11
0 2 11
0 2 11
0 2 11
0 2 11
0 2 11
0 2 11
0 2 11
0 2 11
0 2 11
0 2 11
0 2 11
0 2 11
0 2 11
0 2 11
0 2 11
0 2 11
0 2 11
0 2 11
0 2 11
0 2 11
0 2 11
0 2 11
0 2 11
0 2 11
0 2 11
0 2 11
0 2 11
0 2 11
0 2 11
0 2 11
0 2 11
0 2 11
0 2 11
0 2 11
0 2 11
0 2 11
0 2 11
0 2 11
0 2 11
0 2 11
0 2 11
0 2 11
0 2 11
0 2 11
0 2 11
0 2 11
0 2 11
0 2 11
0 2 11
0 2 11
0 2 11
0 2 11
0 2 11
0 2 11
0 2 11
0 2 11
0 2 11
0 2 11
0 2 11
0 2 11
0 2 11
0 2 11
0 2 11
0 2 11
0 2 11
0 2 11
0 2 11
0 2 11
0 2 11
0 2 11
0 2 11
0 2 11
0 2 11
0 2 11
0 2 11
0 2 11
0 2 11
0 2 11
0 2 11
0 2 11
0 2 11
0 2 11
0 2 11
0 2 11
0 2 11
0 2 11
0 2 11
0 2 11
0 2 11
0 2 11
0 2 11
0 2 11
0 2 11
0 2 11
0 2 11
0 2 11
0 2 11
0 2 11
0 2 11
0 2 11
0 2 11
0 2 11
0 2 11
0 2 11
0 2 11
0 2 11
0 2 11
0 2 11
0 2 11
0 2 11
0 2 11
0 2 11
0 2 11
0 2 11
0 2 11
0 2 11
0 2 11
0 2 11
0 2 11
0 2 11
0 2 11
0 2 11
0 2 11
0 2 11
0 2 11
0 2 11
0 2 11
0 2 11
0 2 11
0 2 11
0 2 11
0 2 11
0 2 11
0 2 11
0 2 11
0 2 11
0 2 11
0 2 11
0 2 11
0 2 11
0 2 11
0 2 11
0 2 11
0 2 11
0 2 11
0 2 11
0 2 11
0 2 11
0 2 11
0 2 11
0 2 11
0 2 11
0 2 11
0 2 11
0 2 11
0 2 11
0 2 11
0 2 11
0 2 11
0 2 11
0 2 11
0 2 11
0 2 11
0 2 11
0 2 11
0 2 11
0 2 11
0 2 11
0 2 11
0 2 11
0 2 11
0 2 11
0 2 11
0 2 11
0 2 11
0 2 11
0 2 11
0 2 11
0 2 11
0 2 11
0 2 11
0 2 11
0 2 11
0 2 11
0 2 11
0 2 11
0 2 11
0 2 11
0 2 11
0 2 11
0 2 11
0 2 11
0 2 11
0 2 11
0 2 11
0 2 11
0 2 11
0 2 11
0 2 11
0 2 11
0 2 11
0 2 11
0 2 11
0 2 11
0 2 11
0 2 11
0 2 11
0 2 11
0 2 11
0 2 11
0 2 11
0 2 11
0 2 11
0 2 11
0 2 11
0 2 11
0 2 11
0 2 11
0 2 11
0 2 11
0 2 11
0 2 11
0 2 11
0 2 11
0 2 11
0 2 11
0 2 11
0 2 11
0 2 11
0 2 11
0 2 11
0 2 11
0 2 11
0 2 11
0 2 11
0 2 11
0 2 11
0 2 11
0 2 11
0 2 11
0 2 11
0 2 11
0 2 11
0 2 11
0 2 11
0 2 11
0 2 11
0 2 11
0 2 11
0 2 11
0 2 11
0 2 11
0 2 11
0 2 11
0 2 11
0 2 11
0 2 11
0 2 11
0 2 11
0 2 11
0 2 11
0 2 11
0 2 11
0 2 11
0 2 11
0 2 11
0 2 11
0 2 11
0 2 11
0 2 11
0 2 11
0 2 11
0 2 11
0 2 11
0 2 11
0 2 11
0 2 11
0 2 11
0 2 11
0 2 11
0 2 11
0 2 11
0 2 11
0 2 11
0 2 11
0 2 11
0 2 11
0 2 11
0 2 11
0 2 11
0 2 11
0 2 11
0 2 11
0 2 11
0 2 11
0 2 11
0 2 11
0 2 11
0 2 11
0 2 11
0 2 11
0 2 11
0 2 11
0 2 11
0 2 11
0 2 11
0 2 11
0 2 11
0 2 11
0 2 11
0 2 11
0 2 11
0 2 11
0 2 11
0 2 11
0 2 11
0 2 11
0 2 11
0 2 11
0 2 11
0 2 11
0 2 11
0 2 11
0 2 11
0 2 11
0 2 11
0 2 11
0 2 11
0 2 11
0 2 11
0 2 11
0 2 11
0 2 11
0 2 11
0 2 11
0 2 11
0 2 11
0 2 11
0 2 11
0 2 11
0 2 11
0 2 11
0 2 11
0 2 11
0 2 11
0 2 11
0 2 11
0 2 11
0 2 11
0 2 11
0 2 11
0 2 11
0 2 11
0 2 11
0 2 11
0 2 11
0 2 11
0 2 11
0 2 11
0 2 11
0 2 11
0 2 11
0 2 11
0 2 11
0 2 11
0 2 11
0 2 11
0 2 11
0 2 11
0 2 11
0 2 11
0 2 11
0 2 11
0 2 11
0 2 11
0 2 11
0 2 11
0 2 11
0 2 11
0 2 11
0 2 11
0 2 11
0 2 11
0 2 11
0 2 11
0 2 11
0 2 11
0 2 11
0 2 11
0 2 11
0 2 11
0 2 11
0 2 11
0 2 11
0 2 11
0 2 11
0 2 11
0 2 11
0 2 11
0 2 11
0 2 11
0 2 11
0 2 11
0 2 11
0 2 11
0 2 11
0 2 11
0 2 11
0 2 11
0 2 11
0 2 11
0 2 11
0 2 11
0 2 11
0 2 11
0 2 11
0 2 11
0 2 11
0 2 11
0 2 11
0 2 11
0 2 11
0 2 11
0 2 11
0 2 11
0 2 11
0 2 11
0 2 11
0 2 11
0 2 11
0 2 11
0 2 11
0 2 11
0 2 11
0 2 11
0 2 11
0 2 11
0 2 11
0 2 11
0 2 11
0 2 11
0 2 11
0 2 11
0 2 11
0 2 11
0 2 11
0 2 11
0 2 11
0 2 11
0 2 11
0 2 11
0 2 11
0 2 11
0 2 11
0 2 11
0 2 11
0 2 11
0 2 11
0 2 11
0 2 11
0 2 11
0 2 11
0 2 11
0 2 11
0 2 11
0 2 11
0 2 11
0 2 11
0 2 11
0 2 11
0 2 11
0 2 11
0 2 11
0 2 11
0 2 11
0 2 11
0 2 11
0 2 11
0 2 11
0 2 11
0 2 11
0 2 11
0 2 11
0 2 11
0 2 11
0 2 11
0 2 11
0 2 11
0 2 11
0 2 11
0 2 11
0 2 11
0 2 11
0 2 11
0 2 11
0 2 11
0 2 11
0 2 11
0 2 11
0 2 11
0 2 11
0 2 11
0 2 11
0 2 11
0 2 11
0 2 11
0 2 11
0 2 11
0 2 11
0 2 11
0 2 11
0 2 11
0 2 11
0 2 11
0 2 11
0 2 11
0 2 11
0 2 11
0 2 11
0 2 11
0 2 11
0 2 11
0 2 11
0 2 11
0 2 11
0 2 11
0 2 11
0 2 11
0 2 11
0 2 11
0 2 11
0 2 11
0 2 11
0 2 11
0 2 11
0 2 11
0 2 11
0 2 11
0 2 11
0 2 11
0 2 11
0 2 11
0 2 11
0 2 11
0 2 11
0 2 11
0 2 11
0 2 11
0 2 11
0 2 11
0 2 11
0 2 11
0 2 11
0 2 11
0 2 11
0 2 11
0 2 11
0 2 11
0 2 11
0 2 11
0 2 11
0 2 11
0 2 11
0 2 11
0 2 11
0 2 11
0 2 11
0 2 11
0 2 11
0 2 11
0 2 11
0 2 11
0 2 11
0 2 11
0 2 11
0 2 11
0 2 11
0 2 11
0 2 11
0 2 11
0 2 11
0 2 11
0 2 11
0 2 11
0 2 11
0 2 11
0 2 11
0 2 11
0 2 11
0 2 11
0 2 11
0 2 11
0 2 11
0 2 11
0 2 11
0 2 11
0 2 11
0 2 11
0 2 11
0 2 11
0 2 11
0 2 11
0 2 11
0 2 11
0 2 11
0 2 11
0 2 11
0 2 11
0 2 11
0 2 11
0 2 11
0 2 11
0 2 11
0 2 11
0 2 11
0 2 11
0 2 11
0 2 11
0 2 11
0 2 11
0 2 11
0 2 11
0 2 11
0 2 11
0 2 11
0 2 11
0 2 11
0 2 11
0 2 11
0 2 11
0 2 11
0 2 11
0 2 11
0 2 11
0 2 11
0 2 11
0 2 11
0 2 11
0 2 11
0 2 11
0 2 11
0 2 11
0 2 11
0 2 11
0 2 11
0 2 11
0 2 11
0 2 11
0 2 11
0 2 11
0 2 11
0 2 11
0 2 11
0 2 11
0 2 11
0 2 11
0 2 11
0 2 11
0 2 11
0 2 11
0 2 11
0 2 11
0 2 11
0 2 11
0 2 11
0 2 11
0 2 11
0 2 11
0 2 11
0 2 11
0 2 11
0 2 11
0 2 11
0 2 11
0 2 11
0 2 11
0 2 11
0 2 11
0 2 11
0 2 11
0 2 11
0 2 11
0 2 11
0 2 11
0 2 11
0 2 11
0 2 11
0 2 11
0 2 11
0 2 11
0 2 11
0 2 11
0 2 11
0 2 11
0 2 11
0 2 11
0 2 11
0 2 11
0 2 11
0 2 11
0 2 11
0 2 11
0 2 11
0 2 11
0 2 11
0 2 11
0 2 11
0 2 11
0 2 11
0 2 11
0 2 11
0 2 11
0 2 11
0 2 11
0 2 11
0 2 11
0 2 11
0 2 11
0 2 11
0 2 11
0 2 11
0 2 11
0 2 11
0 2 11
0 2 11
0 2 11
0 2 11
0 2 11
0 2 11
0 2 11
0 2 11
0 2 11
0 2 11
0 2 11
0 2 11
0 2 11
0 2 11
0 2 11
0 2 11
0 2 11
0 2 11
0 2 11
0 2 11
0 2 11
0 2 11
0 2 11
0 2 11
0 2 11
0 2 11
0 2 11
0 2 11
0 2 11
0 2 11
0 2 11
0 2 11
0 2 11
0 2 11
0 2 11
0 2 11
0 2 11
0 2 11
0 2 11
0 2 11
0 2 11
0 2 11
0 2 11
0 2 11
0 2 11
0 2 11
0 2 11
0 2 11
0 2 11
0 2 11
0 2 11
0 2 11
0 2 11
0 2 11
0 2 11
0 2 11
0 2 11
0 2 11
0 2 11
0 2 11
0 2 11
0 2 11
0 2 11
0 2 11
0 2 11
0 2 11
0 2 11
0 2 11
0 2 11
0 2 11
0 2 11
0 2 11
0 2 11
0 2 11
0 2 11
0 2 11
0 2 11
0 2 11
0 2 11
0 2 11
0 2 11
0 2 11
0 2 11
0 2 11
0 2 11
0 2 11
0 2 11
0 2 11
0 2 11
0 2 11
0 2 11
0 2 11
0 2 11
0 2 11
0 2 11
0 2 11
0 2 11
0 2 11
0 2 11
0 2 11
0 2 11
0 2 11
0 2 11
0 2 11
0 2 11
0 2 11
0 2 11
0 2 11
0 2 11
0 2 11
0 2 11
0 2 11
0 2 11
0 2 11
0 2 11
0 2 11
0 2 11
0 2 11
0 2 11
0 2 11
0 2 11
0 2 11
0 2 11
0 2 11
0 2 11
0 2 11
0 2 11
0 2 11
0 2 11
0 2 11
0 2 11
0 2 11
0 2 11
0 2 11
0 2 11
0 2 11
0 2 11
0 2 11
0 2 11
0 2 11
0 2 11
0 2 11
0 2 11
0 2 11
0 2 11
0 2 11
0 2 11
0 2 11
0 2 11
0 2 11
0 2 11
0 2 11
0 2 11
0 2 11
0 2 11
0 2 11
0 2 11
0 2 11
0 2 11
0 2 11
0 2 11
0 2 11
0 2 11
0 2 11
0 2 11
0 2 11
0 2 11
0 2 11
0 2 11
0 2 11
0 2 11
0 2 11
0 2 11
0 2 11
0 2 11
0 2 11
0 2 11
0 2 11
0 2 11
0 2 11
0 2 11
0 2 11
0 2 11
0 2 11
0 2 11
0 2 11
0 2 11
0 2 11
0 2 11
0 2 11
0 2 11
0 2 11
0 2 11
0 2 11
0 2 11
0 2 11
0 2 11
0 2 11
0 2 11
0 2 11
0 2 11
0 2 11
0 2 11
0 2 11
0 2 11
0 2 11
0 2 11
0 2 11
0 2 11
0 2 11
0 2 11
0 2 11
0 2 11
0 2 11
0 2 11
0 2 11
0 2 11
0 2 11
0 2 11
0 2 11
0 2 11
0 2 11
0 2 11
0 2 11
0 2 11
0 2 11
0 2 11
0 2 11
0 2 11
0 2 11
0 2 11
0 2 11
0 2 11
0 2 11
0 2 11
0 2 11
0 2 11
0 2 11
0 2 11
0 2 11
0 2 11
0 2 11
0 2 11
0 2 11
0 2 11
0 2 11
0 2 11
0 2 11
0 2 11
0 2 11
0 2 11
0 2 11
0 2 11
0 2 11
0 2 11
0 2 11
0 2 11
0 2 11
0 2 11
0 2 11
0 2 11
0 2 11
0 2 11
0 2 11
0 2 11
0 2 11
0 2 11
0 2 11
0 2 11
0 2 11
0 2 11
0 2 11
0 2 11
0 2 11
0 2 11
0 2 11
0 2 11
0 2 11
0 2 11
0 2 11
0 2 11
0 2 11
0 2 11
0 2 11
0 2 11
0 2 11
0 2 11
0 2 11
0 2 11
0 2 11
0 2 11
0 2 11
0 2 11
0 2 11
0 2 11
0 2 11
0 2 11
0 2 11
0 2 11
0 2 11
0 2 11
0 2 11
0 2 11
0 2 11
0 2 11
0 2 11
0 2 11
0 2 11
0 2 11
0 2 11
0 2 11
0 2 11
0 2 11
0 2 11
0 2 11
0 2 11
0 2 11
0 2 11
0 2 11
0 2 11
0 2 11
0 2 11
0 2 11
0 2 11
0 2 11
0 2 11
0 2 11
0 2 11
0 2 11
0 2 11
0 2 11
0 2 11
0 2 11
0 2 11
0 2 11
0 2 11
0 2 11
0 2 11
0 2 11
0 2 11
0 2 11
0 2 11
0 2 11
0 2 11
0 2 11
0 2 11
0 2 11
0 2 11
0 2 11
0 2 11
0 2 11
0 2 11
0 2 11
0 2 11
0 2 11
0 2 11
0 2 11
0 2 11
0 2 11
0 2 11
0 2 11
0 2 11
0 2 11
0 2 11
0 2 11
0 2 11
0 2 11
0 2 11
0 2 11
0 2 11
0 2 11
0 2 11
0 2 11
0 2 11
0 2 11
0 2 11
0 2 11
0 2 11
0 2 11
0 2 11
0 2 11
0 2 11
0 2 11
0 2 11
0 2 11
0 2 11
0 2 11
0 2 11
0 2 11
0 2 11
0 2 11
0 2 11
0 2 11
0 2 11
0 2 11
0 2 11
0 2 11
0 2 11
0 2 11
0 2 11
0 2 11
0 2 11
0 2 11
0 2 11
0 2 11
0 2 11
0 2 11
0 2 11
0 2 11
0 2 11
0 2 11
0 2 11
0 2 11
0 2 11
0 2 11
0 2 11
0 2 11
0 2 11
0 2 11
0 2 11
0 2 11
0 2 11
0 2 11
0 2 11
0 2 11
0 2 11
0 2 11
0 2 11
0 2 11
0 2 11
0 2 11
0 2 11
0 2 11
0 2 11
0 2 11
0 2 11
0 2 11
0 2 11
0 2 11
0 2 11
0 2 11
0 2 11
0 2 11
0 2 11
0 2 11
0 2 11
0 2 11
0 2 11
0 2 11
0 2 11
0 2 11
0 2 11
0 2 11
0 2 11
0 2 11
0 2 11
0 2 11
0 2 11
0 2 11
0 2 11
0 2 11
0 2 11
0 2 11
0 2 11
0 2 11
0 2 11
0 2 11
0 2 11
0 2 11
0 2 11
0 2 11
0 2 11
0 2 11
0 2 11
0 2 11
0 2 11
0 2 11
0 2 11
0 2 11
0 2 11
0 2 11
0 2 11
0 2 11
0 2 11
0 2 11
0 2 11
0 2 11
0 2 11
0 2 11
0 2 11
0 2 11
0 2 11
0 2 11
0 2 11
0 2 11
0 2 11
0 2 11
0 2 11
0 2 11
0 2 11
0 2 11
0 2 11
0 2 11
0 2 11
0 2 11
0 2 11
0 2 11
0 2 11
0 2 11
0 2 11
0 2 11
0 2 11
0 2 11
0 2 11
0 2 11
0 2 11
0 2 11
0 2 11
0 2 11
0 2 11
0 2 11
0 2 11
0 2 11
0 2 11
0 2 11
0 2 11
0 2 11
0 2 11
0 2 11
0 2 11
0 2 11
0 2 11
0 2 11
0 2 11
0 2 11
0 2 11
0 2 11
0 2 11
0 2 11
0 2 11
0 2 11
0 2 11
0 2 11
0 2 11
0 2 11
0 2 11
0 2 11
0 2 11
0 2 11
0 2 11
0 2 11
0 2 11
0 2 11
0 2 11
0 2 11
0 2 11
0 2 11
0 2 11
0 2 11
0 2 11
0 2 11
0 2 11
0 2 11
0 2 11
0 2 11
0 2 11
0 2 11
0 2 11
0 2 11
0 2 11
0 2 11
0 2 11
0 2 11
0 2 11
0 2 11
0 2 11
0 2 11
0 2 11
0 2 11
0 2 11
0 2 11
0 2 11
0 2 11
0 2 11
0 2 11
0 2 11
0 2 11
0 2 11
0 2 11
0 2 11
0 2 11
0 2 11
0 2 11
0 2 11
0 2 11
0 2 11
0 2 11
0 2 11
0 2 11
0 2 11
0 2 11
0 2 11
0 2 11
0 2 11
0 2 11
0 2 11
0 2 11
0 2 11
0 2 11
0 2 11
0 2 11
0 2 11
0 2 11
0 2 11
0 2 11
0 2 11
0 2 11
0 2 11
0 2 11
0 2 11
0 2 11
0 2 11
0 2 11
0 2 11
0 2 11
0 2 11
0 2 11
0 2 11
0 2 11
0 2 11
0 2 11
0 2 11
0 2 11
0 2 11
0 2 11
0 2 11
0 2 11
0 2 11
0 2 11
0 2 11
0 2 11
0 2 11
0 2 11
0 2 11
0 2 11
0 2 11
0 2 11
0 2 11
0 2 11
0 2 11
0 2 11
0 2 11
0 2 11
0 2 11
0 2 11
0 2 11
0 2 11
0 2 11
0 2 11
0 2 11
0 2 11
0 2 11
0 2 11
0 2 11
0 2 11
0 2 11
0 2 11
0 2 11
0 2 11
0 2 11
0 2 11
0 2 11
0 2 11
0 2 11
0 2 11
0 2 11
0 2 11
0 2 11
0 2 11
0 2 11
0 2 11
0 2 11
0 2 11
0 2 11
0 2 11
0 2 11
0 2 11
0 2 11
0 2 11
0 2 11
0 2 11
0 2 11
0 2 11
0 2 11
0 2 11
0 2 11
0 2 11
0 2 11
0 2 11
0 2 11
0 2 11
0 2 11
0 2 11
0 2 11
0 2 11
0 2 11
0 2 11
0 2 11
0 2 11
0 2 11
0 2 11
0 2 11
0 2 11
0 2 11
0 2 11
0 2 11
0 2 11
0 2 11
0 2 11
0 2 11
0 2 11
0 2 11
0 2 11
0 2 11
0 2 11
0 2 11
0 2 11
0 2 11
0 2 11
0 2 11
0 2 11
0 2 11
0 2 11
0 2 11
0 2 11
0 2 11
0 2 11
0 2 11
0 2 11
0 2 11
0 2 11
0 2 11
0 2 11
0 2 11
0 2 11
0 2 11
0 2 11
0 2 11
0 2 11
0 2 11
0 2 11
0 2 11
0 2 11
0 2 11
0 2 11
0 2 11
0 2 11
0 2 11
0 2 11
0 2 11
0 2 11
0 2 11
0 2 11
0 2 11
0 2 11
0 2 11
0 2 11
0 2 11
0 2 11
0 2 11
0 2 11
0 2 11
0 2 11
0 2 11
0 2 11
0 2 11
0 2 11
0 2 11
0 2 11
0 2 11
0 2 11
0 2 11
0 2 11
0 2 11
0 2 11
0 2 11
0 2 11
0 2 11
0 2 11
0 2 11
0 2 11
0 2 11
0 2 11
0 2 11
0 2 11
0 2 11
0 2 11
0 2 11
0 2 11
0 2 11
0 2 11
0 2 11
0 2 11
0 2 11
0 2 11
0 2 11
0 2 11
0 2 11
0 2 11
0 2 11
0 2 11
0 2 11
0 2 11
0 2 11
0 2 11
0 2 11
0 2 11
0 2 11
0 2 11
0 2 11
0 2 11
0 2 11
0 2 11
0 2 11
0 2 11
0 2 11
0 2 11
0 2 11
0 2 11
0 2 11
0 2 11
0 2 11
0 2 11
0 2 11
0 2 11
0 2 11
0 2 11
0 2 11
0 2 11
0 2 11
0 2 11
0 2 11
0 2 11
0 2 11
0 2 11
0 2 11
0 2 11
0 2 11
0 2 11
0 2 11
0 2 11
0 2 11
0 2 11
0 2 11
0 2 11
0 2 11
0 2 11
0 2 11
0 2 11
0 2 11
0 2 11
0 2 11
0 2 11
0 2 11
0 2 11
0 2 11
0 2 11
0 2 11
0 2 11
0 2 11
0 2 11
0 2 11
0 2 11
0 2 11
0 2 11
0 2 11
0 2 11
0 2 11
0 2 11
0 2 11
0 2 11
0 2 11
0 2 11
0 2 11
0 2 11
0 2 11
0 2 11
0 2 11
0 2 11
0 2 11
0 2 11
0 2 11
0 2 11
0 2 11
0 2 11
0 2 11
0 2 11
0 2 11
0 2 11
0 2 11
0 2 11
0 2 11
0 2 11
0 2 11
0 2 11
0 2 11
0 2 11
0 2 11
0 2 11
0 2 11
0 2 11
0 2 11
0 2 11
0 2 11
0 2 11
0 2 11
0 2 11
0 2 11
0 2 11
0 2 11
0 2 11
0 2 11
0 2 11
0 2 11
0 2 11
0 2 11
0 2 11
0 2 11
0 2 11
0 2 11
0 2 11
0 2 11
0 2 11
0 2 11
0 2 11
0 2 11
0 2 11
0 2 11
0 2 11
0 2 11
0 2 11
0 2 11
0 2 11
0 2 11
0 2 11
0 2 11
0 2 11
0 2 11
0 2 11
0 2 11
0 2 11
0 2 11
0 2 11
0 2 11
0 2 11
0 2 11
0 2 11
0 2 11
0 2 11
0 2 11
0 2 11
0 2 11
0 2 11
0 2 11
0 2 11
0 2 11
0 2 11
0 2 11
0 2 11
0 2 11
0 2 11
0 2 11
0 2 11
0 2 11
0 2 11
0 2 11
0 2 11
0 2 11
0 2 11
0 2 11
0 2 11
0 2 11
0 2 11
0 2 11
0 2 11
0 2 11
0 2 11
0 2 11
0 2 11
0 2 11
0 2 11
0 2 11
0 2 11
0 2 11
0 2 11
0 2 11
0 2 11
0 2 11
0 2 11
0 2 11
0 2 11
0 2 11
0 2 11
0 2 11
0 2 11
0 2 11
0 2 11
0 2 11
0 2 11
0 2 11
0 2 11
0 2 11
0 2 11
0 2 11
0 2 11
0 2 11
0 2 11
0 2 11
0 2 11
0 2 11
0 2 11
0 2 11
0 2 11
0 2 11
0 2 11
0 2 11
0 2 11
0 2 11
0 2 11
0 2 11
0 2 11
0 2 11
0 2 11
0 2 11
0 2 11
0 2 11
0 2 11
0 2 11
0 2 11
0 2 11
0 2 11
0 2 11
0 2 11
0 2 11
0 2 11
0 2 11
0 2 11
0 2 11
0 2 11
0 2 11
0 2 11
0 2 11
0 2 11
0 2 11
0 2 11
0 2 11
0 2 11
0 2 11
0 2 11
0 2 11
0 2 11
0 2 11
0 2 11
0 2 11
0 2 11
0 2 11
0 2 11
0 2 11
0 2 11
0 2 11
0 2 11
0 2 11
0 2 11
0 2 11
0 2 11
0 2 11
0 2 11
0 2 11
0 2 11
0 2 11
0 2 11
0 2 11
0 2 11
0 2 11
0 2 11
0 2 11
0 2 11
0 2 11
0 2 11
0 2 11
0 2 11
0 2 11
0 2 11
0 2 11
0 2 11
0 2 11
0 2 11
0 2 11
0 2 11
0 2 11
0 2 11
0 2 11
0 2 11
0 2 11
0 2 11
0 2 11
0 2 11
0 2 11
0 2 11
0 2 11
0 2 11
0 2 11
0 2 11
0 2 11
0 2 11
0 2 11
0 2 11
0 2 11
0 2 11
0 2 11
0 2 11
0 2 11
0 2 11
0 2 11
0 2 11
0 2 11
0 2 11
0 2 11
0 2 11
0 2 11
0 2 11
0 2 11
0 2 11
0 2 11
0 2 11
0 2 11
0 2 11
0 2 11
0 2 11
0 2 11
0 2 11
0 2 11
0 2 11
0 2 11
0 2 11
0 2 11
0 2 11
0 2 11
0 2 11
0 2 11
0 2 11
0 2 11
0 2 11
0 2 11
0 2 11
0 2 11
0 2 11
0 2 11
0 2 11
0 2 11
0 2 11
0 2 11
0 2 11
0 2 11
0 2 11
0 2 11
0 2 11
0 2 11
0 2 11
0 2 11
0 2 11
0 2 11
0 2 11
0 2 11
0 2 11
0 2 11
0 2 11
0 2 11
0 2 11
0 2 11
0 2 11
0 2 11
0 2 11
0 2 11
0 2 11
0 2 11
0 2 11
0 2 11
0 2 11
0 2 11
0 2 11
0 2 11
0 2 11
0 2 11
0 2 11
0 2 11
0 2 11
0 2 11
0 2 11
0 2 11
0 2 11
0 2 11
0 2 11
0 2 11
0 2 11
0 2 11
0 2 11
0 2 11
0 2 11
0 2 11
0 2 11
0 2 11
0 2 11
0 2 11
0 2 11
0 2 11
0 2 11
0 2 11
0 2 11
0 2 11
0 2 11
0 2 11
0 2 11
0 2 11
0 2 11
0 2 11
0 2 11
0 2 11
0 2 11
0 2 11
0 2 11
0 2 11
0 2 11
0 2 11
0 2 11
0 2 11
0 2 11
0 2 11
0 2 11
0 2 11
0 2 11
0 2 11
0 2 11
0 2 11
0 2 11
0 2 11
0 2 11
0 2 11
0 2 11
0 2 11
0 2 11
0 2 11
0 2 11
0 2 11
0 2 11
0 2 11
0 2 11
0 2 11
0 2 11
0 2 11
0 2 11
0 2 11
0 2 11
0 2 11
0 2 11
0 2 11
0 2 11
0 2 11
0 2 11
0 2 11
0 2 11
0 2 11
0 2 11
0 2 11
0 2 11
0 2 11
0 2 11
0 2 11
0 2 11
0 2 11
0 2 11
0 2 11
0 2 11
0 2 11
0 2 11
0 2 11
0 2 11
0 2 11
0 2 11
0 2 11
0 2 11
0 2 11
0 2 11
0 2 11
0 2 11
0 2 11
0 2 11
0 2 11
0 2 11
0 2 11
0 2 11
0 2 11
0 2 11
0 2 11
0 2 11
0 2 11
0 2 11
0 2 11
0 2 11
0 2 11
0 2 11
0 2 11
0 2 11
0 2 11
0 2 11
0 2 11
0 2 11
0 2 11
0 2 11
0 2 11
0 2 11
0 2 11
0 2 11
0 2 11
0 2 11
0 2 11
0 2 11
0 2 11
0 2 11
0 2 11
0 2 11
0 2 11
0 2 11
0 2 11
0 2 11
0 2 11
0 2 11
0 2 11
0 2 11
0 2 11
0 2 11
0 2 11
0 2 11
0 2 11
0 2 11
0 2 11
0 2 11
0 2 11
0 2 11
0 2 11
0 2 11
0 2 11
0 2 11
0 2 11
0 2 11
0 2 11
0 2 11
0 2 11
0 2 11
0 2 11
0 2 11
0 2 11
0 2 11
0 2 11
0 2 11
0 2 11
0 2 11
0 2 11
0 2 11
0 2 11
0 2 11
0 2 11
0 2 11
0 2 11
0 2 11
0 2 11
0 2 11
0 2 11
0 2 11
0 2 11
0 2 11
0 2 11
0 2 11
0 2 11
0 2 11
0 2 11
0 2 11
0 2 11
0 2 11
0 2 11
0 2 11
0 2 11
0 2 11
0 2 11
0 2 11
0 2 11
0 2 11
0 2 11
0 2 11
0 2 11
0 2 11
0 2 11
0 2 11
0 2 11
0 2 11
0 2 11
0 2 11
0 2 11
0 2 11
0 2 11
0 2 11
0 2 11
0 2 11
0 2 11
0 2 11
0 2 11
0 2 11
0 2 11
0 2 11
0 2 11
0 2 11
0 2 11
0 2 11
0 2 11
0 2 11
0 2 11
0 2 11
0 2 11
0 2 11
0 2 11
0 2 11
0 2 11
0 2 11
0 2 11
0 2 11
0 2 11
0 2 11
0 2 11
0 2 11
0 2 11
0 2 11
0 2 11
0 2 11
0 2 11
0 2 11
0 2 11
0 2 11
0 2 11
0 2 11
0 2 11
0 2 11
0 2 11
0 2 11
0 2 11
0 2 11
0 2 11
0 2 11
0 2 11
0 2 11
0 2 11
0 2 11
0 2 11
0 2 11
0 2 11
0 2 11
0 2 11
0 2 11
0 2 11
0 2 11
0 2 11
0 2 11
0 2 11
0 2 11
0 2 11
0 2 11
0 2 11
0 2 11
0 2 11
0 2 11
0 2 11
0 2 11
0 2 11
0 2 11
0 2 11
0 2 11
0 2 11
0 2 11
0 2 11
0 2 11
0 2 11
0 2 11
0 2 11
0 2 11
0 2 11
0 2 11
0 2 11
0 2 11
0 2 11
0 2 11
0 2 11
0 2 11
0 2 11
0 2 11
0 2 11
0 2 11
0 2 11
0 2 11
0 2 11
0 2 11
0 2 11
0 2 11
0 2 11
0 2 11
0 2 11
0 2 11
0 2 11
0 2 11
0 2 11
0 2 11
0 2 11
0 2 11
0 2 11
0 2 11
0 2 11
0 2 11
0 2 11
0 2 11
0 2 11
0 2 11
0 2 11
0 2 11
0 2 11
0 2 11
0 2 11
0 2 11
0 2 11
0 2 11
0 2 11
0 2 11
0 2 11
0 2 11
0 2 11
0 2 11
0 2 11
0 2 11
0 2 11
0 2 11
0 2 11
0 2 11
0 2 11
0 2 11
0 2 11
0 2 11
0 2 11
0 2 11
0 2 11
0 2 11
0 2 11
0 2 11
0 2 11
0 2 11
0 2 11
0 2 11
0 2 11
0 2 11
0 2 11
0 2 11
0 2 11
0 2 11
0 2 11
0 2 11
0 2 11
0 2 11
0 2 11
0 2 11
0 2 11
0 2 11
0 2 11
0 2 11
0 2 11
0 2 11
0 2 11
0 2 11
0 2 11
0 2 11
0 2 11
0 2 11
0 2 11
0 2 11
0 2 11
0 2 11
0 2 11
0 2 11
0 2 11
0 2 11
0 2 11
0 2 11
0 2 11
0 2 11
0 2 11
0 2 11
0 2 11
0 2 11
0 2 11
0 2 11
0 2 11
0 2 11
0 2 11
0 2 11
0 2 11
0 2 11
0 2 11
0 2 11
0 2 11
0 2 11
0 2 11
0 2 11
0 2 11
0 2 11
0 2 11
0 2 11
0 2 11
0 2 11
0 2 11
0 2 11
0 2 11
0 2 11
0 2 11
0 2 11
0 2 11
0 2 11
0 2 11
0 2 11
0 2 11
0 2 11
0 2 11
0 2 11
0 2 11
0 2 11
0 2 11
0 2 11
0 2 11
0 2 11
0 2 11
0 2 11
0 2 11
0 2 11
0 2 11
0 2 11
0 2 11
0 2 11
0 2 11
0 2 11
0 2 11
0 2 11
0 2 11
0 2 11
0 2 11
0 2 11
0 2 11
0 2 11
0 2 11
0 2 11
0 2 11
0 2 11
0 2 11
0 2 11
0 2 11
0 2 11
0 2 11
0 2 11
0 2 11
0 2 11
0 2 11
0 2 11
0 2 11
0 2 11
0 2 11
0 2 11
0 2 11
0 2 11
0 2 11
0 2 11
0 2 11
0 2 11
0 2 11
0 2 11
0 2 11
0 2 11
0 2 11
0 2 11
0 2 11
0 2 11
0 2 11
0 2 11
0 2 11
0 2 11
0 2 11
0 2 11
0 2 11
0 2 11
0 2 11
0 2 11
0 2 11
0 2 11
0 2 11
0 2 11
0 2 11
0 2 11
0 2 11
0 2 11
0 2 11
0 2 11
0 2 11
0 2 11
0 2 11
0 2 11
0 2 11
0 2 11
0 2 11
0 2 11
0 2 11
0 2 11
0 2 11
0 2 11
0 2 11
0 2 11
0 2 11
0 2 11
0 2 11
0 2 11
0 2 11
0 2 11
0 2 11
0 2 11
0 2 11
0 2 11
0 2 11
0 2 11
0 2 11
0 2 11
0 2 11
0 2 11
0 2 11
0 2 11
0 2 11
0 2 11
0 2 11
0 2 11
0 2 11
0 2 11
0 2 11
0 2 11
0 2 11
0 2 11
0 2 11
0 2 11
0 2 11
0 2 11
0 2 11
0 2 11
0 2 11
0 2 11
0 2 11
0 2 11
0 2 11
0 2 11
0 2 11
0 2 11
0 2 11
0 2 11
0 2 11
0 2 11
0 2 11
0 2 11
0 2 11
0 2 11
0 2 11
0 2 11
0 2 11
0 2 11
0 2 11
0 2 11
0 2 11
0 2 11
0 2 11
0 2 11
0 2 11
0 2 11
0 2 11
0 2 11
0 2 11
0 2 11
0 2 11
0 2 11
0 2 11
0 2 11
0 2 11
0 2 11
0 2 11
0 2 11
0 2 11
0 2 11
0 2 11
0 2 11
0 2 11
0 2 11
0 2 11
0 2 11
0 2 11
0 2 11
0 2 11
0 2 11
0 2 11
0 2 11
0 2 11
0 2 11
0 2 11
0 2 11
0 2 11
0 2 11
0 2 11
0 2 11
0 2 11
0 2 11
0 2 11
0 2 11
0 2 11
0 2 11
0 2 11
0 2 11
0 2 11
0 2 11
0 2 11
0 2 11
0 2 11
0 2 11
0 2 11
0 2 11
0 2 11
0 2 11
0 2 11
0 2 11
0 2 11
0 2 11
0 2 11
0 2 11
0 2 11
0 2 11
0 2 11
0 2 11
0 2 11
0 2 11
0 2 11
0 2 11
0 2 11
0 2 11
0 2 11
0 2 11
0 2 11
0 2 11
0 2 11
0 2 11
0 2 11
0 2 11
0 2 11
0 2 11
0 2 11
0 2 11
0 2 11
0 2 11
0 2 11
0 2 11
0 2 11
0 2 11
0 2 11
0 2 11
0 2 11
0 2 11
0 2 11
0 2 11
0 2 11
0 2 11
0 2 11
0 2 11
0 2 11
0 2 11
0 2 11
0 2 11
0 2 11
0 2 11
0 2 11
0 2 11
0 2 11
0 2 11
0 2 11
0 2 11
0 2 11
0 2 11
0 2 11
0 2 11
0 2 11
0 2 11
0 2 11
0 2 11
0 2 11
0 2 11
0 2 11
0 2 11
0 2 11
0 2 11
0 2 11
0 2 11
0 2 11
0 2 11
0 2 11
0 2 11
0 2 11
0 2 11
0 2 11
0 2 11
0 2 11
0 2 11
0 2 11
0 2 11
0 2 11
0 2 11
0 2 11
0 2 11
0 2 11
0 2 11
0 2 11
0 2 11
0 2 11
0 2 11
0 2 11
0 2 11
0 2 11
0 2 11
0 2 11
0 2 11
0 2 11
0 2 11
0 2 11
0 2 11
0 2 11
0 2 11
0 2 11
0 2 11
0 2 11
0 2 11
0 2 11
0 2 11
0 2 11
0 2 11
0 2 11
0 2 11
0 2 11
0 2 11
0 2 11
0 2 11
0 2 11
0 2 11
0 2 11
0 2 11
0 2 11
0 2 11
0 2 11
0 2 11
0 2 11
0 2 11
0 2 11
0 2 11
0 2 11
0 2 11
0 2 11
0 2 11
0 2 11
0 2 11
0 2 11
0 2 11
0 2 11
0 2 11
0 2 11
0 2 11
0 2 11
0 2 11
0 2 11
0 2 11
0 2 11
0 2 11
0 2 11
0 2 11
0 2 11
0 2 11
0 2 11
0 2 11
0 2 11
0 2 11
0 2 11
0 2 11
0 2 11
0 2 11
0 2 11
0 2 11
0 2 11
0 2 11
0 2 11
0 2 11
0 2 11
0 2 11
0 2 11
0 2 11
0 2 11
0 2 11
0 2 11
0 2 11
0 2 11
0 2 11
0 2 11
0 2 11
0 2 11
0 2 11
0 2 11
0 2 11
0 2 11
0 2 11
0 2 11
0 2 11
0 2 11
0 2 11
0 2 11
0 2 11
0 2 11
0 2 11
0 2 11
0 2 11
0 2 11
0 2 11
0 2 11
0 2 11
0 2 11
0 2 11
0 2 11
0 2 11
0 2 11
0 2 11
0 2 11
0 2 11
0 2 11
0 2 11
0 2 11
0 2 11
0 2 11
0 2 11
0 2 11
0 2 11
0 2 11
0 2 11
0 2 11
0 2 11
0 2 11
0 2 11
0 2 11
0 2 11
0 2 11
0 2 11
0 2 11
0 2 11
0 2 11
0 2 11
0 2 11
0 2 11
0 2 11
0 2 11
0 2 11
0 2 11
0 2 11
0 2 11
0 2 11
0 2 11
0 2 11
0 2 11
0 2 11
0 2 11
0 2 11
0 2 11
0 2 11
0 2 11
0 2 11
0 2 11
0 2 11
0 2 11
0 2 11
0 2 11
0 2 11
0 2 11
0 2 11
0 2 11
0 2 11
0 2 11
0 2 11
0 2 11
0 2 11
0 2 11
0 2 11
0 2 11
0 2 11
0 2 11
0 2 11
0 2 11
0 2 11
0 2 11
0 2 11
0 2 11
0 2 11
0 2 11
0 2 11
0 2 11
0 2 11
0 2 11
0 2 11
0 2 11
0 2 11
0 2 11
0 2 11
0 2 11
0 2 11
0 2 11
0 2 11
0 2 11
0 2 11
0 2 11
0 2 11
0 2 11
0 2 11
0 2 11
0 2 11
0 2 11
0 2 11
0 2 11
0 2 11
0 2 11
0 2 11
0 2 11
0 2 11
0 2 11
0 2 11
0 2 11
0 2 11
0 2 11
0 2 11
0 2 11
0 2 11
0 2 11
0 2 11
0 2 11
0 2 11
0 2 11
0 2 11
0 2 11
0 2 11
0 2 11
0 2 11
0 2 11
0 2 11
0 2 11
0 2 11
0 2 11
0 2 11
0 2 11
0 2 11
0 2 11
0 2 11
0 2 11
0 2 11
0 2 11
0 2 11
0 2 11
0 2 11
0 2 11
0 2 11
0 2 11
0 2 11
0 2 11
0 2 11
0 2 11
0 2 11
0 2 11
0 2 11
0 2 11
0 2 11
0 2 11
0 2 11
0 2 11
0 2 11
0 2 11
0 2 11
0 2 11
0 2 11
0 2 11
0 2 11
0 2 11
0 2 11
0 2 11
0 2 11
0 2 11
0 2 11
0 2 11
0 2 11
0 2 11
0 2 11
0 2 11
0 2 11
0 2 11
0 2 11
0 2 11
0 2 11
0 2 11
0 2 11
0 2 11
0 2 11
0 2 11
0 2 11
0 2 11
0 2 11
0 2 11
0 2 11
0 2 11
0 2 11
0 2 11
0 2 11
0 2 11
0 2 11
0 2 11
0 2 11
0 2 11
0 2 11
0 2 11
0 2 11
0 2 11
0 2 11
0 2 11
0 2 11
0 2 11
0 2 11
0 2 11
0 2 11
0 2 11
0 2 11
0 2 11
0 2 11
0 2 11
0 2 11
0 2 11
0 2 11
0 2 11
0 2 11
0 2 11
0 2 11
0 2 11
0 2 11
0 2 11
0 2 11
0 2 11
0 2 11
0 2 11
0 2 11
0 2 11
0 2 11
0 2 11
0 2 11
0 2 11
0 2 11
0 2 11
0 2 11
0 2 11
0 2 11
0 2 11
0 2 11
0 2 11
0 2 11
0 2 11
0 2 11
0 2 11
0 2 11
0 2 11
0 2 11
0 2 11
0 2 11
0 2 11
0 2 11
0 2 11
0 2 11
0 2 11
0 2 11
0 2 11
0 2 11
0 2 11
0 2 11
0 2 11
0 2 11
0 2 11
0 2 11
0 2 11
0 2 11
0 2 11
0 2 11
0 2 11
0 2 11
0 2 11
0 2 11
0 2 11
0 2 11
0 2 11
0 2 11
0 2 11
0 2 11
0 2 11
0 2 11
0 2 11
0 2 11
0 2 11
0 2 11
0 2 11
0 2 11
0 2 11
0 2 11
0 2 11
0 2 11
0 2 11
0 2 11
0 2 11
0 2 11
0 2 11
0 2 11
0 2 11
0 2 11
0 2 11
0 2 11
0 2 11
0 2 11
0 2 11
0 2 11
0 2 11
0 2 11
0 2 11
0 2 11
0 2 11
0 2 11
0 2 11
0 2 11
0 2 11
0 2 11
0 2 11
0 2 11
0 2 11
0 2 11
0 2 11
0 2 11
0 2 11
0 2 11
0 2 11
0 2 11
0 2 11
0 2 11
0 2 11
0 2 11
0 2 11
0 2 11
0 2 11
0 2 11
0 2 11
0 2 11
0 2 11
0 2 11
0 2 11
0 2 11
0 2 11
0 2 11
0 2 11
0 2 11
0 2 11
0 2 11
0 2 11
0 2 11
0 2 11
0 2 11
0 2 11
0 2 11
0 2 11
0 2 11
0 2 11
0 2 11
0 2 11
0 2 11
0 2 11
0 2 11
0 2 11
0 2 11
0 2 11
0 2 11
0 2 11
0 2 11
0 2 11
0 2 11
0 2 11
0 2 11
0 2 11
0 2 11
0 2 11
0 2 11
0 2 11
0 2 11
0 2 11
0 2 11
0 2 11
0 2 11
0 2 11
0 2 11
0 2 11
0 2 11
0 2 11
0 2 11
0 2 11
0 2 11
0 2 11
0 2 11
0 2 11
0 2 11
0 2 11
0 2 11
0 2 11
0 2 11
0 2 11
0 2 11
0 2 11
0 2 11
0 2 11
0 2 11
0 2 11
0 2 11
0 2 11
0 2 11
0 2 11
0 2 11
0 2 11
0 2 11
0 2 11
0 2 11
0 2 11
0 2 11
0 2 11
0 2 11
0 2 11
0 2 11
0 2 11
0 2 11
0 2 11
0 2 11
0 2 11
0 2 11
0 2 11
0 2 11
0 2 11
0 2 11
0 2 11
0 2 11
0 2 11
0 2 11
0 2 11
0 2 11
0 2 11
0 2 11
0 2 11
0 2 11
0 2 11
0 2 11
0 2 11
0 2 11
0 2 11
0 2 11
0 2 11
0 2 11
0 2 11
0 2 11
0 2 11
0 2 11
0 2 11
0 2 11
0 2 11
0 2 11
0 2 11
0 2 11
0 2 11
0 2 11
0 2 11
0 2 11
0 2 11
0 2 11
0 2 11
0 2 11
0 2 11
0 2 11
0 2 11
0 2 11
0 2 11
0 2 11
0 2 11
0 2 11
0 2 11
0 2 11
0 2 11
0 2 11
0 2 11
0 2 11
0 2 11
0 2 11
0 2 11
0 2 11
0 2 11
0 2 11
0 2 11
0 2 11
0 2 11
0 2 11
0 2 11
0 2 11
0 2 11
0 2 11
0 2 11
0 2 11
0 2 11
0 2 11
0 2 11
0 2 11
0 2 11
0 2 11
0 2 11
0 2 11
0 2 11
0 2 11
0 2 11
0 2 11
0 2 11
0 2 11
0 2 11
0 2 11
0 2 11
0 2 11
0 2 11
0 2 11
0 2 11
0 2 11
0 2 11
0 2 11
0 2 11
0 2 11
0 2 11
0 2 11
0 2 11
0 2 11
0 2 11
0 2 11
0 2 11
0 2 11
0 2 11
0 2 11
0 2 11
0 2 11
0 2 11
0 2 11
0 2 11
0 2 11
0 2 11
0 2 11
0 2 11
0 2 11
0 2 11
0 2 11
0 2 11
0 2 11
0 2 11
0 2 11
0 2 11
0 2 11
0 2 11
0 2 11
0 2 11
0 2 11
0 2 11
0 2 11
0 2 11
0 2 11
0 2 11
0 2 11
0 2 11
0 2 11
0 2 11
0 2 11
0 2 11
0 2 11
0 2 11
0 2 11
0 2 11
0 2 11
0 2 11
0 2 11
0 2 11
0 2 11
0 2 11
0 2 11
0 2 11
0 2 11
0 2 11
0 2 11
0 2 11
0 2 11
0 2 11
0 2 11
0 2 11
0 2 11
0 2 11
0 2 11
0 2 11
0 2 11
0 2 11
0 2 11
0 2 11
0 2 11
0 2 11
0 2 11
0 2 11
0 2 11
0 2 11
0 2 11
0 2 11
0 2 11
0 2 11
0 2 11
0 2 11
0 2 11
0 2 11
0 2 11
0 2 11
0 2 11
0 2 11
0 2 11
0 2 11
0 2 11
0 2 11
0 2 11
0 2 11
0 2 11
0 2 11
0 2 11
0 2 11
0 2 11
0 2 11
0 2 11
0 2 11
0 2 11
0 2 11
0 2 11
0 2 11
0 2 11
0 2 11
0 2 11
0 2 11
0 2 11
0 2 11
0 2 11
0 2 11
0 2 11
0 2 11
0 2 11
0 2 11
0 2 11
0 2 11
0 2 11
0 2 11
0 2 11
0 2 11
0 2 11
0 2 11
0 2 11
0 2 11
0 2 11
0 2 11
0 2 11
0 2 11
0 2 11
0 2 11
0 2 11
0 2 11
0 2 11
0 2 11
0 2 11
0 2 11
0 2 11
0 2 11
0 2 11
0 2 11
0 2 11
0 2 11
0 2 11
0 2 11
0 2 11
0 2 11
0 2 11
0 2 11
0 2 11
0 2 11
0 2 11
0 2 11
0 2 11
0 2 11
0 2 11
0 2 11
0 2 11
0 2 11
0 2 11
0 2 11
0 2 11
0 2 11
0 2 11
0 2 11
0 2 11
0 2 11
0 2 11
0 2 11
0 2 11
0 2 11
0 2 11
0 2 11
0 2 11
0 2 11
0 2 11
0 2 11
0 2 11
0 2 11
0 2 11
0 2 11
0 2 11
0 2 11
0 2 11
0 2 11
0 2 11
0 2 11
0 2 11
0 2 11
0 2 11
0 2 11
0 2 11
0 2 11
0 2 11
0 2 11
0 2 11
0 2 11
0 2 11
0 2 11
0 2 11
0 2 11
0 2 11
0 2 11
0 2 11
0 2 11
0 2 11
0 2 11
0 2 11
0 2 11
0 2 11
0 2 11
0 2 11
0 2 11
0 2 11
0 2 11
0 2 11
0 2 11
0 2 11
0 2 11
0 2 11
0 2 11
0 2 11
0 2 11
0 2 11
0 2 11
0 2 11
0 2 11
0 2 11
0 2 11
0 2 11
0 2 11
0 2 11
0 2 11
0 2 11
0 2 11
0 2 11
0 2 11
0 2 11
0 2 11
0 2 11
0 2 11
0 2 11
0 2 11
0 2 11
0 2 11
0 2 11
0 2 11
0 2 11
0 2 11
0 2 11
0 2 11
0 2 11
0 2 11
0 2 11
0 2 11
0 2 11
0 2 11
0 2 11
0 2 11
0 2 11
0 2 11
0 2 11
0 2 11
0 2 11
0 2 11
0 2 11
0 2 11
0 2 11
0 2 11
0 2 11
0 2 11
0 2 11
0 2 11
0 2 11
0 2 11
0 2 11
0 2 11
0 2 11
0 2 11
0 2 11
0 2 11
0 2 11
0 2 11
0 2 11
0 2 11
0 2 11
0 2 11
0 2 11
0 2 11
0 2 11
0 2 11
0 2 11
0 2 11
0 2 11
0 2 11
0 2 11
0 2 11
0 2 11
0 2 11
0 2 11
0 2 11
0 2 11
0 2 11
0 2 11
0 2 11
0 2 11
0 2 11
0 2 11
0 2 11
0 2 11
0 2 11
0 2 11
0 2 11
0 2 11
0 2 11
0 2 11
0 2 11
0 2 11
0 2 11
0 2 11
0 2 11
0 2 11
0 2 11
0 2 11
0 2 11
0 2 11
0 2 11
0 2 11
0 2 11
0 2 11
0 2 11
0 2 11
0 2 11
0 2 11
0 2 11
0 2 11
0 2 11
0 2 11
0 2 11
0 2 11
0 2 11
0 2 11
0 2 11
0 2 11
0 2 11
0 2 11
0 2 11
0 2 11
0 2 11
0 2 11
0 2 11
0 2 11
0 2 11
0 2 11
0 2 11
0 2 11
0 2 11
0 2 11
0 2 11
0 2 11
0 2 11
0 2 11
0 2 11
0 2 11
0 2 11
0 2 11
0 2 11
0 2 11
0 2 11
0 2 11
0 2 11
0 2 11
0 2 11
0 2 11
0 2 11
0 2 11
0 2 11
0 2 11
0 2 11
0 2 11
0 2 11
0 2 11
0 2 11
0 2 11
0 2 11
0 2 11
0 2 11
0 2 11
0 2 11
0 2 11
0 2 11
0 2 11
0 2 11
0 2 11
0 2 11
0 2 11
0 2 11
0 2 11
0 2 11
0 2 11
0 2 11
0 2 11
0 2 11
0 2 11
0 2 11
0 2 11
0 2 11
0 2 11
0 2 11
0 2 11
0 2 11
0 2 11
0 2 11
0 2 11
0 2 11
0 2 11
0 2 11
0 2 11
0 2 11
0 2 11
0 2 11
0 2 11
0 2 11
0 2 11
0 2 11
0 2 11
0 2 11
0 2 11
0 2 11
0 2 11
0 2 11
0 2 11
0 2 11
0 2 11
0 2 11
0 2 11
0 2 11
0 2 11
0 2 11
0 2 11
0 2 11
0 2 11
0 2 11
0 2 11
0 2 11
0 2 11
0 2 11
0 2 11
0 2 11
0 2 11
0 2 11
0 2 11
0 2 11
0 2 11
0 2 11
0 2 11
0 2 11
0 2 11
0 2 11
0 2 11
0 2 11
0 2 11
0 2 11
0 2 11
0 2 11
0 2 11
0 2 11
0 2 11
0 2 11
0 2 11
0 2 11
0 2 11
0 2 11
0 2 11
0 2 11
0 2 11
0 2 11
0 2 11
0 2 11
0 2 11
0 2 11
0 2 11
0 2 11
0 2 11
0 2 11
0 2 11
0 2 11
0 2 11
0 2 11
0 2 11
0 2 11
0 2 11
0 2 11
0 2 11
0 2 11
0 2 11
0 2 11
0 2 11
0 2 11
0 2 11
0 2 11
0 2 11
0 2 11
0 2 11
0 2 11
0 2 11
0 2 11
0 2 11
0 2 11
0 2 11
0 2 11
0 2 11
0 2 11
0 2 11
0 2 11
0 2 11
0 2 11
0 2 11
0 2 11
0 2 11
0 2 11
0 2 11
0 2 11
0 2 11
0 2 11
0 2 11
0 2 11
0 2 11
0 2 11
0 2 11
0 2 11
0 2 11
0 2 11
0 2 11
0 2 11
0 2 11
0 2 11
0 2 11
0 2 11
0 2 11
0 2 11
0 2 11
0 2 11
0 2 11
0 2 11
0 2 11
0 2 11
0 2 11
0 2 11
0 2 11
0 2 11
0 2 11
0 2 11
0 2 11
0 2 11
0 2 11
0 2 11
0 2 11
0 2 11
0 2 11
0 2 11
0 2 11
0 2 11
0 2 11
0 2 11
0 2 11
0 2 11
0 2 11
0 2 11
0 2 11
0 2 11
0 2 11
0 2 11
0 2 11
0 2 11
0 2 11
0 2 11
0 2 11
0 2 11
0 2 11
0 2 11
0 2 11
0 2 11
0 2 11
0 2 11
0 2 11
0 2 11
0 2 11
0 2 11
0 2 11
0 2 11
0 2 11
0 2 11
0 2 11
0 2 11
0 2 11
0 2 11
0 2 11
0 2 11
0 2 11
0 2 11
0 2 11
0 2 11
0 2 11
0 2 11
0 2 11
0 2 11
0 2 11
0 2 11
0 2 11
0 2 11
0 2 11
0 2 11
0 2 11
0 2 11
0 2 11
0 2 11
0 2 11
0 2 11
0 2 11
0 2 11
0 2 11
0 2 11
0 2 11
0 2 11
0 2 11
0 2 11
0 2 11
0 2 11
0 2 11
0 2 11
0 2 11
0 2 11
0 2 11
0 2 11
0 2 11
0 2 11
0 2 11
0 2 11
0 2 11
0 2 11
0 2 11
0 2 11
0 2 11
0 2 11
0 2 11
0 2 11
0 2 11
0 2 11
0 2 11
0 2 11
0 2 11
0 2 11
0 2 11
0 2 11
0 2 11
0 2 11
0 2 11
0 2 11
0 2 11
0 2 11
0 2 11
0 2 11
0 2 11
0 2 11
0 2 11
0 2 11
0 2 11
0 2 11
0 2 11
0 2 11
0 2 11
0 2 11
0 2 11
0 2 11
0 2 11
0 2 11
0 2 11
0 2 11
0 2 11
0 2 11
0 2 11
0 2 11
0 2 11
0 2 11
0 2 11
0 2 11
0 2 11
0 2 11
0 2 11
0 2 11
0 2 11
0 2 11
0 2 11
0 2 11
0 2 11
0 2 11
0 2 11
0 2 11
0 2 11
0 2 11
0 2 11
0 2 11
0 2 11
0 2 11
0 2 11
0 2 11
0 2 11
0 2 11
0 2 11
0 2 11
0 2 11
0 2 11
0 2 11
0 2 11
0 2 11
0 2 11
0 2 11
0 2 11
0 2 11
0 2 11
0 2 11
0 2 11
0 2 11
0 2 11
0 2 11
0 2 11
0 2 11
0 2 11
0 2 11
0 2 11
0 2 11
0 2 11
0 2 11
0 2 11
0 2 11
0 2 11
0 2 11
0 2 11
0 2 11
0 2 11
0 2 11
0 2 11
0 2 11
0 2 11
0 2 11
0 2 11
0 2 11
0 2 11
0 2 11
0 2 11
0 2 11
0 2 11
0 2 11
0 2 11
0 2 11
0 2 11
0 2 11
0 2 11
0 2 11
0 2 11
0 2 11
0 2 11
0 2 11
0 2 11
0 2 11
0 2 11
0 2 11
0 2 11
0 2 11
0 2 11
0 2 11
0 2 11
0 2 11
0 2 11
0 2 11
0 2 11
0 2 11
0 2 11
0 2 11
0 2 11
0 2 11
0 2 11
0 2 11
0 2 11
0 2 11
0 2 11
0 2 11
0 2 11
0 2 11
0 2 11
0 2 11
0 2 11
0 2 11
0 2 11
0 2 11
0 2 11
0 2 11
0 2 11
0 2 11
0 2 11
0 2 11
0 2 11
0 2 11
0 2 11
0 2 11
0 2 11
0 2 11
0 2 11
0 2 11
0 2 11
0 2 11
0 2 11
0 2 11
0 2 11
0 2 11
0 2 11
0 2 11
0 2 11
0 2 11
0 2 11
0 2 11
0 2 11
0 2 11
0 2 11
0 2 11
0 2 11
0 2 11
0 2 11
0 2 11
0 2 11
0 2 11
0 2 11
0 2 11
0 2 11
0 2 11
0 2 11
0 2 11
0 2 11
0 2 11
0 2 11
0 2 11
0 2 11
0 2 11
0 2 11
0 2 11
0 2 11
0 2 11
0 2 11
0 2 11
0 2 11
0 2 11
0 2 11
0 2 11
0 2 11
0 2 11
0 2 11
0 2 11
0 2 11
0 2 11
0 2 11
0 2 11
0 2 11
0 2 11
0 2 11
0 2 11
0 2 11
0 2 11
0 2 11
0 2 11
0 2 11
0 2 11
0 2 11
0 2 11
0 2 11
0 2 11
0 2 11
0 2 11
0 2 11
0 2 11
0 2 11
0 2 11
0 2 11
0 2 11
0 2 11
0 2 11
0 2 11
0 2 11
0 2 11
0 2 11
0 2 11
0 2 11
0 2 11
0 2 11
0 2 11
0 2 11
0 2 11
0 2 11
0 2 11
0 2 11
0 2 11
0 2 11
0 2 11
0 2 11
0 2 11
0 2 11
0 2 11
0 2 11
0 2 11
0 2 11
0 2 11
0 2 11
0 2 11
0 2 11
0 2 11
0 2 11
0 2 11
0 2 11
0 2 11
0 2 11
0 2 11
0 2 11
0 2 11
0 2 11
0 2 11
0 2 11
0 2 11
0 2 11
0 2 11
0 2 11
0 2 11
0 2 11
0 2 11
0 2 11
0 2 11
0 2 11
0 2 11
0 2 11
0 2 11
0 2 11
0 2 11
0 2 11
0 2 11
0 2 11
0 2 11
0 2 11
0 2 11
0 2 11
0 2 11
0 2 11
0 2 11
0 2 11
0 2 11
0 2 11
0 2 11
0 2 11
0 2 11
0 2 11
0 2 11
0 2 11
0 2 11
0 2 11
0 2 11
0 2 11
0 2 11
0 2 11
0 2 11
0 2 11
0 2 11
0 2 11
0 2 11
0 2 11
0 2 11
0 2 11
0 2 11
0 2 11
0 2 11
0 2 11
0 2 11
0 2 11
0 2 11
0 2 11
0 2 11
0 2 11
0 2 11
0 2 11
0 2 11
0 2 11
0 2 11
0 2 11
0 2 11
0 2 11
0 2 11
0 2 11
0 2 11
0 2 11
0 2 11
0 2 11
0 2 11
0 2 11
0 2 11
0 2 11
0 2 11
0 2 11
0 2 11
0 2 11
0 2 11
0 2 11
0 2 11
0 2 11
0 2 11
0 2 11
0 2 11
0 2 11
0 2 11
0 2 11
0 2 11
0 2 11
0 2 11
0 2 11
0 2 11
0 2 11
0 2 11
0 2 11
0 2 11
0 2 11
0 2 11
0 2 11
0 2 11
0 2 11
0 2 11
0 2 11
0 2 11
0 2 11
0 2 11
0 2 11
0 2 11
0 2 11
0 2 11
0 2 11
0 2 11
0 2 11
0 2 11
0 2 11
0 2 11
0 2 11
0 2 11
0 2 11
0 2 11
0 2 11
0 2 11
0 2 11
0 2 11
0 2 11
0 2 11
0 2 11
0 2 11
0 2 11
0 2 11
0 2 11
0 2 11
0 2 11
0 2 11
0 2 11
0 2 11
0 2 11
0 2 11
0 2 11
0 2 11
0 2 11
0 2 11
0 2 11
0 2 11
0 2 11
0 2 11
0 2 11
0 2 11
0 2 11
0 2 11
0 2 11
0 2 11
0 2 11
0 2 11
0 2 11
0 2 11
0 2 11
0 2 11
0 2 11
0 2 11
0 2 11
0 2 11
0 2 11
0 2 11
0 2 11
0 2 11
0 2 11
0 2 11
0 2 11
0 2 11
0 2 11
0 2 11
0 2 11
0 2 11
0 2 11
0 2 11
0 2 11
0 2 11
0 2 11
0 2 11
0 2 11
0 2 11
0 2 11
0 2 11
0 2 11
0 2 11
0 2 11
0 2 11
0 2 11
0 2 11
0 2 11
0 2 11
0 2 11
0 2 11
0 2 11
0 2 11
0 2 11
0 2 11
0 2 11
0 2 11
0 2 11
0 2 11
0 2 11
0 2 11
0 2 11
0 2 11
0 2 11
0 2 11
0 2 11
0 2 11
0 2 11
0 2 11
0 2 11
0 2 11
0 2 11
0 2 11
0 2 11
0 2 11
0 2 11
0 2 11
0 2 11
0 2 11
0 2 11
0 2 11
0 2 11
0 2 11
0 2 11
0 2 11
0 2 11
0 2 11
0 2 11
0 2 11
0 2 11
0 2 11
0 2 11
0 2 11
0 2 11
0 2 11
0 2 11
0 2 11
0 2 11
0 2 11
0 2 11
0 2 11
0 2 11
0 2 11
0 2 11
0 2 11
0 2 11
0 2 11
0 2 11
0 2 11
0 2 11
0 2 11
0 2 11
0 2 11
0 2 11
0 2 11
0 2 11
0 2 11
0 2 11
0 2 11
0 2 11
0 2 11
0 2 11
0 2 11
0 2 11
0 2 11
0 2 11
0 2 11
0 2 11
0 2 11
0 2 11
0 2 11
0 2 11
0 2 11
0 2 11
0 2 11
0 2 11
0 2 11
0 2 11
0 2 11
0 2 11
0 2 11
0 2 11
0 2 11
0 2 11
0 2 11
0 2 11
0 2 11
0 2 11
0 2 11
0 2 11
0 2 11
0 2 11
0 2 11
0 2 11
0 2 11
0 2 11
0 2 11
0 2 11
0 2 11
0 2 11
0 2 11
0 2 11
0 2 11
0 2 11
0 2 11
0 2 11
0 2 11
0 2 11
0 2 11
0 2 11
0 2 11
0 2 11
0 2 11
0 2 11
0 2 11
0 2 11
0 2 11
0 2 11
0 2 11
0 2 11
0 2 11
0 2 11
0 2 11
0 2 11
0 2 11
0 2 11
0 2 11
0 2 11
0 2 11
0 2 11
0 2 11
0 2 11
0 2 11
0 2 11
0 2 11
0 2 11
0 2 11
0 2 11
0 2 11
0 2 11
0 2 11
0 2 11
0 2 11
0 2 11
0 2 11
0 2 11
0 2 11
0 2 11
0 2 11
0 2 11
0 2 11
0 2 11
0 2 11
0 2 11
0 2 11
0 2 11
0 2 11
0 2 11
0 2 11
0 2 11
0 2 11
0 2 11
0 2 11
0 2 11
0 2 11
0 2 11
0 2 11
0 2 11
0 2 11
0 2 11
0 2 11
0 2 11
0 2 11
0 2 11
0 2 11
0 2 11
0 2 11
0 2 11
0 2 11
0 2 11
0 2 11
0 2 11
0 2 11
0 2 11
0 2 11
0 2 11
0 2 11
0 2 11
0 2 11
0 2 11
0 2 11
0 2 11
0 2 11
0 2 11
0 2 11
0 2 11
0 2 11
0 2 11
0 2 11
0 2 11
0 2 11
0 2 11
0 2 11
0 2 11
0 2 11
0 2 11
0 2 11
0 2 11
0 2 11
0 2 11
0 2 11
0 2 11
0 2 11
0 2 11
0 2 11
0 2 11
0 2 11
0 2 11
0 2 11
0 2 11
0 2 11
0 2 11
0 2 11
0 2 11
0 2 11
0 2 11
0 2 11
0 2 11
0 2 11
0 2 11
0 2 11
0 2 11
0 2 11
0 2 11
0 2 11
0 2 11
0 2 11
0 2 11
0 2 11
0 2 11
0 2 11
0 2 11
0 2 11
0 2 11
0 2 11
0 2 11
0 2 11
0 2 11
0 2 11
0 2 11
0 2 11
0 2 11
0 2 11
0 2 11
0 2 11
0 2 11
0 2 11
0 2 11
0 2 11
0 2 11
0 2 11
0 2 11
0 2 11
0 2 11
0 2 11
0 2 11
0 2 11
0 2 11
0 2 11
0 2 11
0 2 11
0 2 11
0 2 11
0 2 11
0 2 11
0 2 11
0 2 11
0 2 11
0 2 11
0 2 11
0 2 11
0 2 11
0 2 11
0 2 11
0 2 11
0 2 11
0 2 11
0 2 11
0 2 11
0 2 11
0 2 11
0 2 11
0 2 11
0 2 11
0 2 11
0 2 11
0 2 11
0 2 11
0 2 11
0 2 11
0 2 11
0 2 11
0 2 11
0 2 11
0 2 11
0 2 11
0 2 11
0 2 11
0 2 11
0 2 11
0 2 11
0 2 11
0 2 11
0 2 11
0 2 11
0 2 11
0 2 11
0 2 11
0 2 11
0 2 11
0 2 11
0 2 11
0 2 11
0 2 11
0 2 11
0 2 11
0 2 11
0 2 11
0 2 11
0 2 11
0 2 11
0 2 11
0 2 11
0 2 11
0 2 11
0 2 11
0 2 11
0 2 11
0 2 11
0 2 11
0 2 11
0 2 11
0 2 11
0 2 11
0 2 11
0 2 11
0 2 11
0 2 11
0 2 11
0 2 11
0 2 11
0 2 11
0 2 11
0 2 11
0 2 11
0 2 11
0 2 11
0 2 11
0 2 11
0 2 11
0 2 11
0 2 11
0 2 11
0 2 11
0 2 11
0 2 11
0 2 11
0 2 11
0 2 11
0 2 11
0 2 11
0 2 11
0 2 11
0 2 11
0 2 11
0 2 11
0 2 11
0 2 11
0 2 11
0 2 11
0 2 11
0 2 11
0 2 11
0 2 11
0 2 11
0 2 11
0 2 11
0 2 11
0 2 11
0 2 11
0 2 11
0 2 11
0 2 11
0 2 11
0 2 11
0 2 11
0 2 11
0 2 11
0 2 11
0 2 11
0 2 11
0 2 11
0 2 11
0 2 11
0 2 11
0 2 11
0 2 11
0 2 11
0 2 11
0 2 11
0 2 11
0 2 11
0 2 11
0 2 11
0 2 11
0 2 11
0 2 11
0 2 11
0 2 11
0 2 11
0 2 11
0 2 11
0 2 11
0 2 11
0 2 11
0 2 11
0 2 11
0 2 11
0 2 11
0 2 11
0 2 11
0 2 11
0 2 11
0 2 11
0 2 11
0 2 11
0 2 11
0 2 11
0 2 11
0 2 11
0 2 11
0 2 11
0 2 11
0 2 11
0 2 11
0 2 11
0 2 11
0 2 11
0 2 11
0 2 11
0 2 11
0 2 11
0 2 11
0 2 11
0 2 11
0 2 11
0 2 11
0 2 11
0 2 11
0 2 11
0 2 11
0 2 11
0 2 11
0 2 11
0 2 11
0 2 11
0 2 11
0 2 11
0 2 11
0 2 11
0 2 11
0 2 11
0 2 11
0 2 11
0 2 11
0 2 11
0 2 11
0 2 11
0 2 11
0 2 11
0 2 11
0 2 11
0 2 11
0 2 11
0 2 11
0 2 11
0 2 11
0 2 11
0 2 11
0 2 11
0 2 11
0 2 11
0 2 11
0 2 11
0 2 11
0 2 11
0 2 11
0 2 11
0 2 11
0 2 11
0 2 11
0 2 11
0 2 11
0 2 11
0 2 11
0 2 11
0 2 11
0 2 11
0 2 11
0 2 11
0 2 11
0 2 11
0 2 11
0 2 11
0 2 11
0 2 11
0 2 11
0 2 11
0 2 11
0 2 11
0 2 11
0 2 11
0 2 11
0 2 11
0 2 11
0 2 11
0 2 11
0 2 11
0 2 11
0 2 11
0 2 11
0 2 11
0 2 11
0 2 11
0 2 11
0 2 11
0 2 11
0 2 11
0 2 11
0 2 11
0 2 11
0 2 11
0 2 11
0 2 11
0 2 11
0 2 11
0 2 11
0 2 11
0 2 11
0 2 11
0 2 11
0 2 11
0 2 11
0 2 11
0 2 11
0 2 11
0 2 11
0 2 11
0 2 11
0 2 11
0 2 11
0 2 11
0 2 11
0 2 11
0 2 11
0 2 11
0 2 11
0 2 11
0 2 11
0 2 11
0 2 11
0 2 11
0 2 11
0 2 11
0 2 11
0 2 11
0 2 11
0 2 11
0 2 11
0 2 11
0 2 11
0 2 11
0 2 11
0 2 11
0 2 11
0 2 11
0 2 11
0 2 11
0 2 11
0 2 11
0 2 11
0 2 11
0 2 11
0 2 11
0 2 11
0 2 11
0 2 11
0 2 11
0 2 11
0 2 11
0 2 11
0 2 11
0 2 11
0 2 11
0 2 11
0 2 11
0 2 11
0 2 11
0 2 11
0 2 11
0 2 11
0 2 11
0 2 11
0 2 11
0 2 11
0 2 11
0 2 11
0 2 11
0 2 11
0 2 11
0 2 11
0 2 11
0 2 11
0 2 11
0 2 11
0 2 11
0 2 11
0 2 11
0 2 11
0 2 11
0 2 11
0 2 11
0 2 11
0 2 11
0 2 11
0 2 11
0 2 11
0 2 11
0 2 11
0 2 11
0 2 11
0 2 11
0 2 11
0 2 11
0 2 11
0 2 11
0 2 11
0 2 11
0 2 11
0 2 11
0 2 11
0 2 11
0 2 11
0 2 11
0 2 11
0 2 11
0 2 11
0 2 11
0 2 11
0 2 11
0 2 11
0 2 11
0 2 11
0 2 11
0 2 11
0 2 11
0 2 11
0 2 11
0 2 11
0 2 11
0 2 11
0 2 11
0 2 11
0 2 11
0 2 11
0 2 11
0 2 11
0 2 11
0 2 11
0 2 11
0 2 11
0 2 11
0 2 11
0 2 11
0 2 11
0 2 11
0 2 11
0 2 11
0 2 11
0 2 11
0 2 11
0 2 11
0 2 11
0 2 11
0 2 11
0 2 11
0 2 11
0 2 11
0 2 11
0 2 11
0 2 11
0 2 11
0 2 11
0 2 11
0 2 11
0 2 11
0 2 11
0 2 11
0 2 11
0 2 11
0 2 11
0 2 11
0 2 11
0 2 11
0 2 11
0 2 11
0 2 11
0 2 11
0 2 11
0 2 11
0 2 11
0 2 11
0 2 11
0 2 11
0 2 11
0 2 11
0 2 11
0 2 11
0 2 11
0 2 11
0 2 11
0 2 11
0 2 11
0 2 11
0 2 11
0 2 11
0 2 11
0 2 11
0 2 11
0 2 11
0 2 11
0 2 11
0 2 11
0 2 11
0 2 11
0 2 11
0 2 11
0 2 11
0 2 11
0 2 11
0 2 11
0 2 11
0 2 11
0 2 11
0 2 11
0 2 11
0 2 11
0 2 11
0 2 11
0 2 11
0 2 11
0 2 11
0 2 11
0 2 11
0 2 11
0 2 11
0 2 11
0 2 11
0 2 11
0 2 11
0 2 11
0 2 11
0 2 11
0 2 11
0 2 11
0 2 11
0 2 11
0 2 11
0 2 11
0 2 11
0 2 11
0 2 11
0 2 11
0 2 11
0 2 11
0 2 11
0 2 11
0 2 11
0 2 11
0 2 11
0 2 11
0 2 11
0 2 11
0 2 11
0 2 11
0 2 11
0 2 11
0 2 11
0 2 11
0 2 11
0 2 11
0 2 11
0 2 11
0 2 11
0 2 11
0 2 11
0 2 11
0 2 11
0 2 11
0 2 11
0 2 11
0 2 11
0 2 11
0 2 11
0 2 11
0 2 11
0 2 11
0 2 11
0 2 11
0 2 11
0 2 11
0 2 11
0 2 11
0 2 11
0 2 11
0 2 11
0 2 11
0 2 11
0 2 11
0 2 11
0 2 11
0 2 11
0 2 11
0 2 11
0 2 11
0 2 11
0 2 11
0 2 11
0 2 11
0 2 11
0 2 11
0 2 11
0 2 11
0 2 11
0 2 11
0 2 11
0 2 11
0 2 11
0 2 11
0 2 11
0 2 11
0 2 11
0 2 11
0 2 11
0 2 11
0 2 11
0 2 11
0 2 11
0 2 11
0 2 11
0 2 11
0 2 11
0 2 11
0 2 11
0 2 11
0 2 11
0 2 11
0 2 11
0 2 11
0 2 11
0 2 11
0 2 11
0 2 11
0 2 11
0 2 11
0 2 11
0 2 11
0 2 11
0 2 11
0 2 11
0 2 11
0 2 11
0 2 11
0 2 11
0 2 11
0 2 11
0 2 11
0 2 11
0 2 11
0 2 11
0 2 11
0 2 11
0 2 11
0 2 11
0 2 11
0 2 11
0 2 11
0 2 11
0 2 11
0 2 11
0 2 11
0 2 11
0 2 11
0 2 11
0 2 11
0 2 11
0 2 11
0 2 11
0 2 11
0 2 11
0 2 11
0 2 11
0 2 11
0 2 11
0 2 11
0 2 11
0 2 11
0 2 11
0 2 11
0 2 11
0 2 11
0 2 11
0 2 11
0 2 11
0 2 11
0 2 11
0 2 11
0 2 11
0 2 11
0 2 11
0 2 11
0 2 11
0 2 11
0 2 11
0 2 11
0 2 11
0 2 11
0 2 11
0 2 11
0 2 11
0 2 11
0 2 11
0 2 11
0 2 11
0 2 11
0 2 11
0 2 11
0 2 11
0 2 11
0 2 11
0 2 11
0 2 11
0 2 11
0 2 11
0 2 11
0 2 11
0 2 11
0 2 11
0 2 11
0 2 11
0 2 11
0 2 11
0 2 11
0 2 11
0 2 11
0 2 11
0 2 11
0 2 11
0 2 11
0 2 11
0 2 11
0 2 11
0 2 11
0 2 11
0 2 11
0 2 11
0 2 11
0 2 11
0 2 11
0 2 11
0 2 11
0 2 11
0 2 11
0 2 11
0 2 11
0 2 11
0 2 11
0 2 11
0 2 11
0 2 11
0 2 11
0 2 11
0 2 11
0 2 11
0 2 11
0 2 11
0 2 11
0 2 11
0 2 11
0 2 11
0 2 11
0 2 11
0 2 11
0 2 11
0 2 11
0 2 11
0 2 11
0 2 11
0 2 11
0 2 11
0 2 11
0 2 11
0 2 11
0 2 11
0 2 11
0 2 11
0 2 11
0 2 11
0 2 11
0 2 11
0 2 11
0 2 11
0 2 11
0 2 11
0 2 11
0 2 11
0 2 11
0 2 11
0 2 11
0 2 11
0 2 11
0 2 11
0 2 11
0 2 11
0 2 11
0 2 11
0 2 11
0 2 11
0 2 11
0 2 11
0 2 11
0 2 11
0 2 11
0 2 11
0 2 11
0 2 11
0 2 11
0 2 11
0 2 11
0 2 11
0 2 11
0 2 11
0 2 11
0 2 11
0 2 11
0 2 11
0 2 11
0 2 11
0 2 11
0 2 11
0 2 11
0 2 11
0 2 11
0 2 11
0 2 11
0 2 11
0 2 11
0 2 11
0 2 11
0 2 11
0 2 11
0 2 11
0 2 11
0 2 11
0 2 11
0 2 11
0 2 11
0 2 11
0 2 11
0 2 11
0 2 11
0 2 11
0 2 11
0 2 11
0 2 11
0 2 11
0 2 11
0 2 11
0 2 11
0 2 11
0 2 11
0 2 11
0 2 11
0 2 11
0 2 11
0 2 11
0 2 11
0 2 11
0 2 11
0 2 11
0 2 11
0 2 11
0 2 11
0 2 11
0 2 11
0 2 11
0 2 11
0 2 11
0 2 11
0 2 11
0 2 11
0 2 11
0 2 11
0 2 11
0 2 11
0 2 11
0 2 11
0 2 11
0 2 11
0 2 11
0 2 11
0 2 11
0 2 11
0 2 11
0 2 11
0 2 11
0 2 11
0 2 11
0 2 11
0 2 11
0 2 11
0 2 11
0 2 11
0 2 11
0 2 11
0 2 11
0 2 11
0 2 11
0 2 11
0 2 11
0 2 11
0 2 11
0 2 11
0 2 11
0 2 11
0 2 11
0 2 11
0 2 11
0 2 11
0 2 11
0 2 11
0 2 11
0 2 11
0 2 11
0 2 11
0 2 11
0 2 11
0 2 11
0 2 11
0 2 11
0 2 11
0 2 11
0 2 11
0 2 11
0 2 11
0 2 11
0 2 11
0 2 11
0 2 11
0 2 11
0 2 11
0 2 11
0 2 11
0 2 11
0 2 11
0 2 11
0 2 11
0 2 11
0 2 11
0 2 11
0 2 11
0 2 11
0 2 11
0 2 11
0 2 11
0 2 11
0 2 11
0 2 11
0 2 11
0 2 11
0 2 11
0 2 11
0 2 11
0 2 11
0 2 11
0 2 11
0 2 11
0 2 11
0 2 11
0 2 11
0 2 11
0 2 11
0 2 11
0 2 11
0 2 11
0 2 11
0 2 11
0 2 11
0 2 11
0 2 11
0 2 11
0 2 11
0 2 11
0 2 11
0 2 11
0 2 11
0 2 11
0 2 11
0 2 11
0 2 11
0 2 11
0 2 11
0 2 11
0 2 11
0 2 11
0 2 11
0 2 11
0 2 11
0 2 11
0 2 11
0 2 11
0 2 11
0 2 11
0 2 11
0 2 11
0 2 11
0 2 11
0 2 11
0 2 11
0 2 11
0 2 11
0 2 11
0 2 11
0 2 11
0 2 11
0 2 11
0 2 11
0 2 11
0 2 11
0 2 11
0 2 11
0 2 11
0 2 11
0 2 11
0 2 11
0 2 11
0 2 11
0 2 11
0 2 11
0 2 11
0 2 11
0 2 11
0 2 11
0 2 11
0 2 11
0 2 11
0 2 11
0 2 11
0 2 11
0 2 11
0 2 11
0 2 11
0 2 11
0 2 11
0 2 11
0 2 11
0 2 11
0 2 11
0 2 11
0 2 11
0 2 11
0 2 11
0 2 11
0 2 11
0 2 11
0 2 11
0 2 11
0 2 11
0 2 11
0 2 11
0 2 11
0 2 11
0 2 11
0 2 11
0 2 11
0 2 11
0 2 11
0 2 11
0 2 11
0 2 11
0 2 11
0 2 11
0 2 11
0 2 11
0 2 11
0 2 11
0 2 11
0 2 11
0 2 11
0 2 11
0 2 11
0 2 11
0 2 11
0 2 11
0 2 11
0 2 11
0 2 11
0 2 11
0 2 11
0 2 11
0 2 11
0 2 11
0 2 11
0 2 11
0 2 11
0 2 11
0 2 11
0 2 11
0 2 11
0 2 11
0 2 11
0 2 11
0 2 11
0 2 11
0 2 11
0 2 11
0 2 11
0 2 11
0 2 11
0 2 11
0 2 11
0 2 11
0 2 11
0 2 11
0 2 11
0 2 11
0 2 11
0 2 11
0 2 11
0 2 11
0 2 11
0 2 11
0 2 11
0 2 11
0 2 11
0 2 11
0 2 11
0 2 11
0 2 11
0 2 11
0 2 11
0 2 11
0 2 11
0 2 11
0 2 11
0 2 11
0 2 11
0 2 11
0 2 11
0 2 11
0 2 11
0 2 11
0 2 11
0 2 11
0 2 11
0 2 11
0 2 11
0 2 11
0 2 11
0 2 11
0 2 11
0 2 11
0 2 11
0 2 11
0 2 11
0 2 11
0 2 11
0 2 11
0 2 11
0 2 11
0 2 11
0 2 11
0 2 11
0 2 11
0 2 11
0 2 11
0 2 11
0 2 11
0 2 11
0 2 11
0 2 11
0 2 11
0 2 11
0 2 11
0 2 11
0 2 11
0 2 11
0 2 11
0 2 11
0 2 11
0 2 11
0 2 11
0 2 11
0 2 11
0 2 11
0 2 11
0 2 11
0 2 11
0 2 11
0 2 11
0 2 11
0 2 11
0 2 11
0 2 11
0 2 11
0 2 11
0 2 11
0 2 11
0 2 11
0 2 11
0 2 11
0 2 11
0 2 11
0 2 11
0 2 11
0 2 11
0 2 11
0 2 11
0 2 11
0 2 11
0 2 11
0 2 11
0 2 11
0 2 11
0 2 11
0 2 11
0 2 11
0 2 11
0 2 11
0 2 11
0 2 11
0 2 11
0 2 11
0 2 11
0 2 11
0 2 11
0 2 11
0 2 11
0 2 11
0 2 11
0 2 11
0 2 11
0 2 11
0 2 11
0 2 11
0 2 11
0 2 11
0 2 11
0 2 11
0 2 11
0 2 11
0 2 11
0 2 11
0 2 11
0 2 11
0 2 11
0 2 11
0 2 11
0 2 11
0 2 11
0 2 11
0 2 11
0 2 11
0 2 11
0 2 11
0 2 11
0 2 11
0 2 11
0 2 11
0 2 11
0 2 11
0 2 11
0 2 11
0 2 11
0 2 11
0 2 11
0 2 11
0 2 11
0 2 11
0 2 11
0 2 11
0 2 11
0 2 11
0 2 11
0 2 11
0 2 11
0 2 11
0 2 11
0 2 11
0 2 11
0 2 11
0 2 11
0 2 11
0 2 11
0 2 11
0 2 11
0 2 11
0 2 11
0 2 11
0 2 11
0 2 11
0 2 11
0 2 11
0 2 11
0 2 11
0 2 11
0 2 11
0 2 11
0 2 11
0 2 11
0 2 11
0 2 11
0 2 11
0 2 11
0 2 11
0 2 11
0 2 11
0 2 11
0 2 11
0 2 11
0 2 11
0 2 11
0 2 11
0 2 11
0 2 11
0 2 11
0 2 11
0 2 11
0 2 11
0 2 11
0 2 11
0 2 11
0 2 11
0 2 11
0 2 11
0 2 11
0 2 11
0 2 11
0 2 11
0 2 11
0 2 11
0 2 11
0 2 11
0 2 11
0 2 11
0 2 11
0 2 11
0 2 11
0 2 11
0 2 11
0 2 11
0 2 11
0 2 11
0 2 11
0 2 11
0 2 11
0 2 11
0 2 11
0 2 11
0 2 11
0 2 11
0 2 11
0 2 11
0 2 11
0 2 11
0 2 11
0 2 11
0 2 11
0 2 11
0 2 11
0 2 11
0 2 11
0 2 11
0 2 11
0 2 11
0 2 11
0 2 11
0 2 11
0 2 11
0 2 11
0 2 11
0 2 11
0 2 11
0 2 11
0 2 11
0 2 11
0 2 11
0 2 11
0 2 11
0 2 11
0 2 11
0 2 11
0 2 11
0 2 11
0 2 11
0 2 11
0 2 11
0 2 11
0 2 11
0 2 11
0 2 11
0 2 11
0 2 11
0 2 11
0 2 11
0 2 11
0 2 11
0 2 11
0 2 11
0 2 11
0 2 11
0 2 11
0 2 11
0 2 11
0 2 11
0 2 11
0 2 11
0 2 11
0 2 11
0 2 11
0 2 11
0 2 11
0 2 11
0 2 11
0 2 11
0 2 11
0 2 11
0 2 11
0 2 11
0 2 11
0 2 11
0 2 11
0 2 11
0 2 11
0 2 11
0 2 11
0 2 11
0 2 11
0 2 11
0 2 11
0 2 11
0 2 11
0 2 11
0 2 11
0 2 11
0 2 11
0 2 11
0 2 11
0 2 11
0 2 11
0 2 11
0 2 11
0 2 11
0 2 11
0 2 11
0 2 11
0 2 11
0 2 11
0 2 11
0 2 11
0 2 11
0 2 11
0 2 11
0 2 11
0 2 11
0 2 11
0 2 11
0 2 11
0 2 11
0 2 11
0 2 11
0 2 11
0 2 11
0 2 11
0 2 11
0 2 11
0 2 11
0 2 11
0 2 11
0 2 11
0 2 11
0 2 11
0 2 11
0 2 11
0 2 11
0 2 11
0 2 11
0 2 11
0 2 11
0 2 11
0 2 11
0 2 11
0 2 11
0 2 11
0 2 11
0 2 11
0 2 11
0 2 11
0 2 11
0 2 11
0 2 11
0 2 11
0 2 11
0 2 11
0 2 11
0 2 11
0 2 11
0 2 11
0 2 11
0 2 11
0 2 11
0 2 11
0 2 11
0 2 11
0 2 11
0 2 11
0 2 11
0 2 11
0 2 11
0 2 11
0 2 11
0 2 11
0 2 11
0 2 11
0 2 11
0 2 11
0 2 11
0 2 11
0 2 11
0 2 11
0 2 11
0 2 11
0 2 11
0 2 11
0 2 11
0 2 11
0 2 11
0 2 11
0 2 11
0 2 11
0 2 11
0 2 11
0 2 11
0 2 11
0 2 11
0 2 11
0 2 11
0 2 11
0 2 11
0 2 11
0 2 11
0 2 11
0 2 11
0 2 11
0 2 11
0 2 11
0 2 11
0 2 11
0 2 11
0 2 11
0 2 11
0 2 11
0 2 11
0 2 11
0 2 11
0 2 11
0 2 11
0 2 11
0 2 11
0 2 11
0 2 11
0 2 11
0 2 11
0 2 11
0 2 11
0 2 11
0 2 11
0 2 11
0 2 11
0 2 11
0 2 11
0 2 11
0 2 11
0 2 11
0 2 11
0 2 11
0 2 11
0 2 11
0 2 11
0 2 11
0 2 11
0 2 11
0 2 11
0 2 11
0 2 11
0 2 11
0 2 11
0 2 11
0 2 11
0 2 11
0 2 11
0 2 11
0 2 11
0 2 11
0 2 11
0 2 11
0 2 11
0 2 11
0 2 11
0 2 11
0 2 11
0 2 11
0 2 11
0 2 11
0 2 11
0 2 11
0 2 11
0 2 11
0 2 11
0 2 11
0 2 11
0 2 11
0 2 11
0 2 11
0 2 11
0 2 11
0 2 11
0 2 11
0 2 11
0 2 11
0 2 11
0 2 11
0 2 11
0 2 11
0 2 11
0 2 11
0 2 11
0 2 11
0 2 11
0 2 11
0 2 11
0 2 11
0 2 11
0 2 11
0 2 11
0 2 11
0 2 11
0 2 11
0 2 11
0 2 11
0 2 11
0 2 11
0 2 11
0 2 11
0 2 11
0 2 11
0 2 11
0 2 11
0 2 11
0 2 11
0 2 11
0 2 11
0 2 11
0 2 11
0 2 11
0 2 11
0 2 11
0 2 11
0 2 11
0 2 11
0 2 11
0 2 11
0 2 11
0 2 11
0 2 11
0 2 11
0 2 11
0 2 11
0 2 11
0 2 11
0 2 11
0 2 11
0 2 11
0 2 11
0 2 11
0 2 11
0 2 11
0 2 11
0 2 11
0 2 11
0 2 11
0 2 11
0 2 11
0 2 11
0 2 11
0 2 11
0 2 11
0 2 11
0 2 11
0 2 11
0 2 11
0 2 11
0 2 11
0 2 11
0 2 11
0 2 11
0 2 11
0 2 11
0 2 11
0 2 11
0 2 11
0 2 11
0 2 11
0 2 11
0 2 11
0 2 11
0 2 11
0 2 11
0 2 11
0 2 11
0 2 11
0 2 11
0 2 11
0 2 11
0 2 11
0 2 11
0 2 11
0 2 11
0 2 11
0 2 11
0 2 11
0 2 11
0 2 11
0 2 11
0 2 11
0 2 11
0 2 11
0 2 11
0 2 11
0 2 11
0 2 11
0 2 11
0 2 11
0 2 11
0 2 11
0 2 11
0 2 11
0 2 11
0 2 11
0 2 11
0 2 11
0 2 11
0 2 11
0 2 11
0 2 11
0 2 11
0 2 11
0 2 11
0 2 11
0 2 11
0 2 11
0 2 11
0 2 11
0 2 11
0 2 11
0 2 11
0 2 11
0 2 11
0 2 11
0 2 11
0 2 11
0 2 11
0 2 11
0 2 11
0 2 11
0 2 11
0 2 11
0 2 11
0 2 11
0 2 11
0 2 11
0 2 11
0 2 11
0 2 11
0 2 11
0 2 11
0 2 11
0 2 11
0 2 11
0 2 11
0 2 11
0 2 11
0 2 11
0 2 11
0 2 11
0 2 11
0 2 11
0 2 11
0 2 11
0 2 11
0 2 11
0 2 11
0 2 11
0 2 11
0 2 11
0 2 11
0 2 11
0 2 11
0 2 11
0 2 11
0 2 11
0 2 11
0 2 11
0 2 11
0 2 11
0 2 11
0 2 11
0 2 11
0 2 11
0 2 11
0 2 11
0 2 11
0 2 11
0 2 11
0 2 11
0 2 11
0 2 11
0 2 11
0 2 11
0 2 11
0 2 11
0 2 11
0 2 11
0 2 11
0 2 11
0 2 11
0 2 11
0 2 11
0 2 11
0 2 11
0 2 11
0 2 11
0 2 11
0 2 11
0 2 11
0 2 11
0 2 11
0 2 11
0 2 11
0 2 11
0 2 11
0 2 11
0 2 11
0 2 11
0 2 11
0 2 11
0 2 11
0 2 11
0 2 11
0 2 11
0 2 11
0 2 11
0 2 11
0 2 11
0 2 11
0 2 11
0 2 11
0 2 11
0 2 11
0 2 11
0 2 11
0 2 11
0 2 11
0 2 11
0 2 11
0 2 11
0 2 11
0 2 11
0 2 11
0 2 11
0 2 11
0 2 11
0 2 11
0 2 11
0 2 11
0 2 11
0 2 11
0 2 11
0 2 11
0 2 11
0 2 11
0 2 11
0 2 11
0 2 11
0 2 11
0 2 11
0 2 11
0 2 11
0 2 11
0 2 11
0 2 11
0 2 11
0 2 11
0 2 11
0 2 11
0 2 11
0 2 11
0 2 11
0 2 11
0 2 11
0 2 11
0 2 11
0 2 11
0 2 11
0 2 11
0 2 11
0 2 11
0 2 11
0 2 11
0 2 11
0 2 11
0 2 11
0 2 11
0 2 11
0 2 11
0 2 11
0 2 11
0 2 11
0 2 11
0 2 11
0 2 11
0 2 11
0 2 11
0 2 11
0 2 11
0 2 11
0 2 11
0 2 11
0 2 11
0 2 11
0 2 11
0 2 11
0 2 11
0 2 11
0 2 11
0 2 11
0 2 11
0 2 11
0 2 11
0 2 11
0 2 11
0 2 11
0 2 11
0 2 11
0 2 11
0 2 11
0 2 11
0 2 11
0 2 11
0 2 11
0 2 11
0 2 11
0 2 11
0 2 11
0 2 11
0 2 11
0 2 11
0 2 11
0 2 11
0 2 11
0 2 11
0 2 11
0 2 11
0 2 11
0 2 11
0 2 11
0 2 11
0 2 11
0 2 11
0 2 11
0 2 11
0 2 11
0 2 11
0 2 11
0 2 11
0 2 11
0 2 11
0 2 11
0 2 11
0 2 11
0 2 11
0 2 11
0 2 11
0 2 11
0 2 11
0 2 11
0 2 11
0 2 11
0 2 11
0 2 11
0 2 11
0 2 11
0 2 11
0 2 11
0 2 11
0 2 11
0 2 11
0 2 11
0 2 11
0 2 11
0 2 11
0 2 11
0 2 11
0 2 11
0 2 11
0 2 11
0 2 11
0 2 11
0 2 11
0 2 11
0 2 11
0 2 11
0 2 11
0 2 11
0 2 11
0 2 11
0 2 11
0 2 11
0 2 11
0 2 11
0 2 11
0 2 11
0 2 11
0 2 11
0 2 11
0 2 11
0 2 11
0 2 11
0 2 11
0 2 11
0 2 11
0 2 11
0 2 11
0 2 11
0 2 11
0 2 11
0 2 11
0 2 11
0 2 11
0 2 11
0 2 11
0 2 11
0 2 11
0 2 11
0 2 11
0 2 11
0 2 11
0 2 11
0 2 11
0 2 11
0 2 11
0 2 11
0 2 11
0 2 11
0 2 11
0 2 11
0 2 11
0 2 11
0 2 11
0 2 11
0 2 11
0 2 11
0 2 11
0 2 11
0 2 11
0 2 11
0 2 11
0 2 11
0 2 11
0 2 11
0 2 11
0 2 11
0 2 11
0 2 11
0 2 11
0 2 11
0 2 11
0 2 11
0 2 11
0 2 11
0 2 11
0 2 11
0 2 11
0 2 11
0 2 11
0 2 11
0 2 11
0 2 11
0 2 11
0 2 11
0 2 11
0 2 11
0 2 11
0 2 11
0 2 11
0 2 11
0 2 11
0 2 11
0 2 11
0 2 11
0 2 11
0 2 11
0 2 11
0 2 11
0 2 11
0 2 11
0 2 11
0 2 11
0 2 11
0 2 11
0 2 11
0 2 11
0 2 11
0 2 11
0 2 11
0 2 11
0 2 11
0 2 11
0 2 11
0 2 11
0 2 11
0 2 11
0 2 11
0 2 11
0 2 11
0 2 11
0 2 11
0 2 11
0 2 11
0 2 11
0 2 11
0 2 11
0 2 11
0 2 11
0 2 11
0 2 11
0 2 11
0 2 11
0 2 11
0 2 11
0 2 11
0 2 11
0 2 11
0 2 11
0 2 11
0 2 11
0 2 11
0 2 11
0 2 11
0 2 11
0 2 11
0 2 11
0 2 11
0 2 11
0 2 11
0 2 11
0 2 11
0 2 11
0 2 11
0 2 11
0 2 11
0 2 11
0 2 11
0 2 11
0 2 11
0 2 11
0 2 11
0 2 11
0 2 11
0 2 11
0 2 11
0 2 11
0 2 11
0 2 11
0 2 11
0 2 11
0 2 11
0 2 11
0 2 11
0 2 11
0 2 11
0 2 11
0 2 11
0 2 11
0 2 11
0 2 11
0 2 11
0 2 11
0 2 11
0 2 11
0 2 11
0 2 11
0 2 11
0 2 11
0 2 11
0 2 11
0 2 11
0 2 11
0 2 11
0 2 11
0 2 11
0 2 11
0 2 11
0 2 11
0 2 11
0 2 11
0 2 11
0 2 11
0 2 11
0 2 11
0 2 11
0 2 11
0 2 11
0 2 11
0 2 11
0 2 11
0 2 11
0 2 11
0 2 11
0 2 11
0 2 11
0 2 11
0 2 11
0 2 11
0 2 11
0 2 11
0 2 11
0 2 11
0 2 11
0 2 11
0 2 11
0 2 11
0 2 11
0 2 11
0 2 11
0 2 11
0 2 11
0 2 11
0 2 11
0 2 11
0 2 11
0 2 11
0 2 11
0 2 11
0 2 11
0 2 11
0 2 11
0 2 11
0 2 11
0 2 11
0 2 11
0 2 11
0 2 11
0 2 11
0 2 11
0 2 11
0 2 11
0 2 11
0 2 11
0 2 11
0 2 11
0 2 11
0 2 11
0 2 11
0 2 11
0 2 11
0 2 11
0 2 11
0 2 11
0 2 11
0 2 11
0 2 11
0 2 11
0 2 11
0 2 11
0 2 11
0 2 11
0 2 11
0 2 11
0 2 11
0 2 11
0 2 11
0 2 11
0 2 11
0 2 11
0 2 11
0 2 11
0 2 11
0 2 11
0 2 11
0 2 11
0 2 11
0 2 11
0 2 11
0 2 11
0 2 11
0 2 11
0 2 11
0 2 11
0 2 11
0 2 11
0 2 11
0 2 11
0 2 11
0 2 11
0 2 11
0 2 11
0 2 11
0 2 11
0 2 11
0 2 11
0 2 11
0 2 11
0 2 11
0 2 11
0 2 11
0 2 11
0 2 11
0 2 11
0 2 11
0 2 11
0 2 11
0 2 11
0 2 11
0 2 11
0 2 11
0 2 11
0 2 11
0 2 11
0 2 11
0 2 11
0 2 11
0 2 11
0 2 11
0 2 11
0 2 11
0 2 11
0 2 11
0 2 11
0 2 11
0 2 11
0 2 11
0 2 11
0 2 11
0 2 11
0 2 11
0 2 11
0 2 11
0 2 11
0 2 11
0 2 11
0 2 11
0 2 11
0 2 11
0 2 11
0 2 11
0 2 11
0 2 11
0 2 11
0 2 11
0 2 11
0 2 11
0 2 11
0 2 11
0 2 11
0 2 11
0 2 11
0 2 11
0 2 11
0 2 11
0 2 11
0 2 11
0 2 11
0 2 11
0 2 11
0 2 11
0 2 11
0 2 11
0 2 11
0 2 11
0 2 11
0 2 11
0 2 11
0 2 11
0 2 11
0 2 11
0 2 11
0 2 11
0 2 11
0 2 11
0 2 11
0 2 11
0 2 11
0 2 11
0 2 11
0 2 11
0 2 11
0 2 11
0 2 11
0 2 11
0 2 11
0 2 11
0 2 11
0 2 11
0 2 11
0 2 11
0 2 11
0 2 11
0 2 11
0 2 11
0 2 11
0 2 11
0 2 11
0 2 11
0 2 11
0 2 11
0 2 11
0 2 11
0 2 11
0 2 11
0 2 11
0 2 11
0 2 11
0 2 11
0 2 11
0 2 11
0 2 11
0 2 11
0 2 11
0 2 11
0 2 11
0 2 11
0 2 11
0 2 11
0 2 11
0 2 11
0 2 11
0 2 11
0 2 11
0 2 11
0 2 11
0 2 11
0 2 11
0 2 11
0 2 11
0 2 11
0 2 11
0 2 11
0 2 11
0 2 11
0 2 11
0 2 11
0 2 11
0 2 11
0 2 11
0 2 11
0 2 11
0 2 11
0 2 11
0 2 11
0 2 11
0 2 11
0 2 11
0 2 11
0 2 11
0 2 11
0 2 11
0 2 11
0 2 11
0 2 11
0 2 11
0 2 11
0 2 11
0 2 11
0 2 11
0 2 11
0 2 11
0 2 11
0 2 11
0 2 11
0 2 11
0 2 11
0 2 11
0 2 11
0 2 11
0 2 11
0 2 11
0 2 11
0 2 11
0 2 11
0 2 11
0 2 11
0 2 11
0 2 11
0 2 11
0 2 11
0 2 11
0 2 11
0 2 11
0 2 11
0 2 11
0 2 11
0 2 11
0 2 11
0 2 11
0 2 11
0 2 11
0 2 11
0 2 11
0 2 11
0 2 11
0 2 11
0 2 11
0 2 11
0 2 11
0 2 11
0 2 11
0 2 11
0 2 11
0 2 11
0 2 11
0 2 11
0 2 11
0 2 11
0 2 11
0 2 11
0 2 11
0 2 11
0 2 11
0 2 11
0 2 11
0 2 11
0 2 11
0 2 11
0 2 11
0 2 11
0 2 11
0 2 11
0 2 11
0 2 11
0 2 11
0 2 11
0 2 11
0 2 11
0 2 11
0 2 11
0 2 11
0 2 11
0 2 11
0 2 11
0 2 11
0 2 11
0 2 11
0 2 11
0 2 11
0 2 11
0 2 11
0 2 11
0 2 11
0 2 11
0 2 11
0 2 11
0 2 11
0 2 11
0 2 11
0 2 11
0 2 11
0 2 11
0 2 11
0 2 11
0 2 11
0 2 11
0 2 11
0 2 11
0 2 11
0 2 11
0 2 11
0 2 11
0 2 11
0 2 11
0 2 11
0 2 11
0 2 11
0 2 11
0 2 11
0 2 11
0 2 11
0 2 11
0 2 11
0 2 11
0 2 11
0 2 11
0 2 11
0 2 11
0 2 11
0 2 11
0 2 11
0 2 11
0 2 11
0 2 11
0 2 11
0 2 11
0 2 11
0 2 11
0 2 11
0 2 11
0 2 11
0 2 11
0 2 11
0 2 11
0 2 11
0 2 11
0 2 11
0 2 11
0 2 11
0 2 11
0 2 11
0 2 11
0 2 11
0 2 11
0 2 11
0 2 11
0 2 11
0 2 11
0 2 11
0 2 11
0 2 11
0 2 11
0 2 11
0 2 11
0 2 11
0 2 11
0 2 11
0 2 11
0 2 11
0 2 11
0 2 11
0 2 11
0 2 11
0 2 11
0 2 11
0 2 11
0 2 11
0 2 11
0 2 11
0 2 11
0 2 11
0 2 11
0 2 11
0 2 11
0 2 11
0 2 11
0 2 11
0 2 11
0 2 11
0 2 11
0 2 11
0 2 11
0 2 11
0 2 11
0 2 11
0 2 11
0 2 11
0 2 11
0 2 11
0 2 11
0 2 11
0 2 11
0 2 11
0 2 11
0 2 11
0 2 11
0 2 11
0 2 11
0 2 11
0 2 11
0 2 11
0 2 11
0 2 11
0 2 11
0 2 11
0 2 11
0 2 11
0 2 11
0 2 11
0 2 11
0 2 11
0 2 11
0 2 11
0 2 11
0 2 11
0 2 11
0 2 11
0 2 11
0 2 11
0 2 11
0 2 11
0 2 11
0 2 11
0 2 11
0 2 11
0 2 11
0 2 11
0 2 11
0 2 11
0 2 11
0 2 11
0 2 11
0 2 11
0 2 11
0 2 11
0 2 11
0 2 11
0 2 11
0 2 11
0 2 11
0 2 11
0 2 11
0 2 11
0 2 11
0 2 11
0 2 11
0 2 11
0 2 11
0 2 11
0 2 11
0 2 11
0 2 11
0 2 11
0 2 11
0 2 11
0 2 11
0 2 11
0 2 11
0 2 11
0 2 11
0 2 11
0 2 11
0 2 11
0 2 11
0 2 11
0 2 11
0 2 11
0 2 11
0 2 11
0 2 11
0 2 11
0 2 11
0 2 11
0 2 11
0 2 11
0 2 11
0 2 11
0 2 11
0 2 11
0 2 11
0 2 11
0 2 11
0 2 11
0 2 11
0 2 11
0 2 11
0 2 11
0 2 11
0 2 11
0 2 11
0 2 11
0 2 11
0 2 11
0 2 11
0 2 11
0 2 11
0 2 11
0 2 11
0 2 11
0 2 11
0 2 11
0 2 11
0 2 11
0 2 11
0 2 11
0 2 11
0 2 11
0 2 11
0 2 11
0 2 11
0 2 11
0 2 11
0 2 11
0 2 11
0 2 11
0 2 11
0 2 11
0 2 11
0 2 11
0 2 11
0 2 11
0 2 11
0 2 11
0 2 11
0 2 11
0 2 11
0 2 11
0 2 11
0 2 11
0 2 11
0 2 11
0 2 11
0 2 11
0 2 11
0 2 11
0 2 11
0 2 11
0 2 11
0 2 11
0 2 11
0 2 11
0 2 11
0 2 11
0 2 11
0 2 11
0 2 11
0 2 11
0 2 11
0 2 11
0 2 11
0 2 11
0 2 11
0 2 11
0 2 11
0 2 11
0 2 11
0 2 11
0 2 11
0 2 11
0 2 11
0 2 11
0 2 11
0 2 11
0 2 11
0 2 11
0 2 11
0 2 11
0 2 11
0 2 11
0 2 11
0 2 11
0 2 11
0 2 11
0 2 11
0 2 11
0 2 11
0 2 11
0 2 11
0 2 11
0 2 11
0 2 11
0 2 11
0 2 11
0 2 11
0 2 11
0 2 11
0 2 11
0 2 11
0 2 11
0 2 11
0 2 11
0 2 11
0 2 11
0 2 11
0 2 11
0 2 11
0 2 11
0 2 11
0 2 11
0 2 11
0 2 11
0 2 11
0 2 11
0 2 11
0 2 11
0 2 11
0 2 11
0 2 11
0 2 11
0 2 11
0 2 11
0 2 11
0 2 11
0 2 11
0 2 11
0 2 11
0 2 11
0 2 11
0 2 11
0 2 11
0 2 11
0 2 11
0 2 11
0 2 11
0 2 11
0 2 11
0 2 11
0 2 11
0 2 11
0 2 11
0 2 11
0 2 11
0 2 11
0 2 11
0 2 11
0 2 11
0 2 11
0 2 11
0 2 11
0 2 11
0 2 11
0 2 11
0 2 11
0 2 11
0 2 11
0 2 11
0 2 11
0 2 11
0 2 11
0 2 11
0 2 11
0 2 11
0 2 11
0 2 11
0 2 11
0 2 11
0 2 11
0 2 11
0 2 11
0 2 11
0 2 11
0 2 11
0 2 11
0 2 11
0 2 11
0 2 11
0 2 11
0 2 11
0 2 11
0 2 11
0 2 11
0 2 11
0 2 11
0 2 11
0 2 11
0 2 11
0 2 11
0 2 11
0 2 11
0 2 11
0 2 11
0 2 11
0 2 11
0 2 11
0 2 11
0 2 11
0 2 11
0 2 11
0 2 11
0 2 11
0 2 11
0 2 11
0 2 11
0 2 11
0 2 11
0 2 11
0 2 11
0 2 11
0 2 11
0 2 11
0 2 11
0 2 11
0 2 11
0 2 11
0 2 11
0 2 11
0 2 11
0 2 11
0 2 11
0 2 11
0 2 11
0 2 11
0 2 11
0 2 11
0 2 11
0 2 11
0 2 11
0 2 11
0 2 11
0 2 11
0 2 11
0 2 11
0 2 11
0 2 11
0 2 11
0 2 11
0 2 11
0 2 11
0 2 11
0 2 11
0 2 11
0 2 11
0 2 11
0 2 11
0 2 11
0 2 11
0 2 11
0 2 11
0 2 11
0 2 11
0 2 11
0 2 11
0 2 11
0 2 11
0 2 11
0 2 11
0 2 11
0 2 11
0 2 11
0 2 11
0 2 11
0 2 11
0 2 11
0 2 11
0 2 11
0 2 11
0 2 11
0 2 11
0 2 11
0 2 11
0 2 11
0 2 11
0 2 11
0 2 11
0 2 11
0 2 11
0 2 11
0 2 11
0 2 11
0 2 11
0 2 11
0 2 11
0 2 11
0 2 11
0 2 11
0 2 11
0 2 11
0 2 11
0 2 11
0 2 11
0 2 11
0 2 11
0 2 11
0 2 11
0 2 11
0 2 11
0 2 11
0 2 11
0 2 11
0 2 11
0 2 11
0 2 11
0 2 11
0 2 11
0 2 11
0 2 11
0 2 11
0 2 11
0 2 11
0 2 11
0 2 11
0 2 11
0 2 11
0 2 11
0 2 11
0 2 11
0 2 11
0 2 11
0 2 11
0 2 11
0 2 11
0 2 11
0 2 11
0 2 11
0 2 11
0 2 11
0 2 11
0 2 11
0 2 11
0 2 11
0 2 11
0 2 11
0 2 11
0 2 11
0 2 11
0 2 11
0 2 11
0 2 11
0 2 11
0 2 11
0 2 11
0 2 11
0 2 11
0 2 11
0 2 11
0 2 11
0 2 11
0 2 11
0 2 11
0 2 11
0 2 11
0 2 11
0 2 11
0 2 11
0 2 11
0 2 11
0 2 11
0 2 11
0 2 11
0 2 11
0 2 11
0 2 11
0 2 11
0 2 11
0 2 11
0 2 11
0 2 11
0 2 11
0 2 11
0 2 11
0 2 11
0 2 11
0 2 11
0 2 11
0 2 11
0 2 11
0 2 11
0 2 11
0 2 11
0 2 11
0 2 11
0 2 11
0 2 11
0 2 11
0 2 11
0 2 11
0 2 11
0 2 11
0 2 11
0 2 11
0 2 11
0 2 11
0 2 11
0 2 11
0 2 11
0 2 11
0 2 11
0 2 11
0 2 11
0 2 11
0 2 11
0 2 11
0 2 11
0 2 11
0 2 11
0 2 11
0 2 11
0 2 11
0 2 11
0 2 11
0 2 11
0 2 11
0 2 11
0 2 11
0 2 11
0 2 11
0 2 11
0 2 11
0 2 11
0 2 11
0 2 11
0 2 11
0 2 11
0 2 11
0 2 11
0 2 11
0 2 11
0 2 11
0 2 11
0 2 11
0 2 11
0 2 11
0 2 11
0 2 11
0 2 11
0 2 11
0 2 11
0 2 11
0 2 11
0 2 11
0 2 11
0 2 11
0 2 11
0 2 11
0 2 11
0 2 11
0 2 11
0 2 11
0 2 11
0 2 11
0 2 11
0 2 11
0 2 11
0 2 11
0 2 11
0 2 11
0 2 11
0 2 11
0 2 11
0 2 11
0 2 11
0 2 11
0 2 11
0 2 11
0 2 11
0 2 11
0 2 11
0 2 11
0 2 11
0 2 11
0 2 11
0 2 11
0 2 11
0 2 11
0 2 11
0 2 11
0 2 11
0 2 11
0 2 11
0 2 11
0 2 11
0 2 11
0 2 11
0 2 11
0 2 11
0 2 11
0 2 11
0 2 11
0 2 11
0 2 11
0 2 11
0 2 11
0 2 11
0 2 11
0 2 11
0 2 11
0 2 11
0 2 11
0 2 11
0 2 11
0 2 11
0 2 11
0 2 11
0 2 11
0 2 11
0 2 11
0 2 11
0 2 11
0 2 11
0 2 11
0 2 11
0 2 11
0 2 11
0 2 11
0 2 11
0 2 11
0 2 11
0 2 11
0 2 11
0 2 11
0 2 11
0 2 11
0 2 11
0 2 11
0 2 11
0 2 11
0 2 11
0 2 11
0 2 11
0 2 11
0 2 11
0 2 11
0 2 11
0 2 11
0 2 11
0 2 11
0 2 11
0 2 11
0 2 11
0 2 11
0 2 11
0 2 11
0 2 11
0 2 11
0 2 11
0 2 11
0 2 11
0 2 11
0 2 11
0 2 11
0 2 11
0 2 11
0 2 11
0 2 11
0 2 11
0 2 11
0 2 11
0 2 11
0 2 11
0 2 11
0 2 11
0 2 11
0 2 11
0 2 11
0 2 11
0 2 11
0 2 11
0 2 11
0 2 11
0 2 11
0 2 11
0 2 11
0 2 11
0 2 11
0 2 11
0 2 11
0 2 11
0 2 11
0 2 11
0 2 11
0 2 11
0 2 11
0 2 11
0 2 11
0 2 11
0 2 11
0 2 11
0 2 11
0 2 11
0 2 11
0 2 11
0 2 11
0 2 11
0 2 11
0 2 11
0 2 11
0 2 11
0 2 11
0 2 11
0 2 11
0 2 11
0 2 11
0 2 11
0 2 11
0 2 11
0 2 11
0 2 11
0 2 11
0 2 11
0 2 11
0 2 11
0 2 11
0 2 11
0 2 11
0 2 11
0 2 11
0 2 11
0 2 11
0 2 11
0 2 11
0 2 11
0 2 11
0 2 11
0 2 11
0 2 11
0 2 11
0 2 11
0 2 11
0 2 11
0 2 11
0 2 11
0 2 11
0 2 11
0 2 11
0 2 11
0 2 11
0 2 11
0 2 11
0 2 11
0 2 11
0 2 11
0 2 11
0 2 11
0 2 11
0 2 11
0 2 11
0 2 11
0 2 11
0 2 11
0 2 11
0 2 11
0 2 11
0 2 11
0 2 11
0 2 11
0 2 11
0 2 11
0 2 11
0 2 11
0 2 11
0 2 11
0 2 11
0 2 11
0 2 11
0 2 11
0 2 11
0 2 11
0 2 11
0 2 11
0 2 11
0 2 11
0 2 11
0 2 11
0 2 11
0 2 11
0 2 11
0 2 11
0 2 11
0 2 11
0 2 11
0 2 11
0 2 11
0 2 11
0 2 11
0 2 11
0 2 11
0 2 11
0 2 11
0 2 11
0 2 11
0 2 11
0 2 11
0 2 11
0 2 11
0 2 11
0 2 11
0 2 11
0 2 11
0 2 11
0 2 11
0 2 11
0 2 11
0 2 11
0 2 11
0 2 11
0 2 11
0 2 11
0 2 11
0 2 11
0 2 11
0 2 11
0 2 11
0 2 11
0 2 11
0 2 11
0 2 11
0 2 11
0 2 11
0 2 11
0 2 11
0 2 11
0 2 11
0 2 11
0 2 11
0 2 11
0 2 11
0 2 11
0 2 11
0 2 11
0 2 11
0 2 11
0 2 11
0 2 11
0 2 11
0 2 11
0 2 11
0 2 11
0 2 11
0 2 11
0 2 11
0 2 11
0 2 11
0 2 11
0 2 11
0 2 11
0 2 11
0 2 11
0 2 11
0 2 11
0 2 11
0 2 11
0 2 11
0 2 11
0 2 11
0 2 11
0 2 11
0 2 11
0 2 11
0 2 11
0 2 11
0 2 11
0 2 11
0 2 11
0 2 11
0 2 11
0 2 11
0 2 11
0 2 11
0 2 11
0 2 11
0 2 11
0 2 11
0 2 11
0 2 11
0 2 11
0 2 11
0 2 11
0 2 11
0 2 11
0 2 11
0 2 11
0 2 11
0 2 11
0 2 11
0 2 11
0 2 11
0 2 11
0 2 11
0 2 11
0 2 11
0 2 11
0 2 11
0 2 11
0 2 11
0 2 11
0 2 11
0 2 11
0 2 11
0 2 11
0 2 11
0 2 11
0 2 11
0 2 11
0 2 11
0 2 11
0 2 11
0 2 11
0 2 11
0 2 11
0 2 11
0 2 11
0 2 11
0 2 11
0 2 11
0 2 11
0 2 11
0 2 11
0 2 11
0 2 11
0 2 11
0 2 11
0 2 11
0 2 11
0 2 11
0 2 11
0 2 11
0 2 11
0 2 11
0 2 11
0 2 11
0 2 11
0 2 11
0 2 11
0 2 11
0 2 11
0 2 11
0 2 11
0 2 11
0 2 11
0 2 11
0 2 11
0 2 11
0 2 11
0 2 11
0 2 11
0 2 11
0 2 11
0 2 11
0 2 11
0 2 11
0 2 11
0 2 11
0 2 11
0 2 11
0 2 11
0 2 11
0 2 11
0 2 11
0 2 11
0 2 11
0 2 11
0 2 11
0 2 11
0 2 11
0 2 11
0 2 11
0 2 11
0 2 11
0 2 11
0 2 11
0 2 11
0 2 11
0 2 11
0 2 11
0 2 11
0 2 11
0 2 11
0 2 11
0 2 11
0 2 11
0 2 11
0 2 11
0 2 11
0 2 11
0 2 11
0 2 11
0 2 11
0 2 11
0 2 11
0 2 11
0 2 11
0 2 11
0 2 11
0 2 11
0 2 11
0 2 11
0 2 11
0 2 11
0 2 11
0 2 11
0 2 11
0 2 11
0 2 11
0 2 11
0 2 11
0 2 11
0 2 11
0 2 11
0 2 11
0 2 11
0 2 11
0 2 11
0 2 11
0 2 11
0 2 11
0 2 11
0 2 11
0 2 11
0 2 11
0 2 11
0 2 11
0 2 11
0 2 11
0 2 11
0 2 11
0 2 11
0 2 11
0 2 11
0 2 11
0 2 11
0 2 11
0 2 11
0 2 11
0 2 11
0 2 11
0 2 11
0 2 11
0 2 11
0 2 11
0 2 11
0 2 11
0 2 11
0 2 11
0 2 11
0 2 11
0 2 11
0 2 11
0 2 11
0 2 11
0 2 11
0 2 11
0 2 11
0 2 11
0 2 11
0 2 11
0 2 11
0 2 11
0 2 11
0 2 11
0 2 11
0 2 11
0 2 11
0 2 11
0 2 11
0 2 11
0 2 11
0 2 11
0 2 11
0 2 11
0 2 11
0 2 11
0 2 11
0 2 11
0 2 11
0 2 11
0 2 11
0 2 11
0 2 11
0 2 11
0 2 11
0 2 11
0 2 11
0 2 11
0 2 11
0 2 11
0 2 11
0 2 11
0 2 11
0 2 11
0 2 11
0 2 11
0 2 11
0 2 11
0 2 11
0 2 11
0 2 11
0 2 11
0 2 11
0 2 11
0 2 11
0 2 11
0 2 11
0 2 11
0 2 11
0 2 11
0 2 11
0 2 11
0 2 11
0 2 11
0 2 11
0 2 11
0 2 11
0 2 11
0 2 11
0 2 11
0 2 11
0 2 11
0 2 11
0 2 11
0 2 11
0 2 11
0 2 11
0 2 11
0 2 11
0 2 11
0 2 11
0 2 11
0 2 11
0 2 11
0 2 11
0 2 11
0 2 11
0 2 11
0 2 11
0 2 11
0 2 11
0 2 11
0 2 11
0 2 11
0 2 11
0 2 11
0 2 11
0 2 11
0 2 11
0 2 11
0 2 11
0 2 11
0 2 11
0 2 11
0 2 11
0 2 11
0 2 11
0 2 11
0 2 11
0 2 11
0 2 11
0 2 11
0 2 11
0 2 11
0 2 11
0 2 11
0 2 11
0 2 11
0 2 11
0 2 11
0 2 11
0 2 11
0 2 11
0 2 11
0 2 11
0 2 11
0 2 11
0 2 11
0 2 11
0 2 11
0 2 11
0 2 11
0 2 11
0 2 11
0 2 11
0 2 11
0 2 11
0 2 11
0 2 11
0 2 11
0 2 11
0 2 11
0 2 11
0 2 11
0 2 11
0 2 11
0 2 11
0 2 11
0 2 11
0 2 11
0 2 11
0 2 11
0 2 11
0 2 11
0 2 11
0 2 11
0 2 11
0 2 11
0 2 11
0 2 11
0 2 11
0 2 11
0 2 11
0 2 11
0 2 11
0 2 11
0 2 11
0 2 11
0 2 11
0 2 11
0 2 11
0 2 11
0 2 11
0 2 11
0 2 11
0 2 11
0 2 11
0 2 11
0 2 11
0 2 11
0 2 11
0 2 11
0 2 11
0 2 11
0 2 11
0 2 11
0 2 11
0 2 11
0 2 11
0 2 11
0 2 11
0 2 11
0 2 11
0 2 11
0 2 11
0 2 11
0 2 11
0 2 11
0 2 11
0 2 11
0 2 11
0 2 11
0 2 11
0 2 11
0 2 11
0 2 11
0 2 11
0 2 11
0 2 11
0 2 11
0 2 11
0 2 11
0 2 11
0 2 11
0 2 11
0 2 11
0 2 11
0 2 11
0 2 11
0 2 11
0 2 11
0 2 11
0 2 11
0 2 11
0 2 11
0 2 11
0 2 11
0 2 11
0 2 11
0 2 11
0 2 11
0 2 11
0 2 11
0 2 11
0 2 11
0 2 11
0 2 11
0 2 11
0 2 11
0 2 11
0 2 11
0 2 11
0 2 11
0 2 11
0 2 11
0 2 11
0 2 11
0 2 11
0 2 11
0 2 11
0 2 11
0 2 11
0 2 11
0 2 11
0 2 11
0 2 11
0 2 11
0 2 11
0 2 11
0 2 11
0 2 11
0 2 11
0 2 11
0 2 11
0 2 11
0 2 11
0 2 11
0 2 11
0 2 11
0 2 11
0 2 11
0 2 11
0 2 11
0 2 11
0 2 11
0 2 11
0 2 11
0 2 11
0 2 11
0 2 11
0 2 11
0 2 11
0 2 11
0 2 11
0 2 11
0 2 11
0 2 11
0 2 11
0 2 11
0 2 11
0 2 11
0 2 11
0 2 11
0 2 11
0 2 11
0 2 11
0 2 11
0 2 11
0 2 11
0 2 11
0 2 11
0 2 11
0 2 11
0 2 11
0 2 11
0 2 11
0 2 11
0 2 11
0 2 11
0 2 11
0 2 11
0 2 11
0 2 11
0 2 11
0 2 11
0 2 11
0 2 11
0 2 11
0 2 11
0 2 11
0 2 11
0 2 11
0 2 11
0 2 11
0 2 11
0 2 11
0 2 11
0 2 11
0 2 11
0 2 11
0 2 11
0 2 11
0 2 11
0 2 11
0 2 11
0 2 11
0 2 11
0 2 11
0 2 11
0 2 11
0 2 11
0 2 11
0 2 11
0 2 11
0 2 11
0 2 11
0 2 11
0 2 11
0 2 11
0 2 11
0 2 11
0 2 11
0 2 11
0 2 11
0 2 11
0 2 11
0 2 11
0 2 11
0 2 11
0 2 11
0 2 11
0 2 11
0 2 11
0 2 11
0 2 11
0 2 11
0 2 11
0 2 11
0 2 11
0 2 11
0 2 11
0 2 11
0 2 11
0 2 11
0 2 11
0 2 11
0 2 11
0 2 11
0 2 11
0 2 11
0 2 11
0 2 11
0 2 11
0 2 11
0 2 11
0 2 11
0 2 11
0 2 11
0 2 11
0 2 11
0 2 11
0 2 11
0 2 11
0 2 11
0 2 11
0 2 11
0 2 11
0 2 11
0 2 11
0 2 11
0 2 11
0 2 11
0 2 11
0 2 11
0 2 11
0 2 11
0 2 11
0 2 11
0 2 11
0 2 11
0 2 11
0 2 11
0 2 11
0 2 11
0 2 11
0 2 11
0 2 11
0 2 11
0 2 11
0 2 11
0 2 11
0 2 11
0 2 11
0 2 11
0 2 11
0 2 11
0 2 11
0 2 11
0 2 11
0 2 11
0 2 11
0 2 11
0 2 11
0 2 11
0 2 11
0 2 11
0 2 11
0 2 11
0 2 11
0 2 11
0 2 11
0 2 11
0 2 11
0 2 11
0 2 11
0 2 11
0 2 11
0 2 11
0 2 11
0 2 11
0 2 11
0 2 11
0 2 11
0 2 11
0 2 11
0 2 11
0 2 11
0 2 11
0 2 11
0 2 11
0 2 11
0 2 11
0 2 11
0 2 11
0 2 11
0 2 11
0 2 11
0 2 11
0 2 11
0 2 11
0 2 11
0 2 11
0 2 11
0 2 11
0 2 11
0 2 11
0 2 11
0 2 11
0 2 11
0 2 11
0 2 11
0 2 11
0 2 11
0 2 11
0 2 11
0 2 11
0 2 11
0 2 11
0 2 11
0 2 11
0 2 11
0 2 11
0 2 11
0 2 11
0 2 11
0 2 11
0 2 11
0 2 11
0 2 11
0 2 11
0 2 11
0 2 11
0 2 11
0 2 11
0 2 11
0 2 11
0 2 11
0 2 11
0 2 11
0 2 11
0 2 11
0 2 11
0 2 11
0 2 11
0 2 11
0 2 11
0 2 11
0 2 11
0 2 11
0 2 11
0 2 11
0 2 11
0 2 11
0 2 11
0 2 11
0 2 11
0 2 11
0 2 11
0 2 11
0 2 11
0 2 11
0 2 11
0 2 11
0 2 11
0 2 11
0 2 11
0 2 11
0 2 11
0 2 11
0 2 11
0 2 11
0 2 11
0 2 11
0 2 11
0 2 11
0 2 11
0 2 11
0 2 11
0 2 11
0 2 11
0 2 11
0 2 11
0 2 11
0 2 11
0 2 11
0 2 11
0 2 11
0 2 11
0 2 11
0 2 11
0 2 11
0 2 11
0 2 11
0 2 11
0 2 11
0 2 11
0 2 11
0 2 11
0 2 11
0 2 11
0 2 11
0 2 11
0 2 11
0 2 11
0 2 11
0 2 11
0 2 11
0 2 11
0 2 11
0 2 11
0 2 11
0 2 11
0 2 11
0 2 11
0 2 11
0 2 11
0 2 11
0 2 11
0 2 11
0 2 11
0 2 11
0 2 11
0 2 11
0 2 11
0 2 11
0 2 11
0 2 11
0 2 11
0 2 11
0 2 11
0 2 11
0 2 11
0 2 11
0 2 11
0 2 11
0 2 11
0 2 11
0 2 11
0 2 11
0 2 11
0 2 11
0 2 11
0 2 11
0 2 11
0 2 11
0 2 11
0 2 11
0 2 11
0 2 11
0 2 11
0 2 11
0 2 11
0 2 11
0 2 11
0 2 11
0 2 11
0 2 11
0 2 11
0 2 11
0 2 11
0 2 11
0 2 11
0 2 11
0 2 11
0 2 11
0 2 11
0 2 11
0 2 11
0 2 11
0 2 11
0 2 11
0 2 11
0 2 11
0 2 11
0 2 11
0 2 11
0 2 11
0 2 11
0 2 11
0 2 11
0 2 11
0 2 11
0 2 11
0 2 11
0 2 11
0 2 11
0 2 11
0 2 11
0 2 11
0 2 11
0 2 11
0 2 11
0 2 11
0 2 11
0 2 11
0 2 11
0 2 11
0 2 11
0 2 11
0 2 11
0 2 11
0 2 11
0 2 11
0 2 11
0 2 11
0 2 11
0 2 11
0 2 11
0 2 11
0 2 11
0 2 11
0 2 11
0 2 11
0 2 11
0 2 11
0 2 11
0 2 11
0 2 11
0 2 11
0 2 11
0 2 11
0 2 11
0 2 11
0 2 11
0 2 11
0 2 11
0 2 11
0 2 11
0 2 11
0 2 11
0 2 11
0 2 11
0 2 11
0 2 11
0 2 11
0 2 11
0 2 11
0 2 11
0 2 11
0 2 11
0 2 11
0 2 11
0 2 11
0 2 11
0 2 11
0 2 11
0 2 11
0 2 11
0 2 11
0 2 11
0 2 11
0 2 11
0 2 11
0 2 11
0 2 11
0 2 11
0 2 11
0 2 11
0 2 11
0 2 11
0 2 11
0 2 11
0 2 11
0 2 11
0 2 11
0 2 11
0 2 11
0 2 11
0 2 11
0 2 11
0 2 11
0 2 11
0 2 11
0 2 11
0 2 11
0 2 11
0 2 11
0 2 11
0 2 11
0 2 11
0 2 11
0 2 11
0 2 11
0 2 11
0 2 11
0 2 11
0 2 11
0 2 11
0 2 11
0 2 11
0 2 11
0 2 11
0 2 11
0 2 11
0 2 11
0 2 11
0 2 11
0 2 11
0 2 11
0 2 11
0 2 11
0 2 11
0 2 11
0 2 11
0 2 11
0 2 11
0 2 11
0 2 11
0 2 11
0 2 11
0 2 11
0 2 11
0 2 11
0 2 11
0 2 11
0 2 11
0 2 11
0 2 11
0 2 11
0 2 11
0 2 11
0 2 11
0 2 11
0 2 11
0 2 11
0 2 11
0 2 11
0 2 11
0 2 11
0 2 11
0 2 11
0 2 11
0 2 11
0 2 11
0 2 11
0 2 11
0 2 11
0 2 11
0 2 11
0 2 11
0 2 11
0 2 11
0 2 11
0 2 11
0 2 11
0 2 11
0 2 11
0 2 11
0 2 11
0 2 11
0 2 11
0 2 11
0 2 11
0 2 11
0 2 11
0 2 11
0 2 11
0 2 11
0 2 11
0 2 11
0 2 11
0 2 11
0 2 11
0 2 11
0 2 11
0 2 11
0 2 11
0 2 11
0 2 11
0 2 11
0 2 11
0 2 11
0 2 11
0 2 11
0 2 11
0 2 11
0 2 11
0 2 11
0 2 11
0 2 11
0 2 11
0 2 11
0 2 11
0 2 11
0 2 11
0 2 11
0 2 11
0 2 11
0 2 11
0 2 11
0 2 11
0 2 11
0 2 11
0 2 11
0 2 11
0 2 11
0 2 11
0 2 11
0 2 11
0 2 11
0 2 11
0 2 11
0 2 11
0 2 11
0 2 11
0 2 11
0 2 11
0 2 11
0 2 11
0 2 11
0 2 11
0 2 11
0 2 11
0 2 11
0 2 11
0 2 11
0 2 11
0 2 11
0 2 11
0 2 11
0 2 11
0 2 11
0 2 11
0 2 11
0 2 11
0 2 11
0 2 11
0 2 11
0 2 11
0 2 11
0 2 11
0 2 11
0 2 11
0 2 11
0 2 11
0 2 11
0 2 11
0 2 11
0 2 11
0 2 11
0 2 11
0 2 11
0 2 11
0 2 11
0 2 11
0 2 11
0 2 11
0 2 11
0 2 11
0 2 11
0 2 11
0 2 11
0 2 11
0 2 11
0 2 11
0 2 11
0 2 11
0 2 11
0 2 11
0 2 11
0 2 11
0 2 11
0 2 11
0 2 11
0 2 11
0 2 11
0 2 11
0 2 11
0 2 11
0 2 11
0 2 11
0 2 11
0 2 11
0 2 11
0 2 11
0 2 11
0 2 11
0 2 11
0 2 11
0 2 11
0 2 11
0 2 11
0 2 11
0 2 11
0 2 11
0 2 11
0 2 11
0 2 11
0 2 11
0 2 11
0 2 11
0 2 11
0 2 11
0 2 11
0 2 11
0 2 11
0 2 11
0 2 11
0 2 11
0 2 11
0 2 11
0 2 11
0 2 11
0 2 11
0 2 11
0 2 11
0 2 11
0 2 11
0 2 11
0 2 11
0 2 11
0 2 11
0 2 11
0 2 11
0 2 11
0 2 11
0 2 11
0 2 11
0 2 11
0 2 11
0 2 11
0 2 11
0 2 11
0 2 11
0 2 11
0 2 11
0 2 11
0 2 11
0 2 11
0 2 11
0 2 11
0 2 11
0 2 11
0 2 11
0 2 11
0 2 11
0 2 11
0 2 11
0 2 11
0 2 11
0 2 11
0 2 11
0 2 11
0 2 11
0 2 11
0 2 11
0 2 11
0 2 11
0 2 11
0 2 11
0 2 11
0 2 11
0 2 11
0 2 11
0 2 11
0 2 11
0 2 11
0 2 11
0 2 11
0 2 11
0 2 11
0 2 11
0 2 11
0 2 11
0 2 11
0 2 11
0 2 11
0 2 11
0 2 11
0 2 11
0 2 11
0 2 11
0 2 11
0 2 11
0 2 11
0 2 11
0 2 11
0 2 11
0 2 11
0 2 11
0 2 11
0 2 11
0 2 11
0 2 11
0 2 11
0 2 11
0 2 11
0 2 11
0 2 11
0 2 11
0 2 11
0 2 11
0 2 11
0 2 11
0 2 11
0 2 11
0 2 11
0 2 11
0 2 11
0 2 11
0 2 11
0 2 11
0 2 11
0 2 11
0 2 11
0 2 11
0 2 11
0 2 11
0 2 11
0 2 11
0 2 11
0 2 11
0 2 11
0 2 11
0 2 11
0 2 11
0 2 11
0 2 11
0 2 11
0 2 11
0 2 11
0 2 11
0 2 11
0 2 11
0 2 11
0 2 11
0 2 11
0 2 11
0 2 11
0 2 11
0 2 11
0 2 11
0 2 11
0 2 11
0 2 11
0 2 11
0 2 11
0 2 11
0 2 11
0 2 11
0 2 11
0 2 11
0 2 11
0 2 11
0 2 11
0 2 11
0 2 11
0 2 11
0 2 11
0 2 11
0 2 11
0 2 11
0 2 11
0 2 11
0 2 11
0 2 11
0 2 11
0 2 11
0 2 11
0 2 11
0 2 11
0 2 11
0 2 11
0 2 11
0 2 11
0 2 11
0 2 11
0 2 11
0 2 11
0 2 11
0 2 11
0 2 11
0 2 11
0 2 11
0 2 11
0 2 11
0 2 11
0 2 11
0 2 11
0 2 11
0 2 11
0 2 11
0 2 11
0 2 11
0 2 11
0 2 11
0 2 11
0 2 11
0 2 11
0 2 11
0 2 11
0 2 11
0 2 11
0 2 11
0 2 11
0 2 11
0 2 11
0 2 11
0 2 11
0 2 11
0 2 11
0 2 11
0 2 11
0 2 11
0 2 11
0 2 11
0 2 11
0 2 11
0 2 11
0 2 11
0 2 11
0 2 11
0 2 11
0 2 11
0 2 11
0 2 11
0 2 11
0 2 11
0 2 11
0 2 11
0 2 11
0 2 11
0 2 11
0 2 11
0 2 11
0 2 11
0 2 11
0 2 11
0 2 11
0 2 11
0 2 11
0 2 11
0 2 11
0 2 11
0 2 11
0 2 11
0 2 11
0 2 11
0 2 11
0 2 11
0 2 11
0 2 11
0 2 11
0 2 11
0 2 11
0 2 11
0 2 11
0 2 11
0 2 11
0 2 11
0 2 11
0 2 11
0 2 11
0 2 11
0 2 11
0 2 11
0 2 11
0 2 11
0 2 11
0 2 11
0 2 11
0 2 11
0 2 11
0 2 11
0 2 11
0 2 11
0 2 11
0 2 11
0 2 11
0 2 11
0 2 11
0 2 11
0 2 11
0 2 11
0 2 11
0 2 11
0 2 11
0 2 11
0 2 11
0 2 11
0 2 11
0 2 11
0 2 11
0 2 11
0 2 11
0 2 11
0 2 11
0 2 11
0 2 11
0 2 11
0 2 11
0 2 11
0 2 11
0 2 11
0 2 11
0 2 11
0 2 11
0 2 11
0 2 11
0 2 11
0 2 11
0 2 11
0 2 11
0 2 11
0 2 11
0 2 11
0 2 11
0 2 11
0 2 11
0 2 11
0 2 11
0 2 11
0 2 11
0 2 11
0 2 11
0 2 11
0 2 11
0 2 11
0 2 11
0 2 11
0 2 11
0 2 11
0 2 11
0 2 11
0 2 11
0 2 11
0 2 11
0 2 11
0 2 11
0 2 11
0 2 11
0 2 11
0 2 11
0 2 11
0 2 11
0 2 11
0 2 11
0 2 11
0 2 11
0 2 11
0 2 11
0 2 11
0 2 11
0 2 11
0 2 11
0 2 11
0 2 11
0 2 11
0 2 11
0 2 11
0 2 11
0 2 11
0 2 11
0 2 11
0 2 11
0 2 11
0 2 11
0 2 11
0 2 11
0 2 11
0 2 11
0 2 11
0 2 11
0 2 11
0 2 11
0 2 11
0 2 11
0 2 11
0 2 11
0 2 11
0 2 11
0 2 11
0 2 11
0 2 11
0 2 11
0 2 11
0 2 11
0 2 11
0 2 11
0 2 11
0 2 11
0 2 11
0 2 11
0 2 11
0 2 11
0 2 11
0 2 11
0 2 11
0 2 11
0 2 11
0 2 11
0 2 11
0 2 11
0 2 11
0 2 11
0 2 11
0 2 11
0 2 11
0 2 11
0 2 11
0 2 11
0 2 11
0 2 11
0 2 11
0 2 11
0 2 11
0 2 11
0 2 11
0 2 11
0 2 11
0 2 11
0 2 11
0 2 11
0 2 11
0 2 11
0 2 11
0 2 11
0 2 11
0 2 11
0 2 11
0 2 11
0 2 11
0 2 11
0 2 11
0 2 11
0 2 11
0 2 11
0 2 11
0 2 11
0 2 11
0 2 11
0 2 11
0 2 11
0 2 11
0 2 11
0 2 11
0 2 11
0 2 11
0 2 11
0 2 11
0 2 11
0 2 11
0 2 11
0 2 11
0 2 11
0 2 11
0 2 11
0 2 11
0 2 11
0 2 11
0 2 11
0 2 11
0 2 11
0 2 11
0 2 11
0 2 11
0 2 11
0 2 11
0 2 11
0 2 11
0 2 11
0 2 11
0 2 11
0 2 11
0 2 11
0 2 11
0 2 11
0 2 11
0 2 11
0 2 11
0 2 11
0 2 11
0 2 11
0 2 11
0 2 11
0 2 11
0 2 11
0 2 11
0 2 11
0 2 11
0 2 11
0 2 11
0 2 11
0 2 11
0 2 11
0 2 11
0 2 11
0 2 11
0 2 11
0 2 11
0 2 11
0 2 11
0 2 11
0 2 11
0 2 11
0 2 11
0 2 11
0 2 11
0 2 11
0 2 11
0 2 11
0 2 11
0 2 11
0 2 11
0 2 11
0 2 11
0 2 11
0 2 11
0 2 11
0 2 11
0 2 11
0 2 11
0 2 11
0 2 11
0 2 11
0 2 11
0 2 11
0 2 11
0 2 11
0 2 11
0 2 11
0 2 11
0 2 11
0 2 11
0 2 11
0 2 11
0 2 11
0 2 11
0 2 11
0 2 11
0 2 11
0 2 11
0 2 11
0 2 11
0 2 11
0 2 11
0 2 11
0 2 11
0 2 11
0 2 11
0 2 11
0 2 11
0 2 11
0 2 11
0 2 11
0 2 11
0 2 11
0 2 11
0 2 11
0 2 11
0 2 11
0 2 11
0 2 11
0 2 11
0 2 11
0 2 11
0 2 11
0 2 11
0 2 11
0 2 11
0 2 11
0 2 11
0 2 11
0 2 11
0 2 11
0 2 11
0 2 11
0 2 11
0 2 11
0 2 11
0 2 11
0 2 11
0 2 11
0 2 11
0 2 11
0 2 11
0 2 11
0 2 11
0 2 11
0 2 11
0 2 11
0 2 11
0 2 11
0 2 11
0 2 11
0 2 11
0 2 11
0 2 11
0 2 11
0 2 11
0 2 11
0 2 11
0 2 11
0 2 11
0 2 11
0 2 11
0 2 11
0 2 11
0 2 11
0 2 11
0 2 11
0 2 11
0 2 11
0 2 11
0 2 11
0 2 11
0 2 11
0 2 11
0 2 11
0 2 11
0 2 11
0 2 11
0 2 11
0 2 11
0 2 11
0 2 11
0 2 11
0 2 11
0 2 11
0 2 11
0 2 11
0 2 11
0 2 11
0 2 11
0 2 11
0 2 11
0 2 11
0 2 11
0 2 11
0 2 11
0 2 11
0 2 11
0 2 11
0 2 11
0 2 11
0 2 11
0 2 11
0 2 11
0 2 11
0 2 11
0 2 11
0 2 11
0 2 11
0 2 11
0 2 11
0 2 11
0 2 11
0 2 11
0 2 11
0 2 11
0 2 11
0 2 11
0 2 11
0 2 11
0 2 11
0 2 11
0 2 11
0 2 11
0 2 11
0 2 11
0 2 11
0 2 11
0 2 11
0 2 11
0 2 11
0 2 11
0 2 11
0 2 11
0 2 11
0 2 11
0 2 11
0 2 11
0 2 11
0 2 11
0 2 11
0 2 11
0 2 11
0 2 11
0 2 11
0 2 11
0 2 11
0 2 11
0 2 11
0 2 11
0 2 11
0 2 11
0 2 11
0 2 11
0 2 11
0 2 11
0 2 11
0 2 11
0 2 11
0 2 11
0 2 11
0 2 11
0 2 11
0 2 11
0 2 11
0 2 11
0 2 11
0 2 11
0 2 11
0 2 11
0 2 11
0 2 11
0 2 11
0 2 11
0 2 11
0 2 11
0 2 11
0 2 11
0 2 11
0 2 11
0 2 11
0 2 11
0 2 11
0 2 11
0 2 11
0 2 11
0 2 11
0 2 11
0 2 11
0 2 11
0 2 11
0 2 11
0 2 11
0 2 11
0 2 11
0 2 11
0 2 11
0 2 11
0 2 11
0 2 11
0 2 11
0 2 11
0 2 11
0 2 11
0 2 11
0 2 11
0 2 11
0 2 11
0 2 11
0 2 11
0 2 11
0 2 11
0 2 11
0 2 11
0 2 11
0 2 11
0 2 11
0 2 11
0 2 11
0 2 11
0 2 11
0 2 11
0 2 11
0 2 11
0 2 11
0 2 11
0 2 11
0 2 11
0 2 11
0 2 11
0 2 11
0 2 11
0 2 11
0 2 11
0 2 11
0 2 11
0 2 11
0 2 11
0 2 11
0 2 11
0 2 11
0 2 11
0 2 11
0 2 11
0 2 11
0 2 11
0 2 11
0 2 11
0 2 11
0 2 11
0 2 11
0 2 11
0 2 11
0 2 11
0 2 11
0 2 11
0 2 11
0 2 11
0 2 11
0 2 11
0 2 11
0 2 11
0 2 11
0 2 11
0 2 11
0 2 11
0 2 11
0 2 11
0 2 11
0 2 11
0 2 11
0 2 11
0 2 11
0 2 11
0 2 11
0 2 11
0 2 11
0 2 11
0 2 11
0 2 11
0 2 11
0 2 11
0 2 11
0 2 11
0 2 11
0 2 11
0 2 11
0 2 11
0 2 11
0 2 11
0 2 11
0 2 11
0 2 11
0 2 11
0 2 11
0 2 11
0 2 11
0 2 11
0 2 11
0 2 11
0 2 11
0 2 11
0 2 11
0 2 11
0 2 11
0 2 11
0 2 11
0 2 11
0 2 11
0 2 11
0 2 11
0 2 11
0 2 11
0 2 11
0 2 11
0 2 11
0 2 11
0 2 11
0 2 11
0 2 11
0 2 11
0 2 11
0 2 11
0 2 11
0 2 11
0 2 11
0 2 11
0 2 11
0 2 11
0 2 11
0 2 11
0 2 11
0 2 11
0 2 11
0 2 11
0 2 11
0 2 11
0 2 11
0 2 11
0 2 11
0 2 11
0 2 11
0 2 11
0 2 11
0 2 11
0 2 11
0 2 11
0 2 11
0 2 11
0 2 11
0 2 11
0 2 11
0 2 11
0 2 11
0 2 11
0 2 11
0 2 11
0 2 11
0 2 11
0 2 11
0 2 11
0 2 11
0 2 11
0 2 11
0 2 11
0 2 11
0 2 11
0 2 11
0 2 11
0 2 11
0 2 11
0 2 11
0 2 11
0 2 11
0 2 11
0 2 11
0 2 11
0 2 11
0 2 11
0 2 11
0 2 11
0 2 11
0 2 11
0 2 11
0 2 11
0 2 11
0 2 11
0 2 11
0 2 11
0 2 11
0 2 11
0 2 11
0 2 11
0 2 11
0 2 11
0 2 11
0 2 11
0 2 11
0 2 11
0 2 11
0 2 11
0 2 11
0 2 11
0 2 11
0 2 11
0 2 11
0 2 11
0 2 11
0 2 11
0 2 11
0 2 11
0 2 11
0 2 11
0 2 11
0 2 11
0 2 11
0 2 11
0 2 11
0 2 11
0 2 11
0 2 11
0 2 11
0 2 11
0 2 11
0 2 11
0 2 11
0 2 11
0 2 11
0 2 11
0 2 11
0 2 11
0 2 11
0 2 11
0 2 11
0 2 11
0 2 11
0 2 11
0 2 11
0 2 11
0 2 11
0 2 11
0 2 11
0 2 11
0 2 11
0 2 11
0 2 11
0 2 11
0 2 11
0 2 11
0 2 11
0 2 11
0 2 11
0 2 11
0 2 11
0 2 11
0 2 11
0 2 11
0 2 11
0 2 11
0 2 11
0 2 11
0 2 11
0 2 11
0 2 11
0 2 11
0 2 11
0 2 11
0 2 11
0 2 11
0 2 11
0 2 11
0 2 11
0 2 11
0 2 11
0 2 11
0 2 11
0 2 11
0 2 11
0 2 11
0 2 11
0 2 11
0 2 11
0 2 11
0 2 11
0 2 11
0 2 11
0 2 11
0 2 11
0 2 11
0 2 11
0 2 11
0 2 11
0 2 11
0 2 11
0 2 11
0 2 11
0 2 11
0 2 11
0 2 11
0 2 11
0 2 11
0 2 11
0 2 11
0 2 11
0 2 11
0 2 11
0 2 11
0 2 11
0 2 11
0 2 11
0 2 11
0 2 11
0 2 11
0 2 11
0 2 11
0 2 11
0 2 11
0 2 11
0 2 11
0 2 11
0 2 11
0 2 11
0 2 11
0 2 11
0 2 11
0 2 11
0 2 11
0 2 11
0 2 11
0 2 11
0 2 11
0 2 11
0 2 11
0 2 11
0 2 11
0 2 11
0 2 11
0 2 11
0 2 11
0 2 11
0 2 11
0 2 11
0 2 11
0 2 11
0 2 11
0 2 11
0 2 11
0 2 11
0 2 11
0 2 11
0 2 11
0 2 11
0 2 11
0 2 11
0 2 11
0 2 11
0 2 11
0 2 11
0 2 11
0 2 11
0 2 11
0 2 11
0 2 11
0 2 11
0 2 11
0 2 11
0 2 11
0 2 11
0 2 11
0 2 11
0 2 11
0 2 11
0 2 11
0 2 11
0 2 11
0 2 11
0 2 11
0 2 11
0 2 11
0 2 11
0 2 11
0 2 11
0 2 11
0 2 11
0 2 11
0 2 11
0 2 11
0 2 11
0 2 11
0 2 11
0 2 11
0 2 11
0 2 11
0 2 11
0 2 11
0 2 11
0 2 11
0 2 11
0 2 11
0 2 11
0 2 11
0 2 11
0 2 11
0 2 11
0 2 11
0 2 11
0 2 11
0 2 11
0 2 11
0 2 11
0 2 11
0 2 11
0 2 11
0 2 11
0 2 11
0 2 11
0 2 11
0 2 11
0 2 11
0 2 11
0 2 11
0 2 11
0 2 11
0 2 11
0 2 11
0 2 11
0 2 11
0 2 11
0 2 11
0 2 11
0 2 11
0 2 11
0 2 11
0 2 11
0 2 11
0 2 11
0 2 11
0 2 11
0 2 11
0 2 11
0 2 11
0 2 11
0 2 11
0 2 11
0 2 11
0 2 11
0 2 11
0 2 11
0 2 11
0 2 11
0 2 11
0 2 11
0 2 11
0 2 11
0 2 11
0 2 11
0 2 11
0 2 11
0 2 11
0 2 11
0 2 11
0 2 11
0 2 11
0 2 11
0 2 11
0 2 11
0 2 11
0 2 11
0 2 11
0 2 11
0 2 11
0 2 11
0 2 11
0 2 11
0 2 11
0 2 11
0 2 11
0 2 11
0 2 11
0 2 11
0 2 11
0 2 11
0 2 11
0 2 11
0 2 11
0 2 11
0 2 11
0 2 11
0 2 11
0 2 11
0 2 11
0 2 11
0 2 11
0 2 11
0 2 11
0 2 11
0 2 11
0 2 11
0 2 11
0 2 11
0 2 11
0 2 11
0 2 11
0 2 11
0 2 11
0 2 11
0 2 11
0 2 11
0 2 11
0 2 11
0 2 11
0 2 11
0 2 11
0 2 11
0 2 11
0 2 11
0 2 11
0 2 11
0 2 11
0 2 11
0 2 11
0 2 11
0 2 11
0 2 11
0 2 11
0 2 11
0 2 11
0 2 11
0 2 11
0 2 11
0 2 11
0 2 11
0 2 11
0 2 11
0 2 11
0 2 11
0 2 11
0 2 11
0 2 11
0 2 11
0 2 11
0 2 11
0 2 11
0 2 11
0 2 11
0 2 11
0 2 11
0 2 11
0 2 11
0 2 11
0 2 11
0 2 11
0 2 11
0 2 11
0 2 11
0 2 11
0 2 11
0 2 11
0 2 11
0 2 11
0 2 11
0 2 11
0 2 11
0 2 11
0 2 11
0 2 11
0 2 11
0 2 11
0 2 11
0 2 11
0 2 11
0 2 11
0 2 11
0 2 11
0 2 11
0 2 11
0 2 11
0 2 11
0 2 11
0 2 11
0 2 11
0 2 11
0 2 11
0 2 11
0 2 11
0 2 11
0 2 11
0 2 11
0 2 11
0 2 11
0 2 11
0 2 11
0 2 11
0 2 11
0 2 11
0 2 11
0 2 11
0 2 11
0 2 11
0 2 11
0 2 11
0 2 11
0 2 11
0 2 11
0 2 11
0 2 11
0 2 11
0 2 11
0 2 11
0 2 11
0 2 11
0 2 11
0 2 11
0 2 11
0 2 11
0 2 11
0 2 11
0 2 11
0 2 11
0 2 11
0 2 11
0 2 11
0 2 11
0 2 11
0 2 11
0 2 11
0 2 11
0 2 11
0 2 11
0 2 11
0 2 11
0 2 11
0 2 11
0 2 11
0 2 11
0 2 11
0 2 11
0 2 11
0 2 11
0 2 11
0 2 11
0 2 11
0 2 11
0 2 11
0 2 11
0 2 11
0 2 11
0 2 11
0 2 11
0 2 11
0 2 11
0 2 11
0 2 11
0 2 11
0 2 11
0 2 11
0 2 11
0 2 11
0 2 11
0 2 11
0 2 11
0 2 11
0 2 11
0 2 11
0 2 11
0 2 11
0 2 11
0 2 11
0 2 11
0 2 11
0 2 11
0 2 11
0 2 11
0 2 11
0 2 11
0 2 11
0 2 11
0 2 11
0 2 11
0 2 11
0 2 11
0 2 11
0 2 11
0 2 11
0 2 11
0 2 11
0 2 11
0 2 11
0 2 11
0 2 11
0 2 11
0 2 11
0 2 11
0 2 11
0 2 11
0 2 11
0 2 11
0 2 11
0 2 11
0 2 11
0 2 11
0 2 11
0 2 11
0 2 11
0 2 11
0 2 11
0 2 11
0 2 11
0 2 11
0 2 11
0 2 11
0 2 11
0 2 11
0 2 11
0 2 11
0 2 11
0 2 11
0 2 11
0 2 11
0 2 11
0 2 11
0 2 11
0 2 11
0 2 11
0 2 11
0 2 11
0 2 11
0 2 11
0 2 11
0 2 11
0 2 11
0 2 11
0 2 11
0 2 11
0 2 11
0 2 11
0 2 11
0 2 11
0 2 11
0 2 11
0 2 11
0 2 11
0 2 11
0 2 11
0 2 11
0 2 11
0 2 11
0 2 11
0 2 11
0 2 11
0 2 11
0 2 11
0 2 11
0 2 11
0 2 11
0 2 11
0 2 11
0 2 11
0 2 11
0 2 11
0 2 11
0 2 11
0 2 11
0 2 11
0 2 11
0 2 11
0 2 11
0 2 11
0 2 11
0 2 11
0 2 11
0 2 11
0 2 11
0 2 11
0 2 11
0 2 11
0 2 11
0 2 11
0 2 11
0 2 11
0 2 11
0 2 11
0 2 11
0 2 11
0 2 11
0 2 11
0 2 11
0 2 11
0 2 11
0 2 11
0 2 11
0 2 11
0 2 11
0 2 11
0 2 11
0 2 11
0 2 11
0 2 11
0 2 11
0 2 11
0 2 11
0 2 11
0 2 11
0 2 11
0 2 11
0 2 11
0 2 11
0 2 11
0 2 11
0 2 11
0 2 11
0 2 11
0 2 11
0 2 11
0 2 11
0 2 11
0 2 11
0 2 11
0 2 11
0 2 11
0 2 11
0 2 11
0 2 11
0 2 11
0 2 11
0 2 11
0 2 11
0 2 11
0 2 11
0 2 11
0 2 11
0 2 11
0 2 11
0 2 11
0 2 11
0 2 11
0 2 11
0 2 11
0 2 11
0 2 11
0 2 11
0 2 11
0 2 11
0 2 11
0 2 11
0 2 11
0 2 11
0 2 11
0 2 11
0 2 11
0 2 11
0 2 11
0 2 11
0 2 11
0 2 11
0 2 11
0 2 11
0 2 11
0 2 11
0 2 11
0 2 11
0 2 11
0 2 11
0 2 11
0 2 11
0 2 11
0 2 11
0 2 11
0 2 11
0 2 11
0 2 11
0 2 11
0 2 11
0 2 11
0 2 11
0 2 11
0 2 11
0 2 11
0 2 11
0 2 11
0 2 11
0 2 11
0 2 11
0 2 11
0 2 11
0 2 11
0 2 11
0 2 11
0 2 11
0 2 11
0 2 11
0 2 11
0 2 11
0 2 11
0 2 11
0 2 11
0 2 11
0 2 11
0 2 11
0 2 11
0 2 11
0 2 11
0 2 11
0 2 11
0 2 11
0 2 11
0 2 11
0 2 11
0 2 11
0 2 11
0 2 11
0 2 11
0 2 11
0 2 11
0 2 11
0 2 11
0 2 11
0 2 11
0 2 11
0 2 11
0 2 11
0 2 11
0 2 11
0 2 11
0 2 11
0 2 11
0 2 11
0 2 11
0 2 11
0 2 11
0 2 11
0 2 11
0 2 11
0 2 11
0 2 11
0 2 11
0 2 11
0 2 11
0 2 11
0 2 11
0 2 11
0 2 11
0 2 11
0 2 11
0 2 11
0 2 11
0 2 11
0 2 11
0 2 11
0 2 11
0 2 11
0 2 11
0 2 11
0 2 11
0 2 11
0 2 11
0 2 11
0 2 11
0 2 11
0 2 11
0 2 11
0 2 11
0 2 11
0 2 11
0 2 11
0 2 11
0 2 11
0 2 11
0 2 11
0 2 11
0 2 11
0 2 11
0 2 11
0 2 11
0 2 11
0 2 11
0 2 11
0 2 11
0 2 11
0 2 11
0 2 11
0 2 11
0 2 11
0 2 11
0 2 11
0 2 11
0 2 11
0 2 11
0 2 11
0 2 11
0 2 11
0 2 11
0 2 11
0 2 11
0 2 11
0 2 11
0 2 11
0 2 11
0 2 11
0 2 11
0 2 11
0 2 11
0 2 11
0 2 11
0 2 11
0 2 11
0 2 11
0 2 11
0 2 11
0 2 11
0 2 11
0 2 11
0 2 11
0 2 11
0 2 11
0 2 11
0 2 11
0 2 11
0 2 11
0 2 11
0 2 11
0 2 11
0 2 11
0 2 11
0 2 11
0 2 11
0 2 11
0 2 11
0 2 11
0 2 11
0 2 11
0 2 11
0 2 11
0 2 11
0 2 11
0 2 11
0 2 11
0 2 11
0 2 11
0 2 11
0 2 11
0 2 11
0 2 11
0 2 11
0 2 11
0 2 11
0 2 11
0 2 11
0 2 11
0 2 11
0 2 11
0 2 11
0 2 11
0 2 11
0 2 11
0 2 11
0 2 11
0 2 11
0 2 11
0 2 11
0 2 11
0 2 11
0 2 11
0 2 11
0 2 11
0 2 11
0 2 11
0 2 11
0 2 11
0 2 11
0 2 11
0 2 11
0 2 11
0 2 11
0 2 11
0 2 11
0 2 11
0 2 11
0 2 11
0 2 11
0 2 11
0 2 11
0 2 11
0 2 11
0 2 11
0 2 11
0 2 11
0 2 11
0 2 11
0 2 11
0 2 11
0 2 11
0 2 11
0 2 11
0 2 11
0 2 11
0 2 11
0 2 11
0 2 11
0 2 11
0 2 11
0 2 11
0 2 11
0 2 11
0 2 11
0 2 11
0 2 11
0 2 11
0 2 11
0 2 11
0 2 11
0 2 11
0 2 11
0 2 11
0 2 11
0 2 11
0 2 11
0 2 11
0 2 11
0 2 11
0 2 11
0 2 11
0 2 11
0 2 11
0 2 11
0 2 11
0 2 11
0 2 11
0 2 11
0 2 11
0 2 11
0 2 11
0 2 11
0 2 11
0 2 11
0 2 11
0 2 11
0 2 11
0 2 11
0 2 11
0 2 11
0 2 11
0 2 11
0 2 11
0 2 11
0 2 11
0 2 11
0 2 11
0 2 11
0 2 11
0 2 11
0 2 11
0 2 11
0 2 11
0 2 11
0 2 11
0 2 11
0 2 11
0 2 11
0 2 11
0 2 11
0 2 11
0 2 11
0 2 11
0 2 11
0 2 11
0 2 11
0 2 11
0 2 11
0 2 11
0 2 11
0 2 11
0 2 11
0 2 11
0 2 11
0 2 11
0 2 11
0 2 11
0 2 11
0 2 11
0 2 11
0 2 11
0 2 11
0 2 11
0 2 11
0 2 11
0 2 11
0 2 11
0 2 11
0 2 11
0 2 11
0 2 11
0 2 11
0 2 11
0 2 11
0 2 11
0 2 11
0 2 11
0 2 11
0 2 11
0 2 11
0 2 11
0 2 11
0 2 11
0 2 11
0 2 11
0 2 11
0 2 11
0 2 11
0 2 11
0 2 11
0 2 11
0 2 11
0 2 11
0 2 11
0 2 11
0 2 11
0 2 11
0 2 11
0 2 11
0 2 11
0 2 11
0 2 11
0 2 11
0 2 11
0 2 11
0 2 11
0 2 11
0 2 11
0 2 11
0 2 11
0 2 11
0 2 11
0 2 11
0 2 11
0 2 11
0 2 11
0 2 11
0 2 11
0 2 11
0 2 11
0 2 11
0 2 11
0 2 11
0 2 11
0 2 11
0 2 11
0 2 11
0 2 11
0 2 11
0 2 11
0 2 11
0 2 11
0 2 11
0 2 11
0 2 11
0 2 11
0 2 11
0 2 11
0 2 11
0 2 11
0 2 11
0 2 11
0 2 11
0 2 11
0 2 11
0 2 11
0 2 11
0 2 11
0 2 11
0 2 11
0 2 11
0 2 11
0 2 11
0 2 11
0 2 11
0 2 11
0 2 11
0 2 11
0 2 11
0 2 11
0 2 11
0 2 11
0 2 11
0 2 11
0 2 11
0 2 11
0 2 11
0 2 11
0 2 11
0 2 11
0 2 11
0 2 11
0 2 11
0 2 11
0 2 11
0 2 11
0 2 11
0 2 11
0 2 11
0 2 11
0 2 11
0 2 11
0 2 11
0 2 11
0 2 11
0 2 11
0 2 11
0 2 11
0 2 11
0 2 11
0 2 11
0 2 11
0 2 11
0 2 11
0 2 11
0 2 11
0 2 11
0 2 11
0 2 11
0 2 11
0 2 11
0 2 11
0 2 11
0 2 11
0 2 11
0 2 11
0 2 11
0 2 11
0 2 11
0 2 11
0 2 11
0 2 11
0 2 11
0 2 11
0 2 11
0 2 11
0 2 11
0 2 11
0 2 11
0 2 11
0 2 11
0 2 11
0 2 11
0 2 11
0 2 11
0 2 11
0 2 11
0 2 11
0 2 11
0 2 11
0 2 11
0 2 11
0 2 11
0 2 11
0 2 11
0 2 11
0 2 11
0 2 11
0 2 11
0 2 11
0 2 11
0 2 11
0 2 11
0 2 11
0 2 11
0 2 11
0 2 11
0 2 11
0 2 11
0 2 11
0 2 11
0 2 11
0 2 11
0 2 11
0 2 11
0 2 11
0 2 11
0 2 11
0 2 11
0 2 11
0 2 11
0 2 11
0 2 11
0 2 11
0 2 11
0 2 11
0 2 11
0 2 11
0 2 11
0 2 11
0 2 11
0 2 11
0 2 11
0 2 11
0 2 11
0 2 11
0 2 11
0 2 11
0 2 11
0 2 11
0 2 11
0 2 11
0 2 11
0 2 11
0 2 11
0 2 11
0 2 11
0 2 11
0 2 11
0 2 11
0 2 11
0 2 11
0 2 11
0 2 11
0 2 11
0 2 11
0 2 11
0 2 11
0 2 11
0 2 11
0 2 11
0 2 11
0 2 11
0 2 11
0 2 11
0 2 11
0 2 11
0 2 11
0 2 11
0 2 11
0 2 11
0 2 11
0 2 11
0 2 11
0 2 11
0 2 11
0 2 11
0 2 11
0 2 11
0 2 11
0 2 11
0 2 11
0 2 11
0 2 11
0 2 11
0 2 11
0 2 11
0 2 11
0 2 11
0 2 11
0 2 11
0 2 11
0 2 11
0 2 11
0 2 11
0 2 11
0 2 11
0 2 11
0 2 11
0 2 11
0 2 11
0 2 11
0 2 11
0 2 11
0 2 11
0 2 11
0 2 11
0 2 11
0 2 11
0 2 11
0 2 11
0 2 11
0 2 11
0 2 11
0 2 11
0 2 11
0 2 11
0 2 11
0 2 11
0 2 11
0 2 11
0 2 11
0 2 11
0 2 11
0 2 11
0 2 11
0 2 11
0 2 11
0 2 11
0 2 11
0 2 11
0 2 11
0 2 11
0 2 11
0 2 11
0 2 11
0 2 11
0 2 11
0 2 11
0 2 11
0 2 11
0 2 11
0 2 11
0 2 11
0 2 11
0 2 11
0 2 11
0 2 11
0 2 11
0 2 11
0 2 11
0 2 11
0 2 11
0 2 11
0 2 11
0 2 11
0 2 11
0 2 11
0 2 11
0 2 11
0 2 11
0 2 11
0 2 11
0 2 11
0 2 11
0 2 11
0 2 11
0 2 11
0 2 11
0 2 11
0 2 11
0 2 11
0 2 11
0 2 11
0 2 11
0 2 11
0 2 11
0 2 11
0 2 11
0 2 11
0 2 11
0 2 11
0 2 11
0 2 11
0 2 11
0 2 11
0 2 11
0 2 11
0 2 11
0 2 11
0 2 11
0 2 11
0 2 11
0 2 11
0 2 11
0 2 11
0 2 11
0 2 11
0 2 11
0 2 11
0 2 11
0 2 11
0 2 11
0 2 11
0 2 11
0 2 11
0 2 11
0 2 11
0 2 11
0 2 11
0 2 11
0 2 11
0 2 11
0 2 11
0 2 11
0 2 11
0 2 11
0 2 11
0 2 11
0 2 11
0 2 11
0 2 11
0 2 11
0 2 11
0 2 11
0 2 11
0 2 11
0 2 11
0 2 11
0 2 11
0 2 11
0 2 11
0 2 11
0 2 11
0 2 11
0 2 11
0 2 11
0 2 11
0 2 11
0 2 11
0 2 11
0 2 11
0 2 11
0 2 11
0 2 11
0 2 11
0 2 11
0 2 11
0 2 11
0 2 11
0 2 11
0 2 11
0 2 11
0 2 11
0 2 11
0 2 11
0 2 11
0 2 11
0 2 11
0 2 11
0 2 11
0 2 11
0 2 11
0 2 11
0 2 11
0 2 11
0 2 11
0 2 11
0 2 11
0 2 11
0 2 11
0 2 11
0 2 11
0 2 11
0 2 11
0 2 11
0 2 11
0 2 11
0 2 11
0 2 11
0 2 11
0 2 11
0 2 11
0 2 11
0 2 11
0 2 11
0 2 11
0 2 11
0 2 11
0 2 11
0 2 11
0 2 11
0 2 11
0 2 11
0 2 11
0 2 11
0 2 11
0 2 11
0 2 11
0 2 11
0 2 11
0 2 11
0 2 11
0 2 11
0 2 11
0 2 11
0 2 11
0 2 11
0 2 11
0 2 11
0 2 11
0 2 11
0 2 11
0 2 11
0 2 11
0 2 11
0 2 11
0 2 11
0 2 11
0 2 11
0 2 11
0 2 11
0 2 11
0 2 11
0 2 11
0 2 11
0 2 11
0 2 11
0 2 11
0 2 11
0 2 11
0 2 11
0 2 11
0 2 11
0 2 11
0 2 11
0 2 11
0 2 11
0 2 11
0 2 11
0 2 11
0 2 11
0 2 11
0 2 11
0 2 11
0 2 11
0 2 11
0 2 11
0 2 11
0 2 11
0 2 11
0 2 11
0 2 11
0 2 11
0 2 11
0 2 11
0 2 11
0 2 11
0 2 11
0 2 11
0 2 11
0 2 11
0 2 11
0 2 11
0 2 11
0 2 11
0 2 11
0 2 11
0 2 11
0 2 11
0 2 11
0 2 11
0 2 11
0 2 11
0 2 11
0 2 11
0 2 11
0 2 11
0 2 11
0 2 11
0 2 11
0 2 11
0 2 11
0 2 11
0 2 11
0 2 11
0 2 11
0 2 11
0 2 11
0 2 11
0 2 11
0 2 11
0 2 11
0 2 11
0 2 11
0 2 11
0 2 11
0 2 11
0 2 11
0 2 11
0 2 11
0 2 11
0 2 11
0 2 11
0 2 11
0 2 11
0 2 11
0 2 11
0 2 11
0 2 11
0 2 11
0 2 11
0 2 11
0 2 11
0 2 11
0 2 11
0 2 11
0 2 11
0 2 11
0 2 11
0 2 11
0 2 11
0 2 11
0 2 11
0 2 11
0 2 11
0 2 11
0 2 11
0 2 11
0 2 11
0 2 11
0 2 11
0 2 11
0 2 11
0 2 11
0 2 11
0 2 11
0 2 11
0 2 11
0 2 11
0 2 11
0 2 11
0 2 11
0 2 11
0 2 11
0 2 11
0 2 11
0 2 11
0 2 11
0 2 11
0 2 11
0 2 11
0 2 11
0 2 11
0 2 11
0 2 11
0 2 11
0 2 11
0 2 11
0 2 11
0 2 11
0 2 11
0 2 11
0 2 11
0 2 11
0 2 11
0 2 11
0 2 11
0 2 11
0 2 11
0 2 11
0 2 11
0 2 11
0 2 11
0 2 11
0 2 11
0 2 11
0 2 11
0 2 11
0 2 11
0 2 11
0 2 11
0 2 11
0 2 11
0 2 11
0 2 11
0 2 11
0 2 11
0 2 11
0 2 11
0 2 11
0 2 11
0 2 11
0 2 11
0 2 11
0 2 11
0 2 11
0 2 11
0 2 11
0 2 11
0 2 11
0 2 11
0 2 11
0 2 11
0 2 11
0 2 11
0 2 11
0 2 11
0 2 11
0 2 11
0 2 11
0 2 11
0 2 11
0 2 11
0 2 11
0 2 11
0 2 11
0 2 11
0 2 11
0 2 11
0 2 11
0 2 11
0 2 11
0 2 11
0 2 11
0 2 11
0 2 11
0 2 11
0 2 11
0 2 11
0 2 11
0 2 11
0 2 11
0 2 11
0 2 11
0 2 11
0 2 11
0 2 11
0 2 11
0 2 11
0 2 11
0 2 11
0 2 11
0 2 11
0 2 11
0 2 11
0 2 11
0 2 11
0 2 11
0 2 11
0 2 11
0 2 11
0 2 11
0 2 11
0 2 11
0 2 11
0 2 11
0 2 11
0 2 11
0 2 11
0 2 11
0 2 11
0 2 11
0 2 11
0 2 11
0 2 11
0 2 11
0 2 11
0 2 11
0 2 11
0 2 11
0 2 11
0 2 11
0 2 11
0 2 11
0 2 11
0 2 11
0 2 11
0 2 11
0 2 11
0 2 11
0 2 11
0 2 11
0 2 11
0 2 11
0 2 11
0 2 11
0 2 11
0 2 11
0 2 11
0 2 11
0 2 11
0 2 11
0 2 11
0 2 11
0 2 11
0 2 11
0 2 11
0 2 11
0 2 11
0 2 11
0 2 11
0 2 11
0 2 11
0 2 11
0 2 11
0 2 11
0 2 11
0 2 11
0 2 11
0 2 11
0 2 11
0 2 11
0 2 11
0 2 11
0 2 11
0 2 11
0 2 11
0 2 11
0 2 11
0 2 11
0 2 11
0 2 11
0 2 11
0 2 11
0 2 11
0 2 11
0 2 11
0 2 11
0 2 11
0 2 11
0 2 11
0 2 11
0 2 11
0 2 11
0 2 11
0 2 11
0 2 11
0 2 11
0 2 11
0 2 11
0 2 11
0 2 11
0 2 11
0 2 11
0 2 11
0 2 11
0 2 11
0 2 11
0 2 11
0 2 11
0 2 11
0 2 11
0 2 11
0 2 11
0 2 11
0 2 11
0 2 11
0 2 11
0 2 11
0 2 11
0 2 11
0 2 11
0 2 11
0 2 11
0 2 11
0 2 11
0 2 11
0 2 11
0 2 11
0 2 11
0 2 11
0 2 11
0 2 11
0 2 11
0 2 11
0 2 11
0 2 11
0 2 11
0 2 11
0 2 11
0 2 11
0 2 11
0 2 11
0 2 11
0 2 11
0 2 11
0 2 11
0 2 11
0 2 11
0 2 11
0 2 11
0 2 11
0 2 11
0 2 11
0 2 11
0 2 11
0 2 11
0 2 11
0 2 11
0 2 11
0 2 11
0 2 11
0 2 11
0 2 11
0 2 11
0 2 11
0 2 11
0 2 11
0 2 11
0 2 11
0 2 11
0 2 11
0 2 11
0 2 11
0 2 11
0 2 11
0 2 11
0 2 11
0 2 11
0 2 11
0 2 11
0 2 11
0 2 11
0 2 11
0 2 11
0 2 11
0 2 11
0 2 11
0 2 11
0 2 11
0 2 11
0 2 11
0 2 11
0 2 11
0 2 11
0 2 11
0 2 11
0 2 11
0 2 11
0 2 11
0 2 11
0 2 11
0 2 11
0 2 11
0 2 11
0 2 11
0 2 11
0 2 11
0 2 11
0 2 11
0 2 11
0 2 11
0 2 11
0 2 11
0 2 11
0 2 11
0 2 11
0 2 11
0 2 11
0 2 11
0 2 11
0 2 11
0 2 11
0 2 11
0 2 11
0 2 11
0 2 11
0 2 11
0 2 11
0 2 11
0 2 11
0 2 11
0 2 11
0 2 11
0 2 11
0 2 11
0 2 11
0 2 11
0 2 11
0 2 11
0 2 11
0 2 11
0 2 11
0 2 11
0 2 11
0 2 11
0 2 11
0 2 11
0 2 11
0 2 11
0 2 11
0 2 11
0 2 11
0 2 11
0 2 11
0 2 11
0 2 11
0 2 11
0 2 11
0 2 11
0 2 11
0 2 11
0 2 11
0 2 11
0 2 11
0 2 11
0 2 11
0 2 11
0 2 11
0 2 11
0 2 11
0 2 11
0 2 11
0 2 11
0 2 11
0 2 11
0 2 11
0 2 11
0 2 11
0 2 11
0 2 11
0 2 11
0 2 11
0 2 11
0 2 11
0 2 11
0 2 11
0 2 11
0 2 11
0 2 11
0 2 11
0 2 11
0 2 11
0 2 11
0 2 11
0 2 11
0 2 11
0 2 11
0 2 11
0 2 11
0 2 11
0 2 11
0 2 11
0 2 11
0 2 11
0 2 11
0 2 11
0 2 11
0 2 11
0 2 11
0 2 11
0 2 11
0 2 11
0 2 11
0 2 11
0 2 11
0 2 11
0 2 11
0 2 11
0 2 11
0 2 11
0 2 11
0 2 11
0 2 11
0 2 11
0 2 11
0 2 11
0 2 11
0 2 11
0 2 11
0 2 11
0 2 11
0 2 11
0 2 11
0 2 11
0 2 11
0 2 11
0 2 11
0 2 11
0 2 11
0 2 11
0 2 11
0 2 11
0 2 11
0 2 11
0 2 11
0 2 11
0 2 11
0 2 11
0 2 11
0 2 11
0 2 11
0 2 11
0 2 11
0 2 11
0 2 11
0 2 11
0 2 11
0 2 11
0 2 11
0 2 11
0 2 11
0 2 11
0 2 11
0 2 11
0 2 11
0 2 11
0 2 11
0 2 11
0 2 11
0 2 11
0 2 11
0 2 11
0 2 11
0 2 11
0 2 11
0 2 11
0 2 11
0 2 11
0 2 11
0 2 11
0 2 11
0 2 11
0 2 11
0 2 11
0 2 11
0 2 11
0 2 11
0 2 11
0 2 11
0 2 11
0 2 11
0 2 11
0 2 11
0 2 11
0 2 11
0 2 11
0 2 11
0 2 11
0 2 11
0 2 11
0 2 11
0 2 11
0 2 11
0 2 11
0 2 11
0 2 11
0 2 11
0 2 11
0 2 11
0 2 11
0 2 11
0 2 11
0 2 11
0 2 11
0 2 11
0 2 11
0 2 11
0 2 11
0 2 11
0 2 11
0 2 11
0 2 11
0 2 11
0 2 11
0 2 11
0 2 11
0 2 11
0 2 11
0 2 11
0 2 11
0 2 11
0 2 11
0 2 11
0 2 11
0 2 11
0 2 11
0 2 11
0 2 11
0 2 11
0 2 11
0 2 11
0 2 11
0 2 11
0 2 11
0 2 11
0 2 11
0 2 11
0 2 11
0 2 11
0 2 11
0 2 11
0 2 11
0 2 11
0 2 11
0 2 11
0 2 11
0 2 11
0 2 11
0 2 11
0 2 11
0 2 11
0 2 11
0 2 11
0 2 11
0 2 11
0 2 11
0 2 11
0 2 11
0 2 11
0 2 11
0 2 11
0 2 11
0 2 11
0 2 11
0 2 11
0 2 11
0 2 11
0 2 11
0 2 11
0 2 11
0 2 11
0 2 11
0 2 11
0 2 11
0 2 11
0 2 11
0 2 11
0 2 11
0 2 11
0 2 11
0 2 11
0 2 11
0 2 11
0 2 11
0 2 11
0 2 11
0 2 11
0 2 11
0 2 11
0 2 11
0 2 11
0 2 11
0 2 11
0 2 11
0 2 11
0 2 11
0 2 11
0 2 11
0 2 11
0 2 11
0 2 11
0 2 11
0 2 11
0 2 11
0 2 11
0 2 11
0 2 11
0 2 11
0 2 11
0 2 11
0 2 11
0 2 11
0 2 11
0 2 11
0 2 11
0 2 11
0 2 11
0 2 11
0 2 11
0 2 11
0 2 11
0 2 11
0 2 11
0 2 11
0 2 11
0 2 11
0 2 11
0 2 11
0 2 11
0 2 11
0 2 11
0 2 11
0 2 11
0 2 11
0 2 11
0 2 11
0 2 11
0 2 11
0 2 11
0 2 11
0 2 11
0 2 11
0 2 11
0 2 11
0 2 11
0 2 11
0 2 11
0 2 11
0 2 11
0 2 11
0 2 11
0 2 11
0 2 11
0 2 11
0 2 11
0 2 11
0 2 11
0 2 11
0 2 11
0 2 11
0 2 11
0 2 11
0 2 11
0 2 11
0 2 11
0 2 11
0 2 11
0 2 11
0 2 11
0 2 11
0 2 11
0 2 11
0 2 11
0 2 11
0 2 11
0 2 11
0 2 11
0 2 11
0 2 11
0 2 11
0 2 11
0 2 11
0 2 11
0 2 11
0 2 11
0 2 11
0 2 11
0 2 11
0 2 11
0 2 11
0 2 11
0 2 11
0 2 11
0 2 11
0 2 11
0 2 11
0 2 11
0 2 11
0 2 11
0 2 11
0 2 11
0 2 11
0 2 11
0 2 11
0 2 11
0 2 11
0 2 11
0 2 11
0 2 11
0 2 11
0 2 11
0 2 11
0 2 11
0 2 11
0 2 11
0 2 11
0 2 11
0 2 11
0 2 11
0 2 11
0 2 11
0 2 11
0 2 11
0 2 11
0 2 11
0 2 11
0 2 11
0 2 11
0 2 11
0 2 11
0 2 11
0 2 11
0 2 11
0 2 11
0 2 11
0 2 11
0 2 11
0 2 11
0 2 11
0 2 11
0 2 11
0 2 11
0 2 11
0 2 11
0 2 11
0 2 11
0 2 11
0 2 11
0 2 11
0 2 11
0 2 11
0 2 11
0 2 11
0 2 11
0 2 11
0 2 11
0 2 11
0 2 11
0 2 11
0 2 11
0 2 11
0 2 11
0 2 11
0 2 11
0 2 11
0 2 11
0 2 11
0 2 11
0 2 11
0 2 11
0 2 11
0 2 11
0 2 11
0 2 11
0 2 11
0 2 11
0 2 11
0 2 11
0 2 11
0 2 11
0 2 11
0 2 11
0 2 11
0 2 11
0 2 11
0 2 11
0 2 11
0 2 11
0 2 11
0 2 11
0 2 11
0 2 11
0 2 11
0 2 11
0 2 11
0 2 11
0 2 11
0 2 11
0 2 11
0 2 11
0 2 11
0 2 11
0 2 11
0 2 11
0 2 11
0 2 11
0 2 11
0 2 11
0 2 11
0 2 11
0 2 11
0 2 11
0 2 11
0 2 11
0 2 11
0 2 11
0 2 11
0 2 11
0 2 11
0 2 11
0 2 11
0 2 11
0 2 11
0 2 11
0 2 11
0 2 11
0 2 11
0 2 11
0 2 11
0 2 11
0 2 11
0 2 11
0 2 11
0 2 11
0 2 11
0 2 11
0 2 11
0 2 11
0 2 11
0 2 11
0 2 11
0 2 11
0 2 11
0 2 11
0 2 11
0 2 11
0 2 11
0 2 11
0 2 11
0 2 11
0 2 11
0 2 11
0 2 11
0 2 11
0 2 11
0 2 11
0 2 11
0 2 11
0 2 11
0 2 11
0 2 11
0 2 11
0 2 11
0 2 11
0 2 11
0 2 11
0 2 11
0 2 11
0 2 11
0 2 11
0 2 11
0 2 11
0 2 11
0 2 11
0 2 11
0 2 11
0 2 11
0 2 11
0 2 11
0 2 11
0 2 11
0 2 11
0 2 11
0 2 11
0 2 11
0 2 11
0 2 11
0 2 11
0 2 11
0 2 11
0 2 11
0 2 11
0 2 11
0 2 11
0 2 11
0 2 11
0 2 11
0 2 11
0 2 11
0 2 11
0 2 11
0 2 11
0 2 11
0 2 11
0 2 11
0 2 11
0 2 11
0 2 11
0 2 11
0 2 11
0 2 11
0 2 11
0 2 11
0 2 11
0 2 11
0 2 11
0 2 11
0 2 11
0 2 11
0 2 11
0 2 11
0 2 11
0 2 11
0 2 11
0 2 11
0 2 11
0 2 11
0 2 11
0 2 11
0 2 11
0 2 11
0 2 11
0 2 11
0 2 11
0 2 11
0 2 11
0 2 11
0 2 11
0 2 11
0 2 11
0 2 11
0 2 11
0 2 11
0 2 11
0 2 11
0 2 11
0 2 11
0 2 11
0 2 11
0 2 11
0 2 11
0 2 11
0 2 11
0 2 11
0 2 11
0 2 11
0 2 11
0 2 11
0 2 11
0 2 11
0 2 11
0 2 11
0 2 11
0 2 11
0 2 11
0 2 11
0 2 11
0 2 11
0 2 11
0 2 11
0 2 11
0 2 11
0 2 11
0 2 11
0 2 11
0 2 11
0 2 11
0 2 11
0 2 11
0 2 11
0 2 11
0 2 11
0 2 11
0 2 11
0 2 11
0 2 11
0 2 11
0 2 11
0 2 11
0 2 11
0 2 11
0 2 11
0 2 11
0 2 11
0 2 11
0 2 11
0 2 11
0 2 11
0 2 11
0 2 11
0 2 11
0 2 11
0 2 11
0 2 11
0 2 11
0 2 11
0 2 11
0 2 11
0 2 11
0 2 11
0 2 11
0 2 11
0 2 11
0 2 11
0 2 11
0 2 11
0 2 11
0 2 11
0 2 11
0 2 11
0 2 11
0 2 11
0 2 11
0 2 11
0 2 11
0 2 11
0 2 11
0 2 11
0 2 11
0 2 11
0 2 11
0 2 11
0 2 11
0 2 11
0 2 11
0 2 11
0 2 11
0 2 11
0 2 11
0 2 11
0 2 11
0 2 11
0 2 11
0 2 11
0 2 11
0 2 11
0 2 11
0 2 11
0 2 11
0 2 11
0 2 11
0 2 11
0 2 11
0 2 11
0 2 11
0 2 11
0 2 11
0 2 11
0 2 11
0 2 11
0 2 11
0 2 11
0 2 11
0 2 11
0 2 11
0 2 11
0 2 11
0 2 11
0 2 11
0 2 11
0 2 11
0 2 11
0 2 11
0 2 11
0 2 11
0 2 11
0 2 11
0 2 11
0 2 11
0 2 11
0 2 11
0 2 11
0 2 11
0 2 11
0 2 11
0 2 11
0 2 11
0 2 11
0 2 11
0 2 11
0 2 11
0 2 11
0 2 11
0 2 11
0 2 11
0 2 11
0 2 11
0 2 11
0 2 11
0 2 11
0 2 11
0 2 11
0 2 11
0 2 11
0 2 11
0 2 11
0 2 11
0 2 11
0 2 11
0 2 11
0 2 11
0 2 11
0 2 11
0 2 11
0 2 11
0 2 11
0 2 11
0 2 11
0 2 11
0 2 11
0 2 11
0 2 11
0 2 11
0 2 11
0 2 11
0 2 11
0 2 11
0 2 11
0 2 11
0 2 11
0 2 11
0 2 11
0 2 11
0 2 11
0 2 11
0 2 11
0 2 11
0 2 11
0 2 11
0 2 11
0 2 11
0 2 11
0 2 11
0 2 11
0 2 11
0 2 11
0 2 11
0 2 11
0 2 11
0 2 11
0 2 11
0 2 11
0 2 11
0 2 11
0 2 11
0 2 11
0 2 11
0 2 11
0 2 11
0 2 11
0 2 11
0 2 11
0 2 11
0 2 11
0 2 11
0 2 11
0 2 11
0 2 11
0 2 11
0 2 11
0 2 11
0 2 11
0 2 11
0 2 11
0 2 11
0 2 11
0 2 11
0 2 11
0 2 11
0 2 11
0 2 11
0 2 11
0 2 11
0 2 11
0 2 11
0 2 11
0 2 11
0 2 11
0 2 11
0 2 11
0 2 11
0 2 11
0 2 11
0 2 11
0 2 11
0 2 11
0 2 11
0 2 11
0 2 11
0 2 11
0 2 11
0 2 11
0 2 11
0 2 11
0 2 11
0 2 11
0 2 11
0 2 11
0 2 11
0 2 11
0 2 11
0 2 11
0 2 11
0 2 11
0 2 11
0 2 11
0 2 11
0 2 11
0 2 11
0 2 11
0 2 11
0 2 11
0 2 11
0 2 11
0 2 11
0 2 11
0 2 11
0 2 11
0 2 11
0 2 11
0 2 11
0 2 11
0 2 11
0 2 11
0 2 11
0 2 11
0 2 11
0 2 11
0 2 11
0 2 11
0 2 11
0 2 11
0 2 11
0 2 11
0 2 11
0 2 11
0 2 11
0 2 11
0 2 11
0 2 11
0 2 11
0 2 11
0 2 11
0 2 11
0 2 11
0 2 11
0 2 11
0 2 11
0 2 11
0 2 11
0 2 11
0 2 11
0 2 11
0 2 11
0 2 11
0 2 11
0 2 11
0 2 11
0 2 11
0 2 11
0 2 11
0 2 11
0 2 11
0 2 11
0 2 11
0 2 11
0 2 11
0 2 11
0 2 11
0 2 11
0 2 11
0 2 11
0 2 11
0 2 11
0 2 11
0 2 11
0 2 11
0 2 11
0 2 11
0 2 11
0 2 11
0 2 11
0 2 11
0 2 11
0 2 11
0 2 11
0 2 11
0 2 11
0 2 11
0 2 11
0 2 11
0 2 11
0 2 11
0 2 11
0 2 11
0 2 11
0 2 11
0 2 11
0 2 11
0 2 11
0 2 11
0 2 11
0 2 11
0 2 11
0 2 11
0 2 11
0 2 11
0 2 11
0 2 11
0 2 11
0 2 11
0 2 11
0 2 11
0 2 11
0 2 11
0 2 11
0 2 11
0 2 11
0 2 11
0 2 11
0 2 11
0 2 11
0 2 11
0 2 11
0 2 11
0 2 11
0 2 11
0 2 11
0 2 11
0 2 11
0 2 11
0 2 11
0 2 11
0 2 11
0 2 11
0 2 11
0 2 11
0 2 11
0 2 11
0 2 11
0 2 11
0 2 11
0 2 11
0 2 11
0 2 11
0 2 11
0 2 11
0 2 11
0 2 11
0 2 11
0 2 11
0 2 11
0 2 11
0 2 11
0 2 11
0 2 11
0 2 11
0 2 11
0 2 11
0 2 11
0 2 11
0 2 11
0 2 11
0 2 11
0 2 11
0 2 11
0 2 11
0 2 11
0 2 11
0 2 11
0 2 11
0 2 11
0 2 11
0 2 11
0 2 11
0 2 11
0 2 11
0 2 11
0 2 11
0 2 11
0 2 11
0 2 11
0 2 11
0 2 11
0 2 11
0 2 11
0 2 11
0 2 11
0 2 11
0 2 11
0 2 11
0 2 11
0 2 11
0 2 11
0 2 11
0 2 11
0 2 11
0 2 11
0 2 11
0 2 11
0 2 11
0 2 11
0 2 11
0 2 11
0 2 11
0 2 11
0 2 11
0 2 11
0 2 11
0 2 11
0 2 11
0 2 11
0 2 11
0 2 11
0 2 11
0 2 11
0 2 11
0 2 11
0 2 11
0 2 11
0 2 11
0 2 11
0 2 11
0 2 11
0 2 11
0 2 11
0 2 11
0 2 11
0 2 11
0 2 11
0 2 11
0 2 11
0 2 11
0 2 11
0 2 11
0 2 11
0 2 11
0 2 11
0 2 11
0 2 11
0 2 11
0 2 11
0 2 11
0 2 11
0 2 11
0 2 11
0 2 11
0 2 11
0 2 11
0 2 11
0 2 11
0 2 11
0 2 11
0 2 11
0 2 11
0 2 11
0 2 11
0 2 11
0 2 11
0 2 11
0 2 11
0 2 11
0 2 11
0 2 11
0 2 11
0 2 11
0 2 11
0 2 11
0 2 11
0 2 11
0 2 11
0 2 11
0 2 11
0 2 11
0 2 11
0 2 11
0 2 11
0 2 11
0 2 11
0 2 11
0 2 11
0 2 11
0 2 11
0 2 11
0 2 11
0 2 11
0 2 11
0 2 11
0 2 11
0 2 11
0 2 11
0 2 11
0 2 11
0 2 11
0 2 11
0 2 11
0 2 11
0 2 11
0 2 11
0 2 11
0 2 11
0 2 11
0 2 11
0 2 11
0 2 11
0 2 11
0 2 11
0 2 11
0 2 11
0 2 11
0 2 11
0 2 11
0 2 11
0 2 11
0 2 11
0 2 11
0 2 11
0 2 11
0 2 11
0 2 11
0 2 11
0 2 11
0 2 11
0 2 11
0 2 11
0 2 11
0 2 11
0 2 11
0 2 11
0 2 11
0 2 11
0 2 11
0 2 11
0 2 11
0 2 11
0 2 11
0 2 11
0 2 11
0 2 11
0 2 11
0 2 11
0 2 11
0 2 11
0 2 11
0 2 11
0 2 11
0 2 11
0 2 11
0 2 11
0 2 11
0 2 11
0 2 11
0 2 11
0 2 11
0 2 11
0 2 11
0 2 11
0 2 11
0 2 11
0 2 11
0 2 11
0 2 11
0 2 11
0 2 11
0 2 11
0 2 11
0 2 11
0 2 11
0 2 11
0 2 11
0 2 11
0 2 11
0 2 11
0 2 11
0 2 11
0 2 11
0 2 11
0 2 11
0 2 11
0 2 11
0 2 11
0 2 11
0 2 11
0 2 11
0 2 11
0 2 11
0 2 11
0 2 11
0 2 11
0 2 11
0 2 11
0 2 11
0 2 11
0 2 11
0 2 11
0 2 11
0 2 11
0 2 11
0 2 11
0 2 11
0 2 11
0 2 11
0 2 11
0 2 11
0 2 11
0 2 11
0 2 11
0 2 11
0 2 11
0 2 11
0 2 11
0 2 11
0 2 11
0 2 11
0 2 11
0 2 11
0 2 11
0 2 11
0 2 11
0 2 11
0 2 11
0 2 11
0 2 11
0 2 11
0 2 11
0 2 11
0 2 11
0 2 11
0 2 11
0 2 11
0 2 11
0 2 11
0 2 11
0 2 11
0 2 11
0 2 11
0 2 11
0 2 11
0 2 11
0 2 11
0 2 11
0 2 11
0 2 11
0 2 11
0 2 11
0 2 11
0 2 11
0 2 11
0 2 11
0 2 11
0 2 11
0 2 11
0 2 11
0 2 11
0 2 11
0 2 11
0 2 11
0 2 11
0 2 11
0 2 11
0 2 11
0 2 11
0 2 11
0 2 11
0 2 11
0 2 11
0 2 11
0 2 11
0 2 11
0 2 11
0 2 11
0 2 11
0 2 11
0 2 11
0 2 11
0 2 11
0 2 11
0 2 11
0 2 11
0 2 11
0 2 11
0 2 11
0 2 11
0 2 11
0 2 11
0 2 11
0 2 11
0 2 11
0 2 11
0 2 11
0 2 11
0 2 11
0 2 11
0 2 11
0 2 11
0 2 11
0 2 11
0 2 11
0 2 11
0 2 11
0 2 11
0 2 11
0 2 11
0 2 11
0 2 11
0 2 11
0 2 11
0 2 11
0 2 11
0 2 11
0 2 11
0 2 11
0 2 11
0 2 11
0 2 11
0 2 11
0 2 11
0 2 11
0 2 11
0 2 11
0 2 11
0 2 11
0 2 11
0 2 11
0 2 11
0 2 11
0 2 11
0 2 11
0 2 11
0 2 11
0 2 11
0 2 11
0 2 11
0 2 11
0 2 11
0 2 11
0 2 11
0 2 11
0 2 11
0 2 11
0 2 11
0 2 11
0 2 11
0 2 11
0 2 11
0 2 11
0 2 11
0 2 11
0 2 11
0 2 11
0 2 11
0 2 11
0 2 11
0 2 11
0 2 11
0 2 11
0 2 11
0 2 11
0 2 11
0 2 11
0 2 11
0 2 11
0 2 11
0 2 11
0 2 11
0 2 11
0 2 11
0 2 11
0 2 11
0 2 11
0 2 11
0 2 11
0 2 11
0 2 11
0 2 11
0 2 11
0 2 11
0 2 11
0 2 11
0 2 11
0 2 11
0 2 11
0 2 11
0 2 11
0 2 11
0 2 11
0 2 11
0 2 11
0 2 11
0 2 11
0 2 11
0 2 11
0 2 11
0 2 11
0 2 11
0 2 11
0 2 11
0 2 11
0 2 11
0 2 11
0 2 11
0 2 11
0 2 11
0 2 11
0 2 11
0 2 11
0 2 11
0 2 11
0 2 11
0 2 11
0 2 11
0 2 11
0 2 11
0 2 11
0 2 11
0 2 11
0 2 11
0 2 11
0 2 11
0 2 11
0 2 11
0 2 11
0 2 11
0 2 11
0 2 11
0 2 11
0 2 11
0 2 11
0 2 11
0 2 11
0 2 11
0 2 11
0 2 11
0 2 11
0 2 11
0 2 11
0 2 11
0 2 11
0 2 11
0 2 11
0 2 11
0 2 11
0 2 11
0 2 11
0 2 11
0 2 11
0 2 11
0 2 11
0 2 11
0 2 11
0 2 11
0 2 11
0 2 11
0 2 11
0 2 11
0 2 11
0 2 11
0 2 11
0 2 11
0 2 11
0 2 11
0 2 11
0 2 11
0 2 11
0 2 11
0 2 11
0 2 11
0 2 11
0 2 11
0 2 11
0 2 11
0 2 11
0 2 11
0 2 11
0 2 11
0 2 11
0 2 11
0 2 11
0 2 11
0 2 11
0 2 11
0 2 11
0 2 11
0 2 11
0 2 11
0 2 11
0 2 11
0 2 11
0 2 11
0 2 11
0 2 11
0 2 11
0 2 11
0 2 11
0 2 11
0 2 11
0 2 11
0 2 11
0 2 11
0 2 11
0 2 11
0 2 11
0 2 11
0 2 11
0 2 11
0 2 11
0 2 11
0 2 11
0 2 11
0 2 11
0 2 11
0 2 11
0 2 11
0 2 11
0 2 11
0 2 11
0 2 11
0 2 11
0 2 11
0 2 11
0 2 11
0 2 11
0 2 11
0 2 11
0 2 11
0 2 11
0 2 11
0 2 11
0 2 11
0 2 11
0 2 11
0 2 11
0 2 11
0 2 11
0 2 11
0 2 11
0 2 11
0 2 11
0 2 11
0 2 11
0 2 11
0 2 11
0 2 11
0 2 11
0 2 11
0 2 11
0 2 11
0 2 11
0 2 11
0 2 11
0 2 11
0 2 11
0 2 11
0 2 11
0 2 11
0 2 11
0 2 11
0 2 11
0 2 11
0 2 11
0 2 11
0 2 11
0 2 11
0 2 11
0 2 11
0 2 11
0 2 11
0 2 11
0 2 11
0 2 11
0 2 11
0 2 11
0 2 11
0 2 11
0 2 11
0 2 11
0 2 11
0 2 11
0 2 11
0 2 11
0 2 11
0 2 11
0 2 11
0 2 11
0 2 11
0 2 11
0 2 11
0 2 11
0 2 11
0 2 11
0 2 11
0 2 11
0 2 11
0 2 11
0 2 11
0 2 11
0 2 11
0 2 11
0 2 11
0 2 11
0 2 11
0 2 11
0 2 11
0 2 11
0 2 11
0 2 11
0 2 11
0 2 11
0 2 11
0 2 11
0 2 11
0 2 11
0 2 11
0 2 11
0 2 11
0 2 11
0 2 11
0 2 11
0 2 11
0 2 11
0 2 11
0 2 11
0 2 11
0 2 11
0 2 11
0 2 11
0 2 11
0 2 11
0 2 11
0 2 11
0 2 11
0 2 11
0 2 11
0 2 11
0 2 11
0 2 11
0 2 11
0 2 11
0 2 11
0 2 11
0 2 11
0 2 11
0 2 11
0 2 11
0 2 11
0 2 11
0 2 11
0 2 11
0 2 11
0 2 11
0 2 11
0 2 11
0 2 11
0 2 11
0 2 11
0 2 11
0 2 11
0 2 11
0 2 11
0 2 11
0 2 11
0 2 11
0 2 11
0 2 11
0 2 11
0 2 11
0 2 11
0 2 11
0 2 11
0 2 11
0 2 11
0 2 11
0 2 11
0 2 11
0 2 11
0 2 11
0 2 11
0 2 11
0 2 11
0 2 11
0 2 11
0 2 11
0 2 11
0 2 11
0 2 11
0 2 11
0 2 11
0 2 11
0 2 11
0 2 11
0 2 11
0 2 11
0 2 11
0 2 11
0 2 11
0 2 11
0 2 11
0 2 11
0 2 11
0 2 11
0 2 11
0 2 11
0 2 11
0 2 11
0 2 11
0 2 11
0 2 11
0 2 11
0 2 11
0 2 11
0 2 11
0 2 11
0 2 11
0 2 11
0 2 11
0 2 11
0 2 11
0 2 11
0 2 11
0 2 11
0 2 11
0 2 11
0 2 11
0 2 11
0 2 11
0 2 11
0 2 11
0 2 11
0 2 11
0 2 11
0 2 11
0 2 11
0 2 11
0 2 11
0 2 11
0 2 11
0 2 11
0 2 11
0 2 11
0 2 11
0 2 11
0 2 11
0 2 11
0 2 11
0 2 11
0 2 11
0 2 11
0 2 11
0 2 11
0 2 11
0 2 11
0 2 11
0 2 11
0 2 11
0 2 11
0 2 11
0 2 11
0 2 11
0 2 11
0 2 11
0 2 11
0 2 11
0 2 11
0 2 11
0 2 11
0 2 11
0 2 11
0 2 11
0 2 11
0 2 11
0 2 11
0 2 11
0 2 11
0 2 11
0 2 11
0 2 11
0 2 11
0 2 11
0 2 11
0 2 11
0 2 11
0 2 11
0 2 11
0 2 11
0 2 11
0 2 11
0 2 11
0 2 11
0 2 11
0 2 11
0 2 11
0 2 11
0 2 11
0 2 11
0 2 11
0 2 11
0 2 11
0 2 11
0 2 11
0 2 11
0 2 11
0 2 11
0 2 11
0 2 11
0 2 11
0 2 11
0 2 11
0 2 11
0 2 11
0 2 11
0 2 11
0 2 11
0 2 11
0 2 11
0 2 11
0 2 11
0 2 11
0 2 11
0 2 11
0 2 11
0 2 11
0 2 11
0 2 11
0 2 11
0 2 11
0 2 11
0 2 11
0 2 11
0 2 11
0 2 11
0 2 11
0 2 11
0 2 11
0 2 11
0 2 11
0 2 11
0 2 11
0 2 11
0 2 11
0 2 11
0 2 11
0 2 11
0 2 11
0 2 11
0 2 11
0 2 11
0 2 11
0 2 11
0 2 11
0 2 11
0 2 11
0 2 11
0 2 11
0 2 11
0 2 11
0 2 11
0 2 11
0 2 11
0 2 11
0 2 11
0 2 11
0 2 11
0 2 11
0 2 11
0 2 11
0 2 11
0 2 11
0 2 11
0 2 11
0 2 11
0 2 11
0 2 11
0 2 11
0 2 11
0 2 11
0 2 11
0 2 11
0 2 11
0 2 11
0 2 11
0 2 11
0 2 11
0 2 11
0 2 11
0 2 11
0 2 11
0 2 11
0 2 11
0 2 11
0 2 11
0 2 11
0 2 11
0 2 11
0 2 11
0 2 11
0 2 11
0 2 11
0 2 11
0 2 11
0 2 11
0 2 11
0 2 11
0 2 11
0 2 11
0 2 11
0 2 11
0 2 11
0 2 11
0 2 11
0 2 11
0 2 11
0 2 11
0 2 11
0 2 11
0 2 11
0 2 11
0 2 11
0 2 11
0 2 11
0 2 11
0 2 11
0 2 11
0 2 11
0 2 11
0 2 11
0 2 11
0 2 11
0 2 11
0 2 11
0 2 11
0 2 11
0 2 11
0 2 11
0 2 11
0 2 11
0 2 11
0 2 11
0 2 11
0 2 11
0 2 11
0 2 11
0 2 11
0 2 11
0 2 11
0 2 11
0 2 11
0 2 11
0 2 11
0 2 11
0 2 11
0 2 11
0 2 11
0 2 11
0 2 11
0 2 11
0 2 11
0 2 11
0 2 11
0 2 11
0 2 11
0 2 11
0 2 11
0 2 11
0 2 11
0 2 11
0 2 11
0 2 11
0 2 11
0 2 11
0 2 11
0 2 11
0 2 11
0 2 11
0 2 11
0 2 11
0 2 11
0 2 11
0 2 11
0 2 11
0 2 11
0 2 11
0 2 11
0 2 11
0 2 11
0 2 11
0 2 11
0 2 11
0 2 11
0 2 11
0 2 11
0 2 11
0 2 11
0 2 11
0 2 11
0 2 11
0 2 11
0 2 11
0 2 11
0 2 11
0 2 11
0 2 11
0 2 11
0 2 11
0 2 11
0 2 11
0 2 11
0 2 11
0 2 11
0 2 11
0 2 11
0 2 11
0 2 11
0 2 11
0 2 11
0 2 11
0 2 11
0 2 11
0 2 11
0 2 11
0 2 11
0 2 11
0 2 11
0 2 11
0 2 11
0 2 11
0 2 11
0 2 11
0 2 11
0 2 11
0 2 11
0 2 11
0 2 11
0 2 11
0 2 11
0 2 11
0 2 11
0 2 11
0 2 11
0 2 11
0 2 11
0 2 11
0 2 11
0 2 11
0 2 11
0 2 11
0 2 11
0 2 11
0 2 11
0 2 11
0 2 11
0 2 11
0 2 11
0 2 11
0 2 11
0 2 11
0 2 11
0 2 11
0 2 11
0 2 11
0 2 11
0 2 11
0 2 11
0 2 11
0 2 11
0 2 11
0 2 11
0 2 11
0 2 11
0 2 11
0 2 11
0 2 11
0 2 11
0 2 11
0 2 11
0 2 11
0 2 11
0 2 11
0 2 11
0 2 11
0 2 11
0 2 11
0 2 11
0 2 11
0 2 11
0 2 11
0 2 11
0 2 11
0 2 11
0 2 11
0 2 11
0 2 11
0 2 11
0 2 11
0 2 11
0 2 11
0 2 11
0 2 11
0 2 11
0 2 11
0 2 11
0 2 11
0 2 11
0 2 11
0 2 11
0 2 11
0 2 11
0 2 11
0 2 11
0 2 11
0 2 11
0 2 11
0 2 11
0 2 11
0 2 11
0 2 11
0 2 11
0 2 11
0 2 11
0 2 11
0 2 11
0 2 11
0 2 11
0 2 11
0 2 11
0 2 11
0 2 11
0 2 11
0 2 11
0 2 11
0 2 11
0 2 11
0 2 11
0 2 11
0 2 11
0 2 11
0 2 11
0 2 11
0 2 11
0 2 11
0 2 11
0 2 11
0 2 11
0 2 11
0 2 11
0 2 11
0 2 11
0 2 11
0 2 11
0 2 11
0 2 11
0 2 11
0 2 11
0 2 11
0 2 11
0 2 11
0 2 11
0 2 11
0 2 11
0 2 11
0 2 11
0 2 11
0 2 11
0 2 11
0 2 11
0 2 11
0 2 11
0 2 11
0 2 11
0 2 11
0 2 11
0 2 11
0 2 11
0 2 11
0 2 11
0 2 11
0 2 11
0 2 11
0 2 11
0 2 11
0 2 11
0 2 11
0 2 11
0 2 11
0 2 11
0 2 11
0 2 11
0 2 11
0 2 11
0 2 11
0 2 11
0 2 11
0 2 11
0 2 11
0 2 11
0 2 11
0 2 11
0 2 11
0 2 11
0 2 11
0 2 11
0 2 11
0 2 11
0 2 11
0 2 11
0 2 11
0 2 11
0 2 11
0 2 11
0 2 11
0 2 11
0 2 11
0 2 11
0 2 11
0 2 11
0 2 11
0 2 11
0 2 11
0 2 11
0 2 11
0 2 11
0 2 11
0 2 11
0 2 11
0 2 11
0 2 11
0 2 11
0 2 11
0 2 11
0 2 11
0 2 11
0 2 11
0 2 11
0 2 11
0 2 11
0 2 11
0 2 11
0 2 11
0 2 11
0 2 11
0 2 11
0 2 11
0 2 11
0 2 11
0 2 11
0 2 11
0 2 11
0 2 11
0 2 11
0 2 11
0 2 11
0 2 11
0 2 11
0 2 11
0 2 11
0 2 11
0 2 11
0 2 11
0 2 11
0 2 11
0 2 11
0 2 11
0 2 11
0 2 11
0 2 11
0 2 11
0 2 11
0 2 11
0 2 11
0 2 11
0 2 11
0 2 11
0 2 11
0 2 11
0 2 11
0 2 11
0 2 11
0 2 11
0 2 11
0 2 11
0 2 11
0 2 11
0 2 11
0 2 11
0 2 11
0 2 11
0 2 11
0 2 11
0 2 11
0 2 11
0 2 11
0 2 11
0 2 11
0 2 11
0 2 11
0 2 11
0 2 11
0 2 11
0 2 11
0 2 11
0 2 11
0 2 11
0 2 11
0 2 11
0 2 11
0 2 11
0 2 11
0 2 11
0 2 11
0 2 11
0 2 11
0 2 11
0 2 11
0 2 11
0 2 11
0 2 11
0 2 11
0 2 11
0 2 11
0 2 11
0 2 11
0 2 11
0 2 11
0 2 11
0 2 11
0 2 11
0 2 11
0 2 11
0 2 11
0 2 11
0 2 11
0 2 11
0 2 11
0 2 11
0 2 11
0 2 11
0 2 11
0 2 11
0 2 11
0 2 11
0 2 11
0 2 11
0 2 11
0 2 11
0 2 11
0 2 11
0 2 11
0 2 11
0 2 11
0 2 11
0 2 11
0 2 11
0 2 11
0 2 11
0 2 11
0 2 11
0 2 11
0 2 11
0 2 11
0 2 11
0 2 11
0 2 11
0 2 11
0 2 11
0 2 11
0 2 11
0 2 11
0 2 11
0 2 11
0 2 11
0 2 11
0 2 11
0 2 11
0 2 11
0 2 11
0 2 11
0 2 11
0 2 11
0 2 11
0 2 11
0 2 11
0 2 11
0 2 11
0 2 11
0 2 11
0 2 11
0 2 11
0 2 11
0 2 11
0 2 11
0 2 11
0 2 11
0 2 11
0 2 11
0 2 11
0 2 11
0 2 11
0 2 11
0 2 11
0 2 11
0 2 11
0 2 11
0 2 11
0 2 11
0 2 11
0 2 11
0 2 11
0 2 11
0 2 11
0 2 11
0 2 11
0 2 11
0 2 11
0 2 11
0 2 11
0 2 11
0 2 11
0 2 11
0 2 11
0 2 11
0 2 11
0 2 11
0 2 11
0 2 11
0 2 11
0 2 11
0 2 11
0 2 11
0 2 11
0 2 11
0 2 11
0 2 11
0 2 11
0 2 11
0 2 11
0 2 11
0 2 11
0 2 11
0 2 11
0 2 11
0 2 11
0 2 11
0 2 11
0 2 11
0 2 11
0 2 11
0 2 11
0 2 11
0 2 11
0 2 11
0 2 11
0 2 11
0 2 11
0 2 11
0 2 11
0 2 11
0 2 11
0 2 11
0 2 11
0 2 11
0 2 11
0 2 11
0 2 11
0 2 11
0 2 11
0 2 11
0 2 11
0 2 11
0 2 11
0 2 11
0 2 11
0 2 11
0 2 11
0 2 11
0 2 11
0 2 11
0 2 11
0 2 11
0 2 11
0 2 11
0 2 11
0 2 11
0 2 11
0 2 11
0 2 11
0 2 11
0 2 11
0 2 11
0 2 11
0 2 11
0 2 11
0 2 11
0 2 11
0 2 11
0 2 11
0 2 11
0 2 11
0 2 11
0 2 11
0 2 11
0 2 11
0 2 11
0 2 11
0 2 11
0 2 11
0 2 11
0 2 11
0 2 11
0 2 11
0 2 11
0 2 11
0 2 11
0 2 11
0 2 11
0 2 11
0 2 11
0 2 11
0 2 11
0 2 11
0 2 11
0 2 11
0 2 11
0 2 11
0 2 11
0 2 11
0 2 11
0 2 11
0 2 11
0 2 11
0 2 11
0 2 11
0 2 11
0 2 11
0 2 11
0 2 11
0 2 11
0 2 11
0 2 11
0 2 11
0 2 11
0 2 11
0 2 11
0 2 11
0 2 11
0 2 11
0 2 11
0 2 11
0 2 11
0 2 11
0 2 11
0 2 11
0 2 11
0 2 11
0 2 11
0 2 11
0 2 11
0 2 11
0 2 11
0 2 11
0 2 11
0 2 11
0 2 11
0 2 11
0 2 11
0 2 11
0 2 11
0 2 11
0 2 11
0 2 11
0 2 11
0 2 11
0 2 11
0 2 11
0 2 11
0 2 11
0 2 11
0 2 11
0 2 11
0 2 11
0 2 11
0 2 11
0 2 11
0 2 11
0 2 11
0 2 11
0 2 11
0 2 11
0 2 11
0 2 11
0 2 11
0 2 11
0 2 11
0 2 11
0 2 11
0 2 11
0 2 11
0 2 11
0 2 11
0 2 11
0 2 11
0 2 11
0 2 11
0 2 11
0 2 11
0 2 11
0 2 11
0 2 11
0 2 11
0 2 11
0 2 11
0 2 11
0 2 11
0 2 11
0 2 11
0 2 11
0 2 11
0 2 11
0 2 11
0 2 11
0 2 11
0 2 11
0 2 11
0 2 11
0 2 11
0 2 11
0 2 11
0 2 11
0 2 11
0 2 11
0 2 11
0 2 11
0 2 11
0 2 11
0 2 11
0 2 11
0 2 11
0 2 11
0 2 11
0 2 11
0 2 11
0 2 11
0 2 11
0 2 11
0 2 11
0 2 11
0 2 11
0 2 11
0 2 11
0 2 11
0 2 11
0 2 11
0 2 11
0 2 11
0 2 11
0 2 11
0 2 11
0 2 11
0 2 11
0 2 11
0 2 11
0 2 11
0 2 11
0 2 11
0 2 11
0 2 11
0 2 11
0 2 11
0 2 11
0 2 11
0 2 11
0 2 11
0 2 11
0 2 11
0 2 11
0 2 11
0 2 11
0 2 11
0 2 11
0 2 11
0 2 11
0 2 11
0 2 11
0 2 11
0 2 11
0 2 11
0 2 11
0 2 11
0 2 11
0 2 11
0 2 11
0 2 11
0 2 11
0 2 11
0 2 11
0 2 11
0 2 11
0 2 11
0 2 11
0 2 11
0 2 11
0 2 11
0 2 11
0 2 11
0 2 11
0 2 11
0 2 11
0 2 11
0 2 11
0 2 11
0 2 11
0 2 11
0 2 11
0 2 11
0 2 11
0 2 11
0 2 11
0 2 11
0 2 11
0 2 11
0 2 11
0 2 11
0 2 11
0 2 11
0 2 11
0 2 11
0 2 11
0 2 11
0 2 11
0 2 11
0 2 11
0 2 11
0 2 11
0 2 11
0 2 11
0 2 11
0 2 11
0 2 11
0 2 11
0 2 11
0 2 11
0 2 11
0 2 11
0 2 11
0 2 11
0 2 11
0 2 11
0 2 11
0 2 11
0 2 11
0 2 11
0 2 11
0 2 11
0 2 11
0 2 11
0 2 11
0 2 11
0 2 11
0 2 11
0 2 11
0 2 11
0 2 11
0 2 11
0 2 11
0 2 11
0 2 11
0 2 11
0 2 11
0 2 11
0 2 11
0 2 11
0 2 11
0 2 11
0 2 11
0 2 11
0 2 11
0 2 11
0 2 11
0 2 11
0 2 11
0 2 11
0 2 11
0 2 11
0 2 11
0 2 11
0 2 11
0 2 11
0 2 11
0 2 11
0 2 11
0 2 11
0 2 11
0 2 11
0 2 11
0 2 11
0 2 11
0 2 11
0 2 11
0 2 11
0 2 11
0 2 11
0 2 11
0 2 11
0 2 11
0 2 11
0 2 11
0 2 11
0 2 11
0 2 11
0 2 11
0 2 11
0 2 11
0 2 11
0 2 11
0 2 11
0 2 11
0 2 11
0 2 11
0 2 11
0 2 11
0 2 11
0 2 11
0 2 11
0 2 11
0 2 11
0 2 11
0 2 11
0 2 11
0 2 11
0 2 11
0 2 11
0 2 11
0 2 11
0 2 11
0 2 11
0 2 11
0 2 11
0 2 11
0 2 11
0 2 11
0 2 11
0 2 11
0 2 11
0 2 11
0 2 11
0 2 11
0 2 11
0 2 11
0 2 11
0 2 11
0 2 11
0 2 11
0 2 11
0 2 11
0 2 11
0 2 11
0 2 11
0 2 11
0 2 11
0 2 11
0 2 11
0 2 11
0 2 11
0 2 11
0 2 11
0 2 11
0 2 11
0 2 11
0 2 11
0 2 11
0 2 11
0 2 11
0 2 11
0 2 11
0 2 11
0 2 11
0 2 11
0 2 11
0 2 11
0 2 11
0 2 11
0 2 11
0 2 11
0 2 11
0 2 11
0 2 11
0 2 11
0 2 11
0 2 11
0 2 11
0 2 11
0 2 11
0 2 11
0 2 11
0 2 11
0 2 11
0 2 11
0 2 11
0 2 11
0 2 11
0 2 11
0 2 11
0 2 11
0 2 11
0 2 11
0 2 11
0 2 11
0 2 11
0 2 11
0 2 11
0 2 11
0 2 11
0 2 11
0 2 11
0 2 11
0 2 11
0 2 11
0 2 11
0 2 11
0 2 11
0 2 11
0 2 11
0 2 11
0 2 11
0 2 11
0 2 11
0 2 11
0 2 11
0 2 11
0 2 11
0 2 11
0 2 11
0 2 11
0 2 11
0 2 11
0 2 11
0 2 11
0 2 11
0 2 11
0 2 11
0 2 11
0 2 11
0 2 11
0 2 11
0 2 11
0 2 11
0 2 11
0 2 11
0 2 11
0 2 11
0 2 11
0 2 11
0 2 11
0 2 11
0 2 11
0 2 11
0 2 11
0 2 11
0 2 11
0 2 11
0 2 11
0 2 11
0 2 11
0 2 11
0 2 11
0 2 11
0 2 11
0 2 11
0 2 11
0 2 11
0 2 11
0 2 11
0 2 11
0 2 11
0 2 11
0 2 11
0 2 11
0 2 11
0 2 11
0 2 11
0 2 11
0 2 11
0 2 11
0 2 11
0 2 11
0 2 11
0 2 11
0 2 11
0 2 11
0 2 11
0 2 11
0 2 11
0 2 11
0 2 11
0 2 11
0 2 11
0 2 11
0 2 11
0 2 11
0 2 11
0 2 11
0 2 11
0 2 11
0 2 11
0 2 11
0 2 11
0 2 11
0 2 11
0 2 11
0 2 11
0 2 11
0 2 11
0 2 11
0 2 11
0 2 11
0 2 11
0 2 11
0 2 11
0 2 11
0 2 11
0 2 11
0 2 11
0 2 11
0 2 11
0 2 11
0 2 11
0 2 11
0 2 11
0 2 11
0 2 11
0 2 11
0 2 11
0 2 11
0 2 11
0 2 11
0 2 11
0 2 11
0 2 11
0 2 11
0 2 11
0 2 11
0 2 11
0 2 11
0 2 11
0 2 11
0 2 11
0 2 11
0 2 11
0 2 11
0 2 11
0 2 11
0 2 11
0 2 11
0 2 11
0 2 11
0 2 11
0 2 11
0 2 11
0 2 11
0 2 11
0 2 11
0 2 11
0 2 11
0 2 11
0 2 11
0 2 11
0 2 11
0 2 11
0 2 11
0 2 11
0 2 11
0 2 11
0 2 11
0 2 11
0 2 11
0 2 11
0 2 11
0 2 11
0 2 11
0 2 11
0 2 11
0 2 11
0 2 11
0 2 11
0 2 11
0 2 11
0 2 11
0 2 11
0 2 11
0 2 11
0 2 11
0 2 11
0 2 11
0 2 11
0 2 11
0 2 11
0 2 11
0 2 11
0 2 11
0 2 11
0 2 11
0 2 11
0 2 11
0 2 11
0 2 11
0 2 11
0 2 11
0 2 11
0 2 11
0 2 11
0 2 11
0 2 11
0 2 11
0 2 11
0 2 11
0 2 11
0 2 11
0 2 11
0 2 11
0 2 11
0 2 11
0 2 11
0 2 11
0 2 11
0 2 11
0 2 11
0 2 11
0 2 11
0 2 11
0 2 11
0 2 11
0 2 11
0 2 11
0 2 11
0 2 11
0 2 11
0 2 11
0 2 11
0 2 11
0 2 11
0 2 11
0 2 11
0 2 11
0 2 11
0 2 11
0 2 11
0 2 11
0 2 11
0 2 11
0 2 11
0 2 11
0 2 11
0 2 11
0 2 11
0 2 11
0 2 11
0 2 11
0 2 11
0 2 11
0 2 11
0 2 11
0 2 11
0 2 11
0 2 11
0 2 11
0 2 11
0 2 11
0 2 11
0 2 11
0 2 11
0 2 11
0 2 11
0 2 11
0 2 11
0 2 11
0 2 11
0 2 11
0 2 11
0 2 11
0 2 11
0 2 11
0 2 11
0 2 11
0 2 11
0 2 11
0 2 11
0 2 11
0 2 11
0 2 11
0 2 11
0 2 11
0 2 11
0 2 11
0 2 11
0 2 11
0 2 11
0 2 11
0 2 11
0 2 11
0 2 11
0 2 11
0 2 11
0 2 11
0 2 11
0 2 11
0 2 11
0 2 11
0 2 11
0 2 11
0 2 11
0 2 11
0 2 11
0 2 11
0 2 11
0 2 11
0 2 11
0 2 11
0 2 11
0 2 11
0 2 11
0 2 11
0 2 11
0 2 11
0 2 11
0 2 11
0 2 11
0 2 11
0 2 11
0 2 11
0 2 11
0 2 11
0 2 11
0 2 11
0 2 11
0 2 11
0 2 11
0 2 11
0 2 11
0 2 11
0 2 11
0 2 11
0 2 11
0 2 11
0 2 11
0 2 11
0 2 11
0 2 11
0 2 11
0 2 11
0 2 11
0 2 11
0 2 11
0 2 11
0 2 11
0 2 11
0 2 11
0 2 11
0 2 11
0 2 11
0 2 11
0 2 11
0 2 11
0 2 11
0 2 11
0 2 11
0 2 11
0 2 11
0 2 11
0 2 11
0 2 11
0 2 11
0 2 11
0 2 11
0 2 11
0 2 11
0 2 11
0 2 11
0 2 11
0 2 11
0 2 11
0 2 11
0 2 11
0 2 11
0 2 11
0 2 11
0 2 11
0 2 11
0 2 11
0 2 11
0 2 11
0 2 11
0 2 11
0 2 11
0 2 11
0 2 11
0 2 11
0 2 11
0 2 11
0 2 11
0 2 11
0 2 11
0 2 11
0 2 11
0 2 11
0 2 11
0 2 11
0 2 11
0 2 11
0 2 11
0 2 11
0 2 11
0 2 11
0 2 11
0 2 11
0 2 11
0 2 11
0 2 11
0 2 11
0 2 11
0 2 11
0 2 11
0 2 11
0 2 11
0 2 11
0 2 11
0 2 11
0 2 11
0 2 11
0 2 11
0 2 11
0 2 11
0 2 11
0 2 11
0 2 11
0 2 11
0 2 11
0 2 11
0 2 11
0 2 11
0 2 11
0 2 11
0 2 11
0 2 11
0 2 11
0 2 11
0 2 11
0 2 11
0 2 11
0 2 11
0 2 11
0 2 11
0 2 11
0 2 11
0 2 11
0 2 11
0 2 11
0 2 11
0 2 11
0 2 11
0 2 11
0 2 11
0 2 11
0 2 11
0 2 11
0 2 11
0 2 11
0 2 11
0 2 11
0 2 11
0 2 11
0 2 11
0 2 11
0 2 11
0 2 11
0 2 11
0 2 11
0 2 11
0 2 11
0 2 11
0 2 11
0 2 11
0 2 11
0 2 11
0 2 11
0 2 11
0 2 11
0 2 11
0 2 11
0 2 11
0 2 11
0 2 11
0 2 11
0 2 11
0 2 11
0 2 11
0 2 11
0 2 11
0 2 11
0 2 11
0 2 11
0 2 11
0 2 11
0 2 11
0 2 11
0 2 11
0 2 11
0 2 11
0 2 11
0 2 11
0 2 11
0 2 11
0 2 11
0 2 11
0 2 11
0 2 11
0 2 11
0 2 11
0 2 11
0 2 11
0 2 11
0 2 11
0 2 11
0 2 11
0 2 11
0 2 11
0 2 11
0 2 11
0 2 11
0 2 11
0 2 11
0 2 11
0 2 11
0 2 11
0 2 11
0 2 11
0 2 11
0 2 11
0 2 11
0 2 11
0 2 11
0 2 11
0 2 11
0 2 11
0 2 11
0 2 11
0 2 11
0 2 11
0 2 11
0 2 11
0 2 11
0 2 11
0 2 11
0 2 11
0 2 11
0 2 11
0 2 11
0 2 11
0 2 11
0 2 11
0 2 11
0 2 11
0 2 11
0 2 11
0 2 11
0 2 11
0 2 11
0 2 11
0 2 11
0 2 11
0 2 11
0 2 11
0 2 11
0 2 11
0 2 11
0 2 11
0 2 11
0 2 11
0 2 11
0 2 11
0 2 11
0 2 11
0 2 11
0 2 11
0 2 11
0 2 11
0 2 11
0 2 11
0 2 11
0 2 11
0 2 11
0 2 11
0 2 11
0 2 11
0 2 11
0 2 11
0 2 11
0 2 11
0 2 11
0 2 11
0 2 11
0 2 11
0 2 11
0 2 11
0 2 11
0 2 11
0 2 11
0 2 11
0 2 11
0 2 11
0 2 11
0 2 11
0 2 11
0 2 11
0 2 11
0 2 11
0 2 11
0 2 11
0 2 11
0 2 11
0 2 11
0 2 11
0 2 11
0 2 11
0 2 11
0 2 11
0 2 11
0 2 11
0 2 11
0 2 11
0 2 11
0 2 11
0 2 11
0 2 11
0 2 11
0 2 11
0 2 11
0 2 11
0 2 11
0 2 11
0 2 11
0 2 11
0 2 11
0 2 11
0 2 11
0 2 11
0 2 11
0 2 11
0 2 11
0 2 11
0 2 11
0 2 11
0 2 11
0 2 11
0 2 11
0 2 11
0 2 11
0 2 11
0 2 11
0 2 11
0 2 11
0 2 11
0 2 11
0 2 11
0 2 11
0 2 11
0 2 11
0 2 11
0 2 11
0 2 11
0 2 11
0 2 11
0 2 11
0 2 11
0 2 11
0 2 11
0 2 11
0 2 11
0 2 11
0 2 11
0 2 11
0 2 11
0 2 11
0 2 11
0 2 11
0 2 11
0 2 11
0 2 11
0 2 11
0 2 11
0 2 11
0 2 11
0 2 11
0 2 11
0 2 11
0 2 11
0 2 11
0 2 11
0 2 11
0 2 11
0 2 11
0 2 11
0 2 11
0 2 11
0 2 11
0 2 11
0 2 11
0 2 11
0 2 11
0 2 11
0 2 11
0 2 11
0 2 11
0 2 11
0 2 11
0 2 11
0 2 11
0 2 11
0 2 11
0 2 11
0 2 11
0 2 11
0 2 11
0 2 11
0 2 11
0 2 11
0 2 11
0 2 11
0 2 11
0 2 11
0 2 11
0 2 11
0 2 11
0 2 11
0 2 11
0 2 11
0 2 11
0 2 11
0 2 11
0 2 11
0 2 11
0 2 11
0 2 11
0 2 11
0 2 11
0 2 11
0 2 11
0 2 11
0 2 11
0 2 11
0 2 11
0 2 11
0 2 11
0 2 11
0 2 11
0 2 11
0 2 11
0 2 11
0 2 11
0 2 11
0 2 11
0 2 11
0 2 11
0 2 11
0 2 11
0 2 11
0 2 11
0 2 11
0 2 11
0 2 11
0 2 11
0 2 11
0 2 11
0 2 11
0 2 11
0 2 11
0 2 11
0 2 11
0 2 11
0 2 11
0 2 11
0 2 11
0 2 11
0 2 11
0 2 11
0 2 11
0 2 11
0 2 11
0 2 11
0 2 11
0 2 11
0 2 11
0 2 11
0 2 11
0 2 11
0 2 11
0 2 11
0 2 11
0 2 11
0 2 11
0 2 11
0 2 11
0 2 11
0 2 11
0 2 11
0 2 11
0 2 11
0 2 11
0 2 11
0 2 11
0 2 11
0 2 11
0 2 11
0 2 11
0 2 11
0 2 11
0 2 11
0 2 11
0 2 11
0 2 11
0 2 11
0 2 11
0 2 11
0 2 11
0 2 11
0 2 11
0 2 11
0 2 11
0 2 11
0 2 11
0 2 11
0 2 11
0 2 11
0 2 11
0 2 11
0 2 11
0 2 11
0 2 11
0 2 11
0 2 11
0 2 11
0 2 11
0 2 11
0 2 11
0 2 11
0 2 11
0 2 11
0 2 11
0 2 11
0 2 11
0 2 11
0 2 11
0 2 11
0 2 11
0 2 11
0 2 11
0 2 11
0 2 11
0 2 11
0 2 11
0 2 11
0 2 11
0 2 11
0 2 11
0 2 11
0 2 11
0 2 11
0 2 11
0 2 11
0 2 11
0 2 11
0 2 11
0 2 11
0 2 11
0 2 11
0 2 11
0 2 11
0 2 11
0 2 11
0 2 11
0 2 11
0 2 11
0 2 11
0 2 11
0 2 11
0 2 11
0 2 11
0 2 11
0 2 11
0 2 11
0 2 11
0 2 11
0 2 11
0 2 11
0 2 11
0 2 11
0 2 11
0 2 11
0 2 11
0 2 11
0 2 11
0 2 11
0 2 11
0 2 11
0 2 11
0 2 11
0 2 11
0 2 11
0 2 11
0 2 11
0 2 11
0 2 11
0 2 11
0 2 11
0 2 11
0 2 11
0 2 11
0 2 11
0 2 11
0 2 11
0 2 11
0 2 11
0 2 11
0 2 11
0 2 11
0 2 11
0 2 11
0 2 11
0 2 11
0 2 11
0 2 11
0 2 11
0 2 11
0 2 11
0 2 11
0 2 11
0 2 11
0 2 11
0 2 11
0 2 11
0 2 11
0 2 11
0 2 11
0 2 11
0 2 11
0 2 11
0 2 11
0 2 11
0 2 11
0 2 11
0 2 11
0 2 11
0 2 11
0 2 11
0 2 11
0 2 11
0 2 11
0 2 11
0 2 11
0 2 11
0 2 11
0 2 11
0 2 11
0 2 11
0 2 11
0 2 11
0 2 11
0 2 11
0 2 11
0 2 11
0 2 11
0 2 11
0 2 11
0 2 11
0 2 11
0 2 11
0 2 11
0 2 11
0 2 11
0 2 11
0 2 11
0 2 11
0 2 11
0 2 11
0 2 11
0 2 11
0 2 11
0 2 11
0 2 11
0 2 11
0 2 11
0 2 11
0 2 11
0 2 11
0 2 11
0 2 11
0 2 11
0 2 11
0 2 11
0 2 11
0 2 11
0 2 11
0 2 11
0 2 11
0 2 11
0 2 11
0 2 11
0 2 11
0 2 11
0 2 11
0 2 11
0 2 11
0 2 11
0 2 11
0 2 11
0 2 11
0 2 11
0 2 11
0 2 11
0 2 11
0 2 11
0 2 11
0 2 11
0 2 11
0 2 11
0 2 11
0 2 11
0 2 11
0 2 11
0 2 11
0 2 11
0 2 11
0 2 11
0 2 11
0 2 11
0 2 11
0 2 11
0 2 11
0 2 11
0 2 11
0 2 11
0 2 11
0 2 11
0 2 11
0 2 11
0 2 11
0 2 11
0 2 11
0 2 11
0 2 11
0 2 11
0 2 11
0 2 11
0 2 11
0 2 11
0 2 11
0 2 11
0 2 11
0 2 11
0 2 11
0 2 11
0 2 11
0 2 11
0 2 11
0 2 11
0 2 11
0 2 11
0 2 11
0 2 11
0 2 11
0 2 11
0 2 11
0 2 11
0 2 11
0 2 11
0 2 11
0 2 11
0 2 11
0 2 11
0 2 11
0 2 11
0 2 11
0 2 11
0 2 11
0 2 11
0 2 11
0 2 11
0 2 11
0 2 11
0 2 11
0 2 11
0 2 11
0 2 11
0 2 11
0 2 11
0 2 11
0 2 11
0 2 11
0 2 11
0 2 11
0 2 11
0 2 11
0 2 11
0 2 11
0 2 11
0 2 11
0 2 11
0 2 11
0 2 11
0 2 11
0 2 11
0 2 11
0 2 11
0 2 11
0 2 11
0 2 11
0 2 11
0 2 11
0 2 11
0 2 11
0 2 11
0 2 11
0 2 11
0 2 11
0 2 11
0 2 11
0 2 11
0 2 11
0 2 11
0 2 11
0 2 11
0 2 11
0 2 11
0 2 11
0 2 11
0 2 11
0 2 11
0 2 11
0 2 11
0 2 11
0 2 11
0 2 11
0 2 11
0 2 11
0 2 11
0 2 11
0 2 11
0 2 11
0 2 11
0 2 11
0 2 11
0 2 11
0 2 11
0 2 11
0 2 11
0 2 11
0 2 11
0 2 11
0 2 11
0 2 11
0 2 11
0 2 11
0 2 11
0 2 11
0 2 11
0 2 11
0 2 11
0 2 11
0 2 11
0 2 11
0 2 11
0 2 11
0 2 11
0 2 11
0 2 11
0 2 11
0 2 11
0 2 11
0 2 11
0 2 11
0 2 11
0 2 11
0 2 11
0 2 11
0 2 11
0 2 11
0 2 11
0 2 11
0 2 11
0 2 11
0 2 11
0 2 11
0 2 11
0 2 11
0 2 11
0 2 11
0 2 11
0 2 11
0 2 11
0 2 11
0 2 11
0 2 11
0 2 11
0 2 11
0 2 11
0 2 11
0 2 11
0 2 11
0 2 11
0 2 11
0 2 11
0 2 11
0 2 11
0 2 11
0 2 11
0 2 11
0 2 11
0 2 11
0 2 11
0 2 11
0 2 11
0 2 11
0 2 11
0 2 11
0 2 11
0 2 11
0 2 11
0 2 11
0 2 11
0 2 11
0 2 11
0 2 11
0 2 11
0 2 11
0 2 11
0 2 11
0 2 11
0 2 11
0 2 11
0 2 11
0 2 11
0 2 11
0 2 11
0 2 11
0 2 11
0 2 11
0 2 11
0 2 11
0 2 11
0 2 11
0 2 11
0 2 11
0 2 11
0 2 11
0 2 11
0 2 11
0 2 11
0 2 11
0 2 11
0 2 11
0 2 11
0 2 11
0 2 11
0 2 11
0 2 11
0 2 11
0 2 11
0 2 11
0 2 11
0 2 11
0 2 11
0 2 11
0 2 11
0 2 11
0 2 11
0 2 11
0 2 11
0 2 11
0 2 11
0 2 11
0 2 11
0 2 11
0 2 11
0 2 11
0 2 11
0 2 11
0 2 11
0 2 11
0 2 11
0 2 11
0 2 11
0 2 11
0 2 11
0 2 11
0 2 11
0 2 11
0 2 11
0 2 11
0 2 11
0 2 11
0 2 11
0 2 11
0 2 11
0 2 11
0 2 11
0 2 11
0 2 11
0 2 11
0 2 11
0 2 11
0 2 11
0 2 11
0 2 11
0 2 11
0 2 11
0 2 11
0 2 11
0 2 11
0 2 11
0 2 11
0 2 11
0 2 11
0 2 11
0 2 11
0 2 11
0 2 11
0 2 11
0 2 11
0 2 11
0 2 11
0 2 11
0 2 11
0 2 11
0 2 11
0 2 11
0 2 11
0 2 11
0 2 11
0 2 11
0 2 11
0 2 11
0 2 11
0 2 11
0 2 11
0 2 11
0 2 11
0 2 11
0 2 11
0 2 11
0 2 11
0 2 11
0 2 11
0 2 11
0 2 11
0 2 11
0 2 11
0 2 11
0 2 11
0 2 11
0 2 11
0 2 11
0 2 11
0 2 11
0 2 11
0 2 11
0 2 11
0 2 11
0 2 11
0 2 11
0 2 11
0 2 11
0 2 11
0 2 11
0 2 11
0 2 11
0 2 11
0 2 11
0 2 11
0 2 11
0 2 11
0 2 11
0 2 11
0 2 11
0 2 11
0 2 11
0 2 11
0 2 11
0 2 11
0 2 11
0 2 11
0 2 11
0 2 11
0 2 11
0 2 11
0 2 11
0 2 11
0 2 11
0 2 11
0 2 11
0 2 11
0 2 11
0 2 11
0 2 11
0 2 11
0 2 11
0 2 11
0 2 11
0 2 11
0 2 11
0 2 11
0 2 11
0 2 11
0 2 11
0 2 11
0 2 11
0 2 11
0 2 11
0 2 11
0 2 11
0 2 11
0 2 11
0 2 11
0 2 11
0 2 11
0 2 11
0 2 11
0 2 11
0 2 11
0 2 11
0 2 11
0 2 11
0 2 11
0 2 11
0 2 11
0 2 11
0 2 11
0 2 11
0 2 11
0 2 11
0 2 11
0 2 11
0 2 11
0 2 11
0 2 11
0 2 11
0 2 11
0 2 11
0 2 11
0 2 11
0 2 11
0 2 11
0 2 11
0 2 11
0 2 11
0 2 11
0 2 11
0 2 11
0 2 11
0 2 11
0 2 11
0 2 11
0 2 11
0 2 11
0 2 11
0 2 11
0 2 11
0 2 11
0 2 11
0 2 11
0 2 11
0 2 11
0 2 11
0 2 11
0 2 11
0 2 11
0 2 11
0 2 11
0 2 11
0 2 11
0 2 11
0 2 11
0 2 11
0 2 11
0 2 11
0 2 11
0 2 11
0 2 11
0 2 11
0 2 11
0 2 11
0 2 11
0 2 11
0 2 11
0 2 11
0 2 11
0 2 11
0 2 11
0 2 11
0 2 11
0 2 11
0 2 11
0 2 11
0 2 11
0 2 11
0 2 11
0 2 11
0 2 11
0 2 11
0 2 11
0 2 11
0 2 11
0 2 11
0 2 11
0 2 11
0 2 11
0 2 11
0 2 11
0 2 11
0 2 11
0 2 11
0 2 11
0 2 11
0 2 11
0 2 11
0 2 11
0 2 11
0 2 11
0 2 11
0 2 11
0 2 11
0 2 11
0 2 11
0 2 11
0 2 11
0 2 11
0 2 11
0 2 11
0 2 11
0 2 11
0 2 11
0 2 11
0 2 11
0 2 11
0 2 11
0 2 11
0 2 11
0 2 11
0 2 11
0 2 11
0 2 11
0 2 11
0 2 11
0 2 11
0 2 11
0 2 11
0 2 11
0 2 11
0 2 11
0 2 11
0 2 11
0 2 11
0 2 11
0 2 11
0 2 11
0 2 11
0 2 11
0 2 11
0 2 11
0 2 11
0 2 11
0 2 11
0 2 11
0 2 11
0 2 11
0 2 11
0 2 11
0 2 11
0 2 11
0 2 11
0 2 11
0 2 11
0 2 11
0 2 11
0 2 11
0 2 11
0 2 11
0 2 11
0 2 11
0 2 11
0 2 11
0 2 11
0 2 11
0 2 11
0 2 11
0 2 11
0 2 11
0 2 11
0 2 11
0 2 11
0 2 11
0 2 11
0 2 11
0 2 11
0 2 11
0 2 11
0 2 11
0 2 11
0 2 11
0 2 11
0 2 11
0 2 11
0 2 11
0 2 11
0 2 11
0 2 11
0 2 11
0 2 11
0 2 11
0 2 11
0 2 11
0 2 11
0 2 11
0 2 11
0 2 11
0 2 11
0 2 11
0 2 11
0 2 11
0 2 11
0 2 11
0 2 11
0 2 11
0 2 11
0 2 11
0 2 11
0 2 11
0 2 11
0 2 11
0 2 11
0 2 11
0 2 11
0 2 11
0 2 11
0 2 11
0 2 11
0 2 11
0 2 11
0 2 11
0 2 11
0 2 11
0 2 11
0 2 11
0 2 11
0 2 11
0 2 11
0 2 11
0 2 11
0 2 11
0 2 11
0 2 11
0 2 11
0 2 11
0 2 11
0 2 11
0 2 11
0 2 11
0 2 11
0 2 11
0 2 11
0 2 11
0 2 11
0 2 11
0 2 11
0 2 11
0 2 11
0 2 11
0 2 11
0 2 11
0 2 11
0 2 11
0 2 11
0 2 11
0 2 11
0 2 11
0 2 11
0 2 11
0 2 11
0 2 11
0 2 11
0 2 11
0 2 11
0 2 11
0 2 11
0 2 11
0 2 11
0 2 11
0 2 11
0 2 11
0 2 11
0 2 11
0 2 11
0 2 11
0 2 11
0 2 11
0 2 11
0 2 11
0 2 11
0 2 11
0 2 11
0 2 11
0 2 11
0 2 11
0 2 11
0 2 11
0 2 11
0 2 11
0 2 11
0 2 11
0 2 11
0 2 11
0 2 11
0 2 11
0 2 11
0 2 11
0 2 11
0 2 11
0 2 11
0 2 11
0 2 11
0 2 11
0 2 11
0 2 11
0 2 11
0 2 11
0 2 11
0 2 11
0 2 11
0 2 11
0 2 11
0 2 11
0 2 11
0 2 11
0 2 11
0 2 11
0 2 11
0 2 11
0 2 11
0 2 11
0 2 11
0 2 11
0 2 11
0 2 11
0 2 11
0 2 11
0 2 11
0 2 11
0 2 11
0 2 11
0 2 11
0 2 11
0 2 11
0 2 11
0 2 11
0 2 11
0 2 11
0 2 11
0 2 11
0 2 11
0 2 11
0 2 11
0 2 11
0 2 11
0 2 11
0 2 11
0 2 11
0 2 11
0 2 11
0 2 11
0 2 11
0 2 11
0 2 11
0 2 11
0 2 11
0 2 11
0 2 11
0 2 11
0 2 11
0 2 11
0 2 11
0 2 11
0 2 11
0 2 11
0 2 11
0 2 11
0 2 11
0 2 11
0 2 11
0 2 11
0 2 11
0 2 11
0 2 11
0 2 11
0 2 11
0 2 11
0 2 11
0 2 11
0 2 11
0 2 11
0 2 11
0 2 11
0 2 11
0 2 11
0 2 11
0 2 11
0 2 11
0 2 11
0 2 11
0 2 11
0 2 11
0 2 11
0 2 11
0 2 11
0 2 11
0 2 11
0 2 11
0 2 11
0 2 11
0 2 11
0 2 11
0 2 11
0 2 11
0 2 11
0 2 11
0 2 11
0 2 11
0 2 11
0 2 11
0 2 11
0 2 11
0 2 11
0 2 11
0 2 11
0 2 11
0 2 11
0 2 11
0 2 11
0 2 11
0 2 11
0 2 11
0 2 11
0 2 11
0 2 11
0 2 11
0 2 11
0 2 11
0 2 11
0 2 11
0 2 11
0 2 11
0 2 11
0 2 11
0 2 11
0 2 11
0 2 11
0 2 11
0 2 11
0 2 11
0 2 11
0 2 11
0 2 11
0 2 11
0 2 11
0 2 11
0 2 11
0 2 11
0 2 11
0 2 11
0 2 11
0 2 11
0 2 11
0 2 11
0 2 11
0 2 11
0 2 11
0 2 11
0 2 11
0 2 11
0 2 11
0 2 11
0 2 11
0 2 11
0 2 11
0 2 11
0 2 11
0 2 11
0 2 11
0 2 11
0 2 11
0 2 11
0 2 11
0 2 11
0 2 11
0 2 11
0 2 11
0 2 11
0 2 11
0 2 11
0 2 11
0 2 11
0 2 11
0 2 11
0 2 11
0 2 11
0 2 11
0 2 11
0 2 11
0 2 11
0 2 11
0 2 11
0 2 11
0 2 11
0 2 11
0 2 11
0 2 11
0 2 11
0 2 11
0 2 11
0 2 11
0 2 11
0 2 11
0 2 11
0 2 11
0 2 11
0 2 11
0 2 11
0 2 11
0 2 11
0 2 11
0 2 11
0 2 11
0 2 11
0 2 11
0 2 11
0 2 11
0 2 11
0 2 11
0 2 11
0 2 11
0 2 11
0 2 11
0 2 11
0 2 11
0 2 11
0 2 11
0 2 11
0 2 11
0 2 11
0 2 11
0 2 11
0 2 11
0 2 11
0 2 11
0 2 11
0 2 11
0 2 11
0 2 11
0 2 11
0 2 11
0 2 11
0 2 11
0 2 11
0 2 11
0 2 11
0 2 11
0 2 11
0 2 11
0 2 11
0 2 11
0 2 11
0 2 11
0 2 11
0 2 11
0 2 11
0 2 11
0 2 11
0 2 11
0 2 11
0 2 11
0 2 11
0 2 11
0 2 11
0 2 11
0 2 11
0 2 11
0 2 11
0 2 11
0 2 11
0 2 11
0 2 11
0 2 11
0 2 11
0 2 11
0 2 11
0 2 11
0 2 11
0 2 11
0 2 11
0 2 11
0 2 11
0 2 11
0 2 11
0 2 11
0 2 11
0 2 11
0 2 11
0 2 11
0 2 11
0 2 11
0 2 11
0 2 11
0 2 11
0 2 11
0 2 11
0 2 11
0 2 11
0 2 11
0 2 11
0 2 11
0 2 11
0 2 11
0 2 11
0 2 11
0 2 11
0 2 11
0 2 11
0 2 11
0 2 11
0 2 11
0 2 11
0 2 11
0 2 11
0 2 11
0 2 11
0 2 11
0 2 11
0 2 11
0 2 11
0 2 11
0 2 11
0 2 11
0 2 11
0 2 11
0 2 11
0 2 11
0 2 11
0 2 11
0 2 11
0 2 11
0 2 11
0 2 11
0 2 11
0 2 11
0 2 11
0 2 11
0 2 11
0 2 11
0 2 11
0 2 11
0 2 11
0 2 11
0 2 11
0 2 11
0 2 11
0 2 11
0 2 11
0 2 11
0 2 11
0 2 11
0 2 11
0 2 11
0 2 11
0 2 11
0 2 11
0 2 11
0 2 11
0 2 11
0 2 11
0 2 11
0 2 11
0 2 11
0 2 11
0 2 11
0 2 11
0 2 11
0 2 11
0 2 11
0 2 11
0 2 11
0 2 11
0 2 11
0 2 11
0 2 11
0 2 11
0 2 11
0 2 11
0 2 11
0 2 11
0 2 11
0 2 11
0 2 11
0 2 11
0 2 11
0 2 11
0 2 11
0 2 11
0 2 11
0 2 11
0 2 11
0 2 11
0 2 11
0 2 11
0 2 11
0 2 11
0 2 11
0 2 11
0 2 11
0 2 11
0 2 11
0 2 11
0 2 11
0 2 11
0 2 11
0 2 11
0 2 11
0 2 11
0 2 11
0 2 11
0 2 11
0 2 11
0 2 11
0 2 11
0 2 11
0 2 11
0 2 11
0 2 11
0 2 11
0 2 11
0 2 11
0 2 11
0 2 11
0 2 11
0 2 11
0 2 11
0 2 11
0 2 11
0 2 11
0 2 11
0 2 11
0 2 11
0 2 11
0 2 11
0 2 11
0 2 11
0 2 11
0 2 11
0 2 11
0 2 11
0 2 11
0 2 11
0 2 11
4 4 12
4 4 12
0 2 11
0 2 11
0 2 11
0 2 11
0 2 11
0 2 11
0 2 11
0 2 11
0 2 11
0 2 11
0 2 11
0 2 11
0 2 11
0 2 11
0 2 11
0 2 11
0 2 11
0 2 11
0 2 11
0 2 11
0 2 11
0 2 11
0 2 11
0 2 11
0 2 11
0 2 11
0 2 11
0 2 11
0 2 11
0 2 11
0 2 11
0 2 11
0 2 11
0 2 11
0 2 11
0 2 11
0 2 11
0 2 11
0 2 11
0 2 11
0 2 11
0 2 11
0 2 11
0 2 11
0 2 11
0 2 11
0 2 11
0 2 11
0 2 11
0 2 11
0 2 11
0 2 11
0 2 11
0 2 11
0 2 11
0 2 11
0 2 11
0 2 11
0 2 11
0 2 11
0 2 11
0 2 11
0 2 11
0 2 11
0 2 11
0 2 11
0 2 11
0 2 11
0 2 11
0 2 11
0 2 11
0 2 11
0 2 11
0 2 11
0 2 11
0 2 11
0 2 11
0 2 11
0 2 11
0 2 11
0 2 11
0 2 11
0 2 11
0 2 11
0 2 11
0 2 11
0 2 11
0 2 11
0 2 11
0 2 11
0 2 11
0 2 11
0 2 11
0 2 11
0 2 11
0 2 11
0 2 11
0 2 11
0 2 11
0 2 11
0 2 11
0 2 11
0 2 11
0 2 11
0 2 11
0 2 11
0 2 11
0 2 11
0 2 11
0 2 11
0 2 11
0 2 11
0 2 11
0 2 11
0 2 11
0 2 11
0 2 11
0 2 11
0 2 11
0 2 11
0 2 11
0 2 11
0 2 11
0 2 11
0 2 11
0 2 11
0 2 11
0 2 11
0 2 11
0 2 11
0 2 11
0 2 11
0 2 11
0 2 11
0 2 11
0 2 11
0 2 11
0 2 11
0 2 11
0 2 11
0 2 11
0 2 11
0 2 11
0 2 11
0 2 11
0 2 11
0 2 11
0 2 11
0 2 11
0 2 11
0 2 11
0 2 11
0 2 11
0 2 11
0 2 11
0 2 11
0 2 11
0 2 11
0 2 11
0 2 11
0 2 11
0 2 11
0 2 11
0 2 11
0 2 11
0 2 11
0 2 11
0 2 11
0 2 11
0 2 11
0 2 11
0 2 11
0 2 11
0 2 11
0 2 11
0 2 11
0 2 11
0 2 11
0 2 11
0 2 11
0 2 11
0 2 11
0 2 11
0 2 11
0 2 11
0 2 11
0 2 11
0 2 11
0 2 11
0 2 11
0 2 11
0 2 11
0 2 11
0 2 11
0 2 11
0 2 11
0 2 11
0 2 11
0 2 11
0 2 11
0 2 11
0 2 11
0 2 11
0 2 11
0 2 11
0 2 11
0 2 11
0 2 11
0 2 11
0 2 11
0 2 11
0 2 11
0 2 11
0 2 11
0 2 11
0 2 11
0 2 11
0 2 11
0 2 11
0 2 11
0 2 11
0 2 11
0 2 11
0 2 11
0 2 11
0 2 11
0 2 11
0 2 11
0 2 11
0 2 11
0 2 11
0 2 11
0 2 11
0 2 11
0 2 11
0 2 11
0 2 11
0 2 11
0 2 11
0 2 11
0 2 11
0 2 11
0 2 11
0 2 11
0 2 11
0 2 11
0 2 11
0 2 11
0 2 11
0 2 11
0 2 11
0 2 11
0 2 11
0 2 11
0 2 11
0 2 11
0 2 11
0 2 11
0 2 11
0 2 11
0 2 11
0 2 11
0 2 11
0 2 11
0 2 11
0 2 11
0 2 11
0 2 11
0 2 11
0 2 11
0 2 11
0 2 11
0 2 11
0 2 11
0 2 11
0 2 11
0 2 11
0 2 11
0 2 11
0 2 11
0 2 11
0 2 11
0 2 11
0 2 11
0 2 11
0 2 11
0 2 11
0 2 11
0 2 11
0 2 11
0 2 11
0 2 11
0 2 11
0 2 11
0 2 11
0 2 11
4 4 12
4 4 12
4 4 12
4 4 12
4 4 12
4 4 12
4 4 12
0 2 11
0 2 11
0 2 11
0 2 11
0 2 11
0 2 11
0 2 11
0 2 11
0 2 11
0 2 11
0 2 11
0 2 11
0 2 11
0 2 11
0 2 11
0 2 11
0 2 11
0 2 11
0 2 11
0 2 11
0 2 11
0 2 11
0 2 11
0 2 11
0 2 11
0 2 11
0 2 11
0 2 11
0 2 11
0 2 11
0 2 11
0 2 11
0 2 11
0 2 11
0 2 11
0 2 11
0 2 11
0 2 11
0 2 11
0 2 11
0 2 11
0 2 11
0 2 11
0 2 11
0 2 11
0 2 11
0 2 11
0 2 11
0 2 11
0 2 11
0 2 11
0 2 11
0 2 11
0 2 11
0 2 11
0 2 11
0 2 11
0 2 11
0 2 11
0 2 11
0 2 11
0 2 11
0 2 11
0 2 11
0 2 11
0 2 11
0 2 11
0 2 11
0 2 11
0 2 11
0 2 11
0 2 11
0 2 11
0 2 11
0 2 11
0 2 11
0 2 11
0 2 11
0 2 11
0 2 11
0 2 11
0 2 11
0 2 11
0 2 11
0 2 11
0 2 11
0 2 11
0 2 11
0 2 11
0 2 11
0 2 11
0 2 11
0 2 11
0 2 11
0 2 11
0 2 11
0 2 11
0 2 11
0 2 11
0 2 11
0 2 11
0 2 11
0 2 11
0 2 11
0 2 11
0 2 11
0 2 11
0 2 11
0 2 11
0 2 11
0 2 11
0 2 11
0 2 11
0 2 11
0 2 11
0 2 11
0 2 11
0 2 11
0 2 11
0 2 11
0 2 11
0 2 11
0 2 11
0 2 11
0 2 11
0 2 11
0 2 11
0 2 11
0 2 11
0 2 11
0 2 11
0 2 11
0 2 11
0 2 11
0 2 11
0 2 11
0 2 11
0 2 11
0 2 11
0 2 11
0 2 11
0 2 11
0 2 11
0 2 11
0 2 11
0 2 11
0 2 11
0 2 11
0 2 11
0 2 11
0 2 11
0 2 11
0 2 11
0 2 11
0 2 11
0 2 11
0 2 11
0 2 11
0 2 11
0 2 11
0 2 11
0 2 11
0 2 11
0 2 11
0 2 11
0 2 11
0 2 11
0 2 11
0 2 11
0 2 11
0 2 11
0 2 11
0 2 11
0 2 11
0 2 11
0 2 11
0 2 11
0 2 11
0 2 11
0 2 11
0 2 11
0 2 11
0 2 11
0 2 11
0 2 11
0 2 11
0 2 11
0 2 11
0 2 11
0 2 11
0 2 11
0 2 11
0 2 11
0 2 11
0 2 11
0 2 11
0 2 11
0 2 11
0 2 11
0 2 11
0 2 11
0 2 11
0 2 11
0 2 11
0 2 11
0 2 11
0 2 11
0 2 11
0 2 11
0 2 11
0 2 11
0 2 11
0 2 11
0 2 11
0 2 11
0 2 11
0 2 11
0 2 11
0 2 11
0 2 11
0 2 11
0 2 11
0 2 11
0 2 11
0 2 11
0 2 11
0 2 11
0 2 11
0 2 11
0 2 11
0 2 11
0 2 11
0 2 11
0 2 11
0 2 11
0 2 11
0 2 11
0 2 11
0 2 11
0 2 11
0 2 11
0 2 11
0 2 11
0 2 11
0 2 11
0 2 11
0 2 11
0 2 11
0 2 11
0 2 11
0 2 11
0 2 11
0 2 11
0 2 11
0 2 11
0 2 11
0 2 11
0 2 11
0 2 11
0 2 11
0 2 11
0 2 11
0 2 11
0 2 11
0 2 11
0 2 11
0 2 11
0 2 11
0 2 11
0 2 11
0 2 11
0 2 11
0 2 11
0 2 11
0 2 11
0 2 11
0 2 11
0 2 11
0 2 11
0 2 11
0 2 11
0 2 11
0 2 11
0 2 11
0 2 11
0 2 11
0 2 11
0 2 11
0 2 11
0 2 11
0 2 11
0 2 11
4 4 12
4 4 12
4 4 12
4 4 12
4 4 12
4 4 12
4 4 12
4 4 12
4 4 12
0 2 11
0 2 11
0 2 11
0 2 11
0 2 11
0 2 11
0 2 11
0 2 11
0 2 11
0 2 11
0 2 11
0 2 11
0 2 11
0 2 11
0 2 11
0 2 11
0 2 11
0 2 11
0 2 11
0 2 11
0 2 11
0 2 11
0 2 11
0 2 11
0 2 11
0 2 11
0 2 11
4 4 12
4 4 12
4 4 12
4 4 12
0 2 11
0 2 11
0 2 11
0 2 11
0 2 11
0 2 11
0 2 11
0 2 11
0 2 11
0 2 11
0 2 11
0 2 11
0 2 11
0 2 11
0 2 11
0 2 11
0 2 11
0 2 11
0 2 11
0 2 11
0 2 11
0 2 11
0 2 11
0 2 11
0 2 11
0 2 11
0 2 11
0 2 11
0 2 11
0 2 11
0 2 11
0 2 11
0 2 11
0 2 11
0 2 11
0 2 11
0 2 11
0 2 11
0 2 11
0 2 11
0 2 11
0 2 11
0 2 11
0 2 11
0 2 11
0 2 11
0 2 11
0 2 11
0 2 11
0 2 11
0 2 11
0 2 11
0 2 11
0 2 11
0 2 11
0 2 11
0 2 11
0 2 11
0 2 11
0 2 11
0 2 11
0 2 11
0 2 11
0 2 11
0 2 11
0 2 11
0 2 11
0 2 11
0 2 11
0 2 11
0 2 11
0 2 11
0 2 11
0 2 11
0 2 11
0 2 11
0 2 11
0 2 11
0 2 11
0 2 11
0 2 11
0 2 11
0 2 11
0 2 11
0 2 11
0 2 11
0 2 11
0 2 11
0 2 11
0 2 11
0 2 11
0 2 11
0 2 11
0 2 11
0 2 11
0 2 11
0 2 11
0 2 11
0 2 11
0 2 11
0 2 11
0 2 11
0 2 11
0 2 11
0 2 11
0 2 11
0 2 11
0 2 11
0 2 11
0 2 11
0 2 11
0 2 11
0 2 11
0 2 11
0 2 11
0 2 11
0 2 11
0 2 11
0 2 11
0 2 11
0 2 11
0 2 11
0 2 11
0 2 11
0 2 11
0 2 11
0 2 11
0 2 11
0 2 11
0 2 11
0 2 11
0 2 11
0 2 11
0 2 11
0 2 11
0 2 11
0 2 11
0 2 11
0 2 11
0 2 11
0 2 11
0 2 11
0 2 11
0 2 11
0 2 11
0 2 11
0 2 11
0 2 11
0 2 11
0 2 11
0 2 11
0 2 11
0 2 11
0 2 11
0 2 11
0 2 11
0 2 11
0 2 11
0 2 11
0 2 11
0 2 11
0 2 11
0 2 11
0 2 11
0 2 11
0 2 11
0 2 11
0 2 11
0 2 11
0 2 11
0 2 11
0 2 11
0 2 11
0 2 11
0 2 11
0 2 11
0 2 11
0 2 11
0 2 11
0 2 11
0 2 11
0 2 11
0 2 11
0 2 11
0 2 11
0 2 11
0 2 11
0 2 11
0 2 11
0 2 11
0 2 11
0 2 11
0 2 11
0 2 11
0 2 11
0 2 11
0 2 11
0 2 11
0 2 11
0 2 11
0 2 11
0 2 11
0 2 11
0 2 11
0 2 11
0 2 11
0 2 11
0 2 11
0 2 11
0 2 11
0 2 11
0 2 11
0 2 11
0 2 11
0 2 11
0 2 11
0 2 11
0 2 11
0 2 11
0 2 11
0 2 11
0 2 11
0 2 11
0 2 11
0 2 11
0 2 11
0 2 11
0 2 11
0 2 11
0 2 11
0 2 11
0 2 11
0 2 11
0 2 11
0 2 11
0 2 11
0 2 11
0 2 11
0 2 11
0 2 11
0 2 11
0 2 11
0 2 11
0 2 11
0 2 11
0 2 11
4 4 12
4 4 12
21 21 12
51 51 12
0 2 11
0 2 11
0 2 11
0 2 11
0 2 11
0 2 11
0 2 11
0 2 11
0 2 11
4 4 12
4 4 12
4 4 12
4 4 12
4 4 12
4 4 12
4 4 12
4 4 12
4 4 12
4 4 12
0 2 11
0 2 11
0 2 11
0 2 11
0 2 11
0 2 11
0 2 11
0 2 11
0 2 11
0 2 11
0 2 11
0 2 11
0 2 11
0 2 11
0 2 11
0 2 11
0 2 11
0 2 11
0 2 11
0 2 11
0 2 11
0 2 11
0 2 11
0 2 11
0 2 11
4 54 63
4 9 17
4 4 12
4 4 12
4 4 12
4 4 12
4 4 12
4 4 12
0 2 11
0 2 11
0 2 11
0 2 11
0 2 11
0 2 11
0 2 11
0 2 11
0 2 11
0 2 11
0 2 11
0 2 11
0 2 11
0 2 11
0 2 11
0 2 11
0 2 11
0 2 11
0 2 11
0 2 11
0 2 11
0 2 11
0 2 11
0 2 11
0 2 11
0 2 11
0 2 11
0 2 11
0 2 11
0 2 11
0 2 11
0 2 11
0 2 11
0 2 11
0 2 11
0 2 11
0 2 11
0 2 11
0 2 11
0 2 11
0 2 11
0 2 11
0 2 11
0 2 11
0 2 11
0 2 11
0 2 11
0 2 11
0 2 11
0 2 11
0 2 11
0 2 11
0 2 11
0 2 11
0 2 11
0 2 11
0 2 11
0 2 11
0 2 11
0 2 11
0 2 11
0 2 11
0 2 11
0 2 11
0 2 11
0 2 11
0 2 11
0 2 11
0 2 11
0 2 11
0 2 11
0 2 11
0 2 11
0 2 11
0 2 11
0 2 11
0 2 11
0 2 11
0 2 11
0 2 11
0 2 11
0 2 11
0 2 11
0 2 11
0 2 11
0 2 11
0 2 11
0 2 11
0 2 11
0 2 11
0 2 11
0 2 11
0 2 11
0 2 11
0 2 11
0 2 11
0 2 11
0 2 11
0 2 11
0 2 11
0 2 11
0 2 11
0 2 11
0 2 11
0 2 11
0 2 11
0 2 11
0 2 11
0 2 11
0 2 11
0 2 11
0 2 11
0 2 11
0 2 11
0 2 11
0 2 11
0 2 11
0 2 11
0 2 11
0 2 11
0 2 11
0 2 11
0 2 11
0 2 11
0 2 11
0 2 11
0 2 11
0 2 11
0 2 11
0 2 11
0 2 11
0 2 11
0 2 11
0 2 11
0 2 11
0 2 11
0 2 11
0 2 11
0 2 11
0 2 11
0 2 11
0 2 11
0 2 11
0 2 11
0 2 11
0 2 11
0 2 11
0 2 11
0 2 11
0 2 11
0 2 11
0 2 11
0 2 11
0 2 11
0 2 11
0 2 11
0 2 11
0 2 11
0 2 11
0 2 11
0 2 11
0 2 11
0 2 11
0 2 11
0 2 11
0 2 11
0 2 11
0 2 11
0 2 11
0 2 11
0 2 11
0 2 11
0 2 11
0 2 11
0 2 11
0 2 11
0 2 11
0 2 11
0 2 11
0 2 11
0 2 11
0 2 11
0 2 11
0 2 11
0 2 11
0 2 11
0 2 11
0 2 11
0 2 11
0 2 11
0 2 11
0 2 11
0 2 11
0 2 11
0 2 11
0 2 11
0 2 11
0 2 11
0 2 11
0 2 11
0 2 11
0 2 11
0 2 11
0 2 11
0 2 11
0 2 11
0 2 11
0 2 11
0 2 11
0 2 11
0 2 11
0 2 11
0 2 11
0 2 11
0 2 11
0 2 11
0 2 11
0 2 11
0 2 11
0 2 11
0 2 11
0 2 11
0 2 11
0 2 11
0 2 11
0 2 11
0 2 11
0 2 11
0 2 11
0 2 11
0 2 11
0 2 11
0 2 11
0 2 11
0 2 11
0 2 11
0 2 11
0 2 11
0 2 11
0 2 11
0 2 11
0 2 11
4 4 12
4 4 12
4 4 12
4 4 12
18 18 12
48 48 12
81 81 12
0 2 11
0 2 11
0 2 11
0 2 11
0 2 11
0 2 11
0 2 11
0 2 11
4 4 12
4 4 12
4 4 12
4 4 12
4 4 12
4 4 12
4 4 12
4 4 12
4 4 12
4 4 12
0 2 11
0 2 11
0 2 11
0 2 11
0 2 11
0 2 11
0 2 11
0 2 11
37 37 45
36 36 45
0 2 11
0 2 11
0 2 11
0 2 11
0 2 11
0 2 11
0 2 11
0 2 11
0 2 11
0 2 11
0 2 11
0 2 11
0 2 11
0 2 11
0 2 11
4 30 38
4 4 12
4 4 12
4 4 12
4 4 12
4 4 12
4 4 12
4 4 12
0 2 11
0 2 11
0 2 11
0 2 11
0 2 11
0 2 11
0 2 11
0 2 11
0 2 11
0 2 11
0 2 11
0 2 11
0 2 11
0 2 11
0 2 11
0 2 11
0 2 11
0 2 11
0 2 11
0 2 11
0 2 11
0 2 11
0 2 11
0 2 11
0 2 11
0 2 11
0 2 11
0 2 11
0 2 11
0 2 11
0 2 11
0 2 11
0 2 11
0 2 11
0 2 11
0 2 11
0 2 11
0 2 11
0 2 11
0 2 11
0 2 11
0 2 11
0 2 11
0 2 11
0 2 11
0 2 11
0 2 11
0 2 11
0 2 11
0 2 11
0 2 11
0 2 11
0 2 11
0 2 11
0 2 11
0 2 11
0 2 11
0 2 11
0 2 11
0 2 11
0 2 11
0 2 11
0 2 11
0 2 11
0 2 11
0 2 11
0 2 11
0 2 11
0 2 11
0 2 11
0 2 11
0 2 11
0 2 11
0 2 11
0 2 11
0 2 11
0 2 11
0 2 11
0 2 11
0 2 11
0 2 11
0 2 11
0 2 11
0 2 11
0 2 11
0 2 11
0 2 11
0 2 11
0 2 11
0 2 11
0 2 11
0 2 11
0 2 11
0 2 11
0 2 11
0 2 11
0 2 11
0 2 11
0 2 11
0 2 11
0 2 11
0 2 11
0 2 11
0 2 11
0 2 11
0 2 11
0 2 11
0 2 11
0 2 11
0 2 11
0 2 11
0 2 11
0 2 11
0 2 11
0 2 11
0 2 11
0 2 11
0 2 11
0 2 11
0 2 11
0 2 11
0 2 11
0 2 11
0 2 11
0 2 11
0 2 11
0 2 11
0 2 11
0 2 11
0 2 11
0 2 11
0 2 11
0 2 11
0 2 11
0 2 11
0 2 11
0 2 11
0 2 11
0 2 11
0 2 11
0 2 11
0 2 11
0 2 11
0 2 11
0 2 11
0 2 11
0 2 11
0 2 11
0 2 11
0 2 11
0 2 11
0 2 11
0 2 11
0 2 11
0 2 11
0 2 11
0 2 11
0 2 11
0 2 11
0 2 11
0 2 11
0 2 11
0 2 11
0 2 11
0 2 11
0 2 11
0 2 11
0 2 11
0 2 11
0 2 11
0 2 11
0 2 11
0 2 11
0 2 11
0 2 11
0 2 11
0 2 11
0 2 11
0 2 11
0 2 11
0 2 11
0 2 11
0 2 11
0 2 11
0 2 11
0 2 11
0 2 11
0 2 11
0 2 11
0 2 11
0 2 11
0 2 11
0 2 11
0 2 11
0 2 11
0 2 11
0 2 11
0 2 11
0 2 11
0 2 11
0 2 11
0 2 11
0 2 11
0 2 11
0 2 11
0 2 11
0 2 11
0 2 11
0 2 11
0 2 11
0 2 11
0 2 11
0 2 11
0 2 11
0 2 11
0 2 11
0 2 11
0 2 11
0 2 11
0 2 11
0 2 11
0 2 11
0 2 11
0 2 11
0 2 11
0 2 11
0 2 11
0 2 11
0 2 11
0 2 11
0 2 11
0 2 11
0 2 11
0 2 11
0 2 11
0 2 11
0 2 11
0 2 11
0 2 11
0 2 11
0 2 11
4 4 12
4 4 12
4 4 12
4 4 12
4 4 12
14 14 12
44 44 12
76 76 12
112 112 12
0 2 11
0 2 11
0 2 11
0 2 11
0 2 11
0 2 11
0 2 11
4 4 12
4 4 12
4 4 12
4 4 12
4 4 12
4 4 12
4 4 12
4 4 12
4 4 12
4 4 12
0 2 11
0 2 11
0 2 11
0 2 11
0 2 11
0 2 11
60 60 69
97 97 106
106 106 114
97 97 105
75 75 83
38 38 47
0 2 11
0 2 11
0 2 11
0 2 11
0 2 11
0 2 11
0 2 11
0 2 11
0 2 11
0 2 11
0 2 11
0 2 11
4 68 77
4 20 29
4 4 12
4 4 12
4 4 12
4 4 12
4 4 12
4 4 12
4 4 12
4 4 12
0 2 11
0 2 11
0 2 11
0 2 11
0 2 11
0 2 11
0 2 11
0 2 11
0 2 11
0 2 11
0 2 11
0 2 11
0 2 11
0 2 11
0 2 11
0 2 11
0 2 11
0 2 11
0 2 11
0 2 11
0 2 11
0 2 11
0 2 11
0 2 11
0 2 11
0 2 11
0 2 11
0 2 11
0 2 11
0 2 11
0 2 11
0 2 11
0 2 11
0 2 11
0 2 11
0 2 11
0 2 11
0 2 11
0 2 11
0 2 11
0 2 11
0 2 11
0 2 11
0 2 11
0 2 11
0 2 11
0 2 11
0 2 11
0 2 11
0 2 11
0 2 11
0 2 11
0 2 11
0 2 11
0 2 11
0 2 11
0 2 11
0 2 11
0 2 11
0 2 11
0 2 11
0 2 11
0 2 11
0 2 11
0 2 11
0 2 11
0 2 11
0 2 11
0 2 11
0 2 11
0 2 11
0 2 11
0 2 11
0 2 11
0 2 11
0 2 11
0 2 11
0 2 11
0 2 11
0 2 11
0 2 11
0 2 11
0 2 11
0 2 11
0 2 11
0 2 11
0 2 11
0 2 11
0 2 11
0 2 11
0 2 11
0 2 11
0 2 11
0 2 11
0 2 11
0 2 11
0 2 11
0 2 11
0 2 11
0 2 11
0 2 11
0 2 11
0 2 11
0 2 11
0 2 11
0 2 11
0 2 11
0 2 11
0 2 11
0 2 11
0 2 11
0 2 11
0 2 11
0 2 11
0 2 11
0 2 11
0 2 11
0 2 11
0 2 11
0 2 11
0 2 11
0 2 11
0 2 11
0 2 11
0 2 11
0 2 11
0 2 11
0 2 11
0 2 11
0 2 11
0 2 11
0 2 11
0 2 11
0 2 11
0 2 11
0 2 11
0 2 11
0 2 11
0 2 11
0 2 11
0 2 11
0 2 11
0 2 11
0 2 11
0 2 11
0 2 11
0 2 11
0 2 11
0 2 11
0 2 11
0 2 11
0 2 11
0 2 11
0 2 11
0 2 11
0 2 11
0 2 11
0 2 11
0 2 11
0 2 11
0 2 11
0 2 11
0 2 11
0 2 11
0 2 11
0 2 11
0 2 11
0 2 11
0 2 11
0 2 11
0 2 11
0 2 11
0 2 11
0 2 11
0 2 11
0 2 11
0 2 11
0 2 11
0 2 11
0 2 11
0 2 11
0 2 11
0 2 11
0 2 11
0 2 11
0 2 11
0 2 11
0 2 11
0 2 11
0 2 11
0 2 11
0 2 11
0 2 11
0 2 11
0 2 11
0 2 11
0 2 11
0 2 11
0 2 11
0 2 11
0 2 11
0 2 11
0 2 11
0 2 11
0 2 11
0 2 11
0 2 11
0 2 11
0 2 11
0 2 11
0 2 11
0 2 11
0 2 11
0 2 11
0 2 11
0 2 11
0 2 11
0 2 11
0 2 11
0 2 11
0 2 11
0 2 11
0 2 11
0 2 11
0 2 11
0 2 11
0 2 11
0 2 11
0 2 11
0 2 11
0 2 11
0 2 11
0 2 11
0 2 11
0 2 11
0 2 11
0 2 11
0 2 11
0 2 11
0 2 11
4 4 12
4 4 12
4 4 12
4 4 12
4 4 12
10 10 12
39 39 12
71 71 12
107 107 12
0 2 11
0 2 11
0 2 11
0 2 11
0 2 11
0 2 11
0 2 11
4 4 12
4 4 12
4 4 12
4 4 12
4 4 12
4 4 12
4 4 12
4 4 12
4 4 12
4 4 12
0 2 11
0 2 11
0 2 11
0 2 11
0 2 11
35 35 43
102 102 111
124 124 133
128 128 137
117 117 126
95 95 104
63 63 71
17 17 25
0 2 11
0 2 11
0 2 11
0 2 11
0 2 11
0 2 11
0 2 11
0 2 11
0 2 11
0 2 11
0 2 11
4 63 72
4 17 25
4 4 12
4 4 12
4 4 12
4 4 12
4 4 12
4 4 12
4 4 12
4 4 12
0 2 11
0 2 11
0 2 11
0 2 11
0 2 11
0 2 11
0 2 11
0 2 11
0 2 11
0 2 11
0 2 11
0 2 11
0 2 11
0 2 11
0 2 11
0 2 11
0 2 11
0 2 11
0 2 11
0 2 11
0 2 11
0 2 11
0 2 11
0 2 11
0 2 11
0 2 11
0 2 11
0 2 11
0 2 11
0 2 11
0 2 11
0 2 11
0 2 11
0 2 11
0 2 11
0 2 11
0 2 11
0 2 11
0 2 11
0 2 11
0 2 11
0 2 11
0 2 11
0 2 11
0 2 11
0 2 11
0 2 11
0 2 11
0 2 11
0 2 11
0 2 11
0 2 11
0 2 11
0 2 11
0 2 11
0 2 11
0 2 11
0 2 11
0 2 11
0 2 11
0 2 11
0 2 11
0 2 11
0 2 11
0 2 11
0 2 11
0 2 11
0 2 11
0 2 11
0 2 11
0 2 11
0 2 11
0 2 11
0 2 11
0 2 11
0 2 11
0 2 11
0 2 11
0 2 11
0 2 11
0 2 11
0 2 11
0 2 11
0 2 11
0 2 11
0 2 11
0 2 11
0 2 11
0 2 11
0 2 11
0 2 11
0 2 11
0 2 11
0 2 11
0 2 11
0 2 11
0 2 11
0 2 11
0 2 11
0 2 11
0 2 11
0 2 11
0 2 11
0 2 11
0 2 11
0 2 11
0 2 11
0 2 11
0 2 11
0 2 11
0 2 11
0 2 11
0 2 11
0 2 11
0 2 11
0 2 11
0 2 11
0 2 11
0 2 11
0 2 11
0 2 11
0 2 11
0 2 11
0 2 11
0 2 11
0 2 11
0 2 11
0 2 11
0 2 11
0 2 11
0 2 11
0 2 11
0 2 11
0 2 11
0 2 11
0 2 11
0 2 11
0 2 11
0 2 11
0 2 11
0 2 11
0 2 11
0 2 11
0 2 11
0 2 11
0 2 11
0 2 11
0 2 11
0 2 11
0 2 11
0 2 11
0 2 11
0 2 11
0 2 11
0 2 11
0 2 11
0 2 11
0 2 11
0 2 11
0 2 11
0 2 11
0 2 11
0 2 11
0 2 11
0 2 11
0 2 11
0 2 11
0 2 11
0 2 11
0 2 11
0 2 11
0 2 11
0 2 11
0 2 11
0 2 11
0 2 11
0 2 11
0 2 11
0 2 11
0 2 11
0 2 11
0 2 11
0 2 11
0 2 11
0 2 11
0 2 11
0 2 11
0 2 11
0 2 11
0 2 11
0 2 11
0 2 11
0 2 11
0 2 11
0 2 11
0 2 11
0 2 11
0 2 11
0 2 11
0 2 11
0 2 11
0 2 11
0 2 11
0 2 11
0 2 11
0 2 11
0 2 11
0 2 11
0 2 11
0 2 11
0 2 11
0 2 11
0 2 11
0 2 11
0 2 11
0 2 11
0 2 11
0 2 11
0 2 11
0 2 11
0 2 11
0 2 11
0 2 11
0 2 11
0 2 11
0 2 11
0 2 11
0 2 11
0 2 11
0 2 11
0 2 11
0 2 11
0 2 11
0 2 11
0 2 11
0 2 11
0 2 11
0 2 11
0 2 11
0 2 11
4 4 12
4 4 12
4 4 12
4 4 12
4 4 12
5 5 12
35 35 12
66 66 12
101 101 12
0 2 11
0 2 11
0 2 11
0 2 11
0 2 11
0 2 11
0 2 11
0 2 11
4 4 12
4 4 12
4 4 12
4 4 12
4 4 12
4 4 12
4 4 12
4 4 12
0 2 11
0 2 11
0 2 11
0 2 11
0 2 11
0 2 11
61 61 70
107 107 116
126 126 134
128 128 136
117 117 125
95 95 104
65 65 73
23 23 32
0 2 11
0 2 11
0 2 11
0 2 11
0 2 11
0 2 11
0 2 11
0 2 11
0 2 11
0 2 11
0 2 11
4 73 82
4 19 28
4 4 12
4 4 12
4 4 12
4 4 12
4 4 12
4 4 12
4 4 12
0 2 11
0 2 11
0 2 11
0 2 11
0 2 11
0 2 11
0 2 11
0 2 11
0 2 11
0 2 11
0 2 11
0 2 11
0 2 11
0 2 11
0 2 11
0 2 11
0 2 11
0 2 11
0 2 11
0 2 11
0 2 11
0 2 11
0 2 11
0 2 11
0 2 11
0 2 11
0 2 11
0 2 11
0 2 11
0 2 11
0 2 11
0 2 11
0 2 11
0 2 11
0 2 11
0 2 11
0 2 11
0 2 11
0 2 11
0 2 11
0 2 11
0 2 11
0 2 11
0 2 11
0 2 11
0 2 11
0 2 11
0 2 11
0 2 11
0 2 11
0 2 11
0 2 11
0 2 11
0 2 11
0 2 11
0 2 11
0 2 11
0 2 11
0 2 11
0 2 11
0 2 11
0 2 11
0 2 11
0 2 11
0 2 11
0 2 11
0 2 11
0 2 11
0 2 11
0 2 11
0 2 11
0 2 11
0 2 11
0 2 11
0 2 11
0 2 11
0 2 11
0 2 11
0 2 11
0 2 11
0 2 11
0 2 11
0 2 11
0 2 11
0 2 11
0 2 11
0 2 11
0 2 11
0 2 11
0 2 11
0 2 11
0 2 11
0 2 11
0 2 11
0 2 11
0 2 11
0 2 11
0 2 11
0 2 11
0 2 11
0 2 11
0 2 11
0 2 11
0 2 11
0 2 11
0 2 11
0 2 11
0 2 11
0 2 11
0 2 11
0 2 11
0 2 11
0 2 11
0 2 11
0 2 11
0 2 11
0 2 11
0 2 11
0 2 11
0 2 11
0 2 11
0 2 11
0 2 11
0 2 11
0 2 11
0 2 11
0 2 11
0 2 11
0 2 11
0 2 11
0 2 11
0 2 11
0 2 11
0 2 11
0 2 11
0 2 11
0 2 11
0 2 11
0 2 11
0 2 11
0 2 11
0 2 11
0 2 11
0 2 11
0 2 11
0 2 11
0 2 11
0 2 11
0 2 11
0 2 11
0 2 11
0 2 11
0 2 11
0 2 11
0 2 11
0 2 11
0 2 11
0 2 11
0 2 11
0 2 11
0 2 11
0 2 11
0 2 11
0 2 11
0 2 11
0 2 11
0 2 11
0 2 11
0 2 11
0 2 11
0 2 11
0 2 11
0 2 11
0 2 11
0 2 11
0 2 11
0 2 11
0 2 11
0 2 11
0 2 11
0 2 11
0 2 11
0 2 11
0 2 11
0 2 11
0 2 11
0 2 11
0 2 11
0 2 11
0 2 11
0 2 11
0 2 11
0 2 11
0 2 11
0 2 11
0 2 11
0 2 11
0 2 11
0 2 11
0 2 11
0 2 11
0 2 11
0 2 11
0 2 11
0 2 11
0 2 11
0 2 11
0 2 11
0 2 11
0 2 11
0 2 11
0 2 11
0 2 11
0 2 11
0 2 11
0 2 11
0 2 11
0 2 11
0 2 11
0 2 11
0 2 11
0 2 11
0 2 11
0 2 11
0 2 11
0 2 11
0 2 11
0 2 11
0 2 11
0 2 11
0 2 11
0 2 11
0 2 11
0 2 11
0 2 11
0 2 11
0 2 11
0 2 11
0 2 11
0 2 11
0 2 11
0 2 11
4 4 12
4 4 12
4 4 12
4 4 12
4 4 12
30 30 12
61 61 12
96 96 12
0 2 11
0 2 11
0 2 11
0 2 11
0 2 11
0 2 11
0 2 11
0 2 11
0 2 11
4 4 12
4 4 12
4 4 12
4 4 12
4 4 12
4 4 12
0 2 11
0 2 11
0 2 11
0 2 11
0 2 11
0 2 11
0 2 11
45 45 54
90 90 99
108 108 117
110 110 119
100 100 109
80 80 88
51 51 59
11 11 19
0 2 11
0 2 11
0 2 11
0 2 11
0 2 11
0 2 11
0 2 11
0 2 11
0 2 11
0 2 11
0 2 11
0 2 11
4 31 40
4 4 12
4 4 12
4 4 12
4 4 12
4 4 12
4 4 12
4 4 12
0 2 11
0 2 11
0 2 11
0 2 11
0 2 11
0 2 11
0 2 11
0 2 11
0 2 11
0 2 11
0 2 11
0 2 11
0 2 11
0 2 11
0 2 11
0 2 11
0 2 11
0 2 11
0 2 11
0 2 11
0 2 11
0 2 11
0 2 11
0 2 11
0 2 11
0 2 11
0 2 11
0 2 11
0 2 11
0 2 11
0 2 11
0 2 11
0 2 11
0 2 11
0 2 11
0 2 11
0 2 11
0 2 11
0 2 11
0 2 11
0 2 11
0 2 11
0 2 11
0 2 11
0 2 11
0 2 11
0 2 11
0 2 11
0 2 11
0 2 11
0 2 11
0 2 11
0 2 11
0 2 11
0 2 11
0 2 11
0 2 11
0 2 11
0 2 11
0 2 11
0 2 11
0 2 11
0 2 11
0 2 11
0 2 11
0 2 11
0 2 11
0 2 11
0 2 11
0 2 11
0 2 11
0 2 11
0 2 11
0 2 11
0 2 11
0 2 11
0 2 11
0 2 11
0 2 11
0 2 11
0 2 11
0 2 11
0 2 11
0 2 11
0 2 11
0 2 11
0 2 11
0 2 11
0 2 11
0 2 11
0 2 11
0 2 11
0 2 11
0 2 11
0 2 11
0 2 11
0 2 11
0 2 11
0 2 11
0 2 11
0 2 11
0 2 11
0 2 11
0 2 11
0 2 11
0 2 11
0 2 11
0 2 11
0 2 11
0 2 11
0 2 11
0 2 11
0 2 11
0 2 11
0 2 11
0 2 11
0 2 11
0 2 11
0 2 11
0 2 11
0 2 11
0 2 11
0 2 11
0 2 11
0 2 11
0 2 11
0 2 11
0 2 11
0 2 11
0 2 11
0 2 11
0 2 11
0 2 11
0 2 11
0 2 11
0 2 11
0 2 11
0 2 11
0 2 11
0 2 11
0 2 11
0 2 11
0 2 11
0 2 11
0 2 11
0 2 11
0 2 11
0 2 11
0 2 11
0 2 11
0 2 11
0 2 11
0 2 11
0 2 11
0 2 11
0 2 11
0 2 11
0 2 11
0 2 11
0 2 11
0 2 11
0 2 11
0 2 11
0 2 11
0 2 11
0 2 11
0 2 11
0 2 11
0 2 11
0 2 11
0 2 11
0 2 11
0 2 11
0 2 11
0 2 11
0 2 11
0 2 11
0 2 11
0 2 11
0 2 11
0 2 11
0 2 11
0 2 11
0 2 11
0 2 11
0 2 11
0 2 11
0 2 11
0 2 11
0 2 11
0 2 11
0 2 11
0 2 11
0 2 11
0 2 11
0 2 11
0 2 11
0 2 11
0 2 11
0 2 11
0 2 11
0 2 11
0 2 11
0 2 11
0 2 11
0 2 11
0 2 11
0 2 11
0 2 11
0 2 11
0 2 11
0 2 11
0 2 11
0 2 11
0 2 11
0 2 11
0 2 11
0 2 11
0 2 11
0 2 11
0 2 11
0 2 11
0 2 11
0 2 11
0 2 11
0 2 11
0 2 11
0 2 11
0 2 11
0 2 11
0 2 11
0 2 11
0 2 11
0 2 11
0 2 11
0 2 11
0 2 11
0 2 11
0 2 11
0 2 11
0 2 11
0 2 11
0 2 11
4 4 12
4 4 12
4 4 12
4 4 12
25 25 12
56 56 12
0 2 11
0 2 11
0 2 11
0 2 11
0 2 11
0 2 11
0 2 11
0 2 11
0 2 11
0 2 11
0 2 11
0 2 11
0 2 11
0 2 11
0 2 11
0 2 11
0 2 11
0 2 11
0 2 11
0 2 11
0 2 11
0 2 11
0 2 11
0 2 11
54 54 63
74 74 83
78 78 86
69 69 78
51 51 59
23 23 31
4 4 12
0 2 11
0 2 11
0 2 11
0 2 11
0 2 11
0 2 11
0 2 11
0 2 11
0 2 11
0 2 11
0 2 11
0 2 11
0 2 11
4 16 25
4 4 12
4 4 12
4 4 12
4 4 12
0 2 11
0 2 11
0 2 11
0 2 11
0 2 11
0 2 11
0 2 11
0 2 11
0 2 11
0 2 11
0 2 11
0 2 11
0 2 11
0 2 11
0 2 11
0 2 11
0 2 11
0 2 11
0 2 11
0 2 11
0 2 11
0 2 11
0 2 11
0 2 11
0 2 11
0 2 11
0 2 11
0 2 11
0 2 11
0 2 11
0 2 11
0 2 11
0 2 11
0 2 11
0 2 11
0 2 11
0 2 11
0 2 11
0 2 11
0 2 11
0 2 11
0 2 11
0 2 11
0 2 11
0 2 11
0 2 11
0 2 11
0 2 11
0 2 11
0 2 11
0 2 11
0 2 11
0 2 11
0 2 11
0 2 11
0 2 11
0 2 11
0 2 11
0 2 11
0 2 11
0 2 11
0 2 11
0 2 11
0 2 11
0 2 11
0 2 11
0 2 11
0 2 11
0 2 11
0 2 11
0 2 11
0 2 11
0 2 11
0 2 11
0 2 11
0 2 11
0 2 11
0 2 11
0 2 11
0 2 11
0 2 11
0 2 11
0 2 11
0 2 11
0 2 11
0 2 11
0 2 11
0 2 11
0 2 11
0 2 11
0 2 11
0 2 11
0 2 11
0 2 11
0 2 11
0 2 11
0 2 11
0 2 11
0 2 11
0 2 11
0 2 11
0 2 11
0 2 11
0 2 11
0 2 11
0 2 11
0 2 11
0 2 11
0 2 11
0 2 11
0 2 11
0 2 11
0 2 11
0 2 11
0 2 11
0 2 11
0 2 11
0 2 11
0 2 11
0 2 11
0 2 11
0 2 11
0 2 11
0 2 11
0 2 11
0 2 11
0 2 11
0 2 11
0 2 11
0 2 11
0 2 11
0 2 11
0 2 11
0 2 11
0 2 11
0 2 11
0 2 11
0 2 11
0 2 11
0 2 11
0 2 11
0 2 11
0 2 11
0 2 11
0 2 11
0 2 11
0 2 11
0 2 11
0 2 11
0 2 11
0 2 11
0 2 11
0 2 11
0 2 11
0 2 11
0 2 11
0 2 11
0 2 11
0 2 11
0 2 11
0 2 11
0 2 11
0 2 11
0 2 11
0 2 11
0 2 11
0 2 11
0 2 11
0 2 11
0 2 11
0 2 11
0 2 11
0 2 11
0 2 11
0 2 11
0 2 11
0 2 11
0 2 11
0 2 11
0 2 11
0 2 11
0 2 11
0 2 11
0 2 11
0 2 11
0 2 11
0 2 11
0 2 11
0 2 11
0 2 11
0 2 11
0 2 11
0 2 11
0 2 11
0 2 11
0 2 11
0 2 11
0 2 11
0 2 11
0 2 11
0 2 11
0 2 11
0 2 11
0 2 11
0 2 11
0 2 11
0 2 11
0 2 11
0 2 11
0 2 11
0 2 11
0 2 11
0 2 11
0 2 11
0 2 11
0 2 11
0 2 11
0 2 11
0 2 11
0 2 11
0 2 11
0 2 11
0 2 11
0 2 11
0 2 11
0 2 11
0 2 11
0 2 11
0 2 11
0 2 11
0 2 11
0 2 11
0 2 11
0 2 11
0 2 11
0 2 11
0 2 11
0 2 11
0 2 11
0 2 11
0 2 11
0 2 11
0 2 11
0 2 11
0 2 11
0 2 11
4 4 12
4 4 12
4 4 12
0 2 11
0 2 11
0 2 11
0 2 11
0 2 11
0 2 11
0 2 11
0 2 11
0 2 11
0 2 11
0 2 11
0 2 11
0 2 11
0 2 11
0 2 11
0 2 11
0 2 11
0 2 11
0 2 11
0 2 11
0 2 11
0 2 11
0 2 11
0 2 11
0 2 11
0 2 11
0 2 11
22 22 30
30 30 39
24 24 33
6 6 15
4 4 12
0 2 11
0 2 11
0 2 11
0 2 11
0 2 11
0 2 11
0 2 11
0 2 11
0 2 11
0 2 11
0 2 11
0 2 11
0 2 11
0 2 11
0 2 11
0 2 11
0 2 11
0 2 11
0 2 11
0 2 11
0 2 11
0 2 11
0 2 11
0 2 11
0 2 11
0 2 11
0 2 11
0 2 11
0 2 11
0 2 11
0 2 11
0 2 11
0 2 11
0 2 11
0 2 11
0 2 11
0 2 11
0 2 11
0 2 11
0 2 11
0 2 11
0 2 11
0 2 11
0 2 11
0 2 11
0 2 11
0 2 11
0 2 11
0 2 11
0 2 11
0 2 11
0 2 11
0 2 11
0 2 11
0 2 11
0 2 11
0 2 11
0 2 11
0 2 11
0 2 11
0 2 11
0 2 11
0 2 11
0 2 11
0 2 11
0 2 11
0 2 11
0 2 11
0 2 11
0 2 11
0 2 11
0 2 11
0 2 11
0 2 11
0 2 11
0 2 11
0 2 11
0 2 11
0 2 11
0 2 11
0 2 11
0 2 11
0 2 11
0 2 11
0 2 11
0 2 11
0 2 11
0 2 11
0 2 11
0 2 11
0 2 11
0 2 11
0 2 11
0 2 11
0 2 11
0 2 11
0 2 11
0 2 11
0 2 11
0 2 11
0 2 11
0 2 11
0 2 11
0 2 11
0 2 11
0 2 11
0 2 11
0 2 11
0 2 11
0 2 11
0 2 11
0 2 11
0 2 11
0 2 11
0 2 11
0 2 11
0 2 11
0 2 11
0 2 11
0 2 11
0 2 11
0 2 11
0 2 11
0 2 11
0 2 11
0 2 11
0 2 11
0 2 11
0 2 11
0 2 11
0 2 11
0 2 11
0 2 11
0 2 11
0 2 11
0 2 11
0 2 11
0 2 11
0 2 11
0 2 11
0 2 11
0 2 11
0 2 11
0 2 11
0 2 11
0 2 11
0 2 11
0 2 11
0 2 11
0 2 11
0 2 11
0 2 11
0 2 11
0 2 11
0 2 11
0 2 11
0 2 11
0 2 11
0 2 11
0 2 11
0 2 11
0 2 11
0 2 11
0 2 11
0 2 11
0 2 11
0 2 11
0 2 11
0 2 11
0 2 11
0 2 11
0 2 11
0 2 11
0 2 11
0 2 11
0 2 11
0 2 11
0 2 11
0 2 11
0 2 11
0 2 11
0 2 11
0 2 11
0 2 11
0 2 11
0 2 11
0 2 11
0 2 11
0 2 11
0 2 11
0 2 11
0 2 11
0 2 11
0 2 11
0 2 11
0 2 11
0 2 11
0 2 11
0 2 11
0 2 11
0 2 11
0 2 11
0 2 11
0 2 11
0 2 11
0 2 11
0 2 11
0 2 11
0 2 11
0 2 11
0 2 11
0 2 11
0 2 11
0 2 11
0 2 11
0 2 11
0 2 11
0 2 11
0 2 11
0 2 11
0 2 11
0 2 11
0 2 11
0 2 11
0 2 11
0 2 11
0 2 11
0 2 11
0 2 11
0 2 11
0 2 11
0 2 11
0 2 11
0 2 11
0 2 11
0 2 11
0 2 11
0 2 11
0 2 11
0 2 11
0 2 11
0 2 11
0 2 11
0 2 11
0 2 11
0 2 11
0 2 11
0 2 11
0 2 11
0 2 11
0 2 11
0 2 11
0 2 11
0 2 11
0 2 11
0 2 11
0 2 11
0 2 11
0 2 11
0 2 11
0 2 11
0 2 11
0 2 11
0 2 11
0 2 11
0 2 11
0 2 11
0 2 11
0 2 11
0 2 11
0 2 11
0 2 11
0 2 11
0 2 11
0 2 11
0 2 11
0 2 11
0 2 11
0 2 11
0 2 11
0 2 11
0 2 11
0 2 11
0 2 11
0 2 11
0 2 11
0 2 11
0 2 11
0 2 11
0 2 11
0 2 11
0 2 11
0 2 11
0 2 11
0 2 11
0 2 11
0 2 11
0 2 11
0 2 11
0 2 11
0 2 11
0 2 11
0 2 11
0 2 11
0 2 11
0 2 11
0 2 11
0 2 11
0 2 11
0 2 11
0 2 11
0 2 11
0 2 11
0 2 11
0 2 11
0 2 11
0 2 11
0 2 11
0 2 11
0 2 11
0 2 11
0 2 11
0 2 11
0 2 11
0 2 11
0 2 11
0 2 11
0 2 11
0 2 11
0 2 11
0 2 11
0 2 11
0 2 11
0 2 11
0 2 11
0 2 11
0 2 11
0 2 11
0 2 11
0 2 11
0 2 11
0 2 11
0 2 11
0 2 11
0 2 11
0 2 11
0 2 11
0 2 11
0 2 11
0 2 11
0 2 11
0 2 11
0 2 11
0 2 11
0 2 11
0 2 11
0 2 11
0 2 11
0 2 11
0 2 11
0 2 11
0 2 11
0 2 11
0 2 11
0 2 11
0 2 11
0 2 11
0 2 11
0 2 11
0 2 11
0 2 11
0 2 11
0 2 11
0 2 11
0 2 11
0 2 11
0 2 11
0 2 11
0 2 11
0 2 11
0 2 11
0 2 11
0 2 11
0 2 11
0 2 11
0 2 11
0 2 11
0 2 11
0 2 11
0 2 11
0 2 11
0 2 11
0 2 11
0 2 11
0 2 11
0 2 11
0 2 11
0 2 11
0 2 11
0 2 11
0 2 11
0 2 11
0 2 11
0 2 11
0 2 11
0 2 11
0 2 11
0 2 11
0 2 11
0 2 11
0 2 11
0 2 11
0 2 11
0 2 11
0 2 11
0 2 11
0 2 11
0 2 11
0 2 11
0 2 11
0 2 11
0 2 11
0 2 11
0 2 11
0 2 11
0 2 11
0 2 11
0 2 11
0 2 11
0 2 11
0 2 11
0 2 11
0 2 11
0 2 11
0 2 11
0 2 11
0 2 11
0 2 11
0 2 11
0 2 11
0 2 11
0 2 11
0 2 11
0 2 11
0 2 11
0 2 11
0 2 11
0 2 11
0 2 11
0 2 11
0 2 11
0 2 11
0 2 11
0 2 11
0 2 11
0 2 11
0 2 11
0 2 11
0 2 11
0 2 11
0 2 11
0 2 11
0 2 11
0 2 11
0 2 11
0 2 11
0 2 11
0 2 11
0 2 11
0 2 11
0 2 11
0 2 11
0 2 11
0 2 11
0 2 11
0 2 11
0 2 11
0 2 11
0 2 11
0 2 11
0 2 11
0 2 11
0 2 11
0 2 11
0 2 11
0 2 11
0 2 11
0 2 11
0 2 11
0 2 11
0 2 11
0 2 11
0 2 11
0 2 11
0 2 11
0 2 11
0 2 11
0 2 11
0 2 11
0 2 11
0 2 11
0 2 11
0 2 11
0 2 11
0 2 11
0 2 11
0 2 11
0 2 11
0 2 11
0 2 11
0 2 11
0 2 11
0 2 11
0 2 11
0 2 11
0 2 11
0 2 11
0 2 11
0 2 11
0 2 11
0 2 11
0 2 11
0 2 11
0 2 11
0 2 11
0 2 11
0 2 11
0 2 11
0 2 11
0 2 11
0 2 11
0 2 11
0 2 11
0 2 11
0 2 11
0 2 11
0 2 11
0 2 11
0 2 11
0 2 11
0 2 11
0 2 11
0 2 11
0 2 11
0 2 11
0 2 11
0 2 11
0 2 11
0 2 11
0 2 11
0 2 11
0 2 11
0 2 11
0 2 11
0 2 11
0 2 11
0 2 11
0 2 11
0 2 11
0 2 11
0 2 11
0 2 11
0 2 11
0 2 11
0 2 11
0 2 11
0 2 11
0 2 11
0 2 11
0 2 11
0 2 11
0 2 11
0 2 11
0 2 11
0 2 11
0 2 11
25 25 25
25 25 25
25 25 25
25 25 25
25 25 25
25 25 25
25 25 25
25 25 25
25 25 25
25 25 25
25 25 25
25 25 25
25 25 25
25 25 25
25 25 25
25 25 25
25 25 25
25 25 25
25 25 25
25 25 25
25 25 25
25 25 25
0 2 11
0 2 11
0 2 11
0 2 11
0 2 11
0 2 11
0 2 11
0 2 11
0 2 11
0 2 11
0 2 11
0 2 11
0 2 11
0 2 11
0 2 11
0 2 11
0 2 11
0 2 11
0 2 11
0 2 11
0 2 11
0 2 11
0 2 11
0 2 11
0 2 11
0 2 11
0 2 11
0 2 11
0 2 11
0 2 11
0 2 11
0 2 11
0 2 11
0 2 11
0 2 11
0 2 11
0 2 11
0 2 11
0 2 11
0 2 11
0 2 11
0 2 11
0 2 11
0 2 11
0 2 11
0 2 11
0 2 11
0 2 11
0 2 11
0 2 11
0 2 11
0 2 11
0 2 11
0 2 11
0 2 11
0 2 11
0 2 11
0 2 11
0 2 11
0 2 11
0 2 11
0 2 11
0 2 11
0 2 11
0 2 11
0 2 11
0 2 11
0 2 11
0 2 11
0 2 11
0 2 11
0 2 11
0 2 11
0 2 11
0 2 11
0 2 11
0 2 11
0 2 11
0 2 11
0 2 11
0 2 11
0 2 11
0 2 11
0 2 11
0 2 11
0 2 11
0 2 11
0 2 11
0 2 11
0 2 11
0 2 11
0 2 11
0 2 11
0 2 11
0 2 11
0 2 11
0 2 11
0 2 11
0 2 11
0 2 11
0 2 11
0 2 11
0 2 11
0 2 11
0 2 11
0 2 11
0 2 11
0 2 11
0 2 11
0 2 11
0 2 11
0 2 11
0 2 11
0 2 11
0 2 11
0 2 11
0 2 11
0 2 11
0 2 11
0 2 11
0 2 11
0 2 11
0 2 11
0 2 11
0 2 11
0 2 11
0 2 11
0 2 11
0 2 11
0 2 11
0 2 11
0 2 11
0 2 11
0 2 11
0 2 11
0 2 11
0 2 11
0 2 11
0 2 11
0 2 11
0 2 11
0 2 11
0 2 11
0 2 11
0 2 11
0 2 11
0 2 11
0 2 11
0 2 11
0 2 11
0 2 11
0 2 11
0 2 11
0 2 11
0 2 11
0 2 11
0 2 11
0 2 11
0 2 11
0 2 11
0 2 11
0 2 11
0 2 11
0 2 11
0 2 11
0 2 11
0 2 11
0 2 11
0 2 11
0 2 11
0 2 11
0 2 11
0 2 11
0 2 11
0 2 11
0 2 11
0 2 11
0 2 11
0 2 11
0 2 11
0 2 11
0 2 11
0 2 11
0 2 11
0 2 11
0 2 11
0 2 11
0 2 11
0 2 11
0 2 11
0 2 11
0 2 11
0 2 11
0 2 11
0 2 11
0 2 11
0 2 11
0 2 11
0 2 11
0 2 11
0 2 11
0 2 11
0 2 11
0 2 11
0 2 11
0 2 11
0 2 11
0 2 11
0 2 11
0 2 11
0 2 11
0 2 11
0 2 11
0 2 11
0 2 11
0 2 11
0 2 11
0 2 11
0 2 11
0 2 11
0 2 11
0 2 11
0 2 11
0 2 11
0 2 11
0 2 11
0 2 11
0 2 11
0 2 11
0 2 11
0 2 11
0 2 11
0 2 11
0 2 11
0 2 11
0 2 11
0 2 11
0 2 11
0 2 11
0 2 11
0 2 11
0 2 11
0 2 11
0 2 11
0 2 11
0 2 11
0 2 11
0 2 11
0 2 11
0 2 11
0 2 11
0 2 11
0 2 11
0 2 11
0 2 11
0 2 11
0 2 11
0 2 11
0 2 11
0 2 11
0 2 11
0 2 11
0 2 11
0 2 11
0 2 11
0 2 11
0 2 11
0 2 11
0 2 11
0 2 11
0 2 11
0 2 11
0 2 11
0 2 11
0 2 11
0 2 11
0 2 11
25 25 25
25 25 25
25 25 25
25 25 25
25 25 25
25 25 25
25 25 25
25 25 25
25 25 25
25 25 25
25 25 25
25 25 25
25 25 25
25 25 25
25 25 25
25 25 25
25 25 25
25 25 25
25 25 25
25 25 25
25 25 25
25 25 25
25 25 25
25 25 25
25 25 25
25 25 25
25 25 25
25 25 25
25 25 25
25 25 25
25 25 25
25 25 25
25 25 25
0 2 11
0 2 11
0 2 11
0 2 11
0 2 11
0 2 11
0 2 11
0 2 11
0 2 11
0 2 11
0 2 11
0 2 11
0 2 11
0 2 11
0 2 11
0 2 11
0 2 11
0 2 11
0 2 11
0 2 11
0 2 11
0 2 11
0 2 11
0 2 11
0 2 11
0 2 11
0 2 11
0 2 11
0 2 11
0 2 11
0 2 11
0 2 11
0 2 11
0 2 11
0 2 11
0 2 11
0 2 11
0 2 11
0 2 11
0 2 11
0 2 11
0 2 11
0 2 11
0 2 11
0 2 11
0 2 11
0 2 11
0 2 11
0 2 11
0 2 11
0 2 11
0 2 11
0 2 11
0 2 11
0 2 11
0 2 11
0 2 11
0 2 11
0 2 11
0 2 11
0 2 11
0 2 11
0 2 11
0 2 11
0 2 11
0 2 11
0 2 11
0 2 11
0 2 11
0 2 11
0 2 11
0 2 11
0 2 11
0 2 11
0 2 11
0 2 11
0 2 11
0 2 11
0 2 11
0 2 11
0 2 11
0 2 11
0 2 11
0 2 11
0 2 11
0 2 11
0 2 11
0 2 11
0 2 11
0 2 11
0 2 11
0 2 11
0 2 11
0 2 11
0 2 11
0 2 11
0 2 11
0 2 11
0 2 11
0 2 11
0 2 11
0 2 11
0 2 11
0 2 11
0 2 11
0 2 11
0 2 11
0 2 11
0 2 11
0 2 11
0 2 11
0 2 11
0 2 11
0 2 11
0 2 11
0 2 11
0 2 11
0 2 11
0 2 11
0 2 11
0 2 11
0 2 11
0 2 11
0 2 11
0 2 11
0 2 11
0 2 11
0 2 11
0 2 11
0 2 11
0 2 11
0 2 11
0 2 11
0 2 11
0 2 11
0 2 11
0 2 11
0 2 11
0 2 11
0 2 11
0 2 11
0 2 11
0 2 11
0 2 11
0 2 11
0 2 11
0 2 11
0 2 11
0 2 11
0 2 11
0 2 11
0 2 11
0 2 11
0 2 11
0 2 11
0 2 11
0 2 11
0 2 11
0 2 11
0 2 11
0 2 11
0 2 11
0 2 11
0 2 11
0 2 11
0 2 11
0 2 11
0 2 11
0 2 11
0 2 11
0 2 11
0 2 11
0 2 11
0 2 11
0 2 11
0 2 11
0 2 11
0 2 11
0 2 11
0 2 11
0 2 11
0 2 11
0 2 11
0 2 11
0 2 11
0 2 11
0 2 11
0 2 11
0 2 11
0 2 11
0 2 11
0 2 11
0 2 11
0 2 11
0 2 11
0 2 11
0 2 11
0 2 11
0 2 11
0 2 11
0 2 11
0 2 11
0 2 11
0 2 11
0 2 11
0 2 11
0 2 11
0 2 11
0 2 11
0 2 11
0 2 11
0 2 11
0 2 11
0 2 11
0 2 11
0 2 11
0 2 11
0 2 11
0 2 11
0 2 11
0 2 11
0 2 11
0 2 11
0 2 11
0 2 11
0 2 11
0 2 11
0 2 11
0 2 11
0 2 11
0 2 11
0 2 11
0 2 11
0 2 11
0 2 11
0 2 11
0 2 11
0 2 11
0 2 11
0 2 11
0 2 11
0 2 11
0 2 11
0 2 11
0 2 11
0 2 11
0 2 11
0 2 11
0 2 11
0 2 11
0 2 11
0 2 11
0 2 11
0 2 11
0 2 11
0 2 11
0 2 11
0 2 11
0 2 11
0 2 11
0 2 11
0 2 11
0 2 11
0 2 11
0 2 11
0 2 11
0 2 11
25 25 25
25 25 25
25 25 25
25 25 25
25 25 25
25 25 25
25 25 25
25 25 25
25 25 25
25 25 25
25 25 25
25 25 25
25 25 25
25 25 25
25 25 25
25 25 25
25 25 25
25 25 25
25 25 25
25 25 25
25 25 25
25 25 25
25 25 25
25 25 25
25 25 25
25 25 25
25 25 25
25 25 25
25 25 25
25 25 25
25 25 25
25 25 25
25 25 25
0 2 11
0 2 11
0 2 11
0 2 11
0 2 11
0 2 11
0 2 11
0 2 11
0 2 11
0 2 11
0 2 11
0 2 11
0 2 11
0 2 11
0 2 11
0 2 11
0 2 11
0 2 11
0 2 11
0 2 11
0 2 11
0 2 11
0 2 11
0 2 11
0 2 11
0 2 11
0 2 11
0 2 11
68 0 0
71 0 0
71 0 0
70 0 0
68 0 0
65 0 0
61 0 0
56 0 0
50 0 0
41 0 0
0 2 11
0 2 11
0 2 11
0 2 11
0 2 11
0 2 11
0 2 11
0 2 11
0 2 11
0 2 11
0 2 11
0 2 11
0 2 11
0 2 11
0 2 11
0 2 11
0 2 11
0 2 11
0 2 11
0 2 11
0 2 11
0 2 11
0 2 11
0 2 11
0 2 11
0 2 11
0 2 11
0 2 11
0 2 11
0 2 11
0 2 11
0 2 11
0 2 11
0 2 11
0 2 11
0 2 11
0 2 11
0 2 11
0 2 11
0 2 11
0 2 11
0 2 11
0 2 11
0 2 11
0 2 11
0 2 11
0 2 11
0 2 11
0 2 11
0 2 11
0 2 11
0 2 11
0 2 11
0 2 11
0 2 11
0 2 11
0 2 11
0 2 11
0 2 11
0 2 11
0 2 11
0 2 11
0 2 11
0 2 11
0 2 11
0 2 11
0 2 11
0 2 11
0 2 11
0 2 11
0 2 11
0 2 11
0 2 11
0 2 11
0 2 11
0 2 11
0 2 11
0 2 11
0 2 11
0 2 11
0 2 11
0 2 11
0 2 11
0 2 11
0 2 11
0 2 11
0 2 11
0 2 11
0 2 11
0 2 11
0 2 11
0 2 11
0 2 11
0 2 11
0 2 11
0 2 11
0 2 11
0 2 11
0 2 11
0 2 11
0 2 11
0 2 11
0 2 11
0 2 11
0 2 11
0 2 11
0 2 11
0 2 11
0 2 11
0 2 11
0 2 11
0 2 11
0 2 11
0 2 11
0 2 11
0 2 11
0 2 11
0 2 11
0 2 11
0 2 11
0 2 11
0 2 11
0 2 11
0 2 11
0 2 11
0 2 11
0 2 11
0 2 11
0 2 11
0 2 11
0 2 11
0 2 11
0 2 11
0 2 11
0 2 11
0 2 11
0 2 11
0 2 11
0 2 11
0 2 11
0 2 11
0 2 11
0 2 11
0 2 11
0 2 11
0 2 11
0 2 11
0 2 11
0 2 11
0 2 11
0 2 11
0 2 11
0 2 11
0 2 11
0 2 11
0 2 11
0 2 11
0 2 11
0 2 11
0 2 11
0 2 11
0 2 11
0 2 11
0 2 11
0 2 11
0 2 11
0 2 11
0 2 11
0 2 11
0 2 11
0 2 11
0 2 11
0 2 11
0 2 11
0 2 11
0 2 11
0 2 11
0 2 11
0 2 11
0 2 11
0 2 11
0 2 11
0 2 11
0 2 11
0 2 11
0 2 11
0 2 11
0 2 11
0 2 11
0 2 11
0 2 11
0 2 11
0 2 11
0 2 11
0 2 11
0 2 11
0 2 11
0 2 11
0 2 11
0 2 11
0 2 11
0 2 11
0 2 11
0 2 11
0 2 11
0 2 11
0 2 11
0 2 11
0 2 11
0 2 11
0 2 11
0 2 11
0 2 11
0 2 11
0 2 11
0 2 11
0 2 11
0 2 11
0 2 11
0 2 11
0 2 11
0 2 11
0 2 11
0 2 11
0 2 11
0 2 11
0 2 11
0 2 11
0 2 11
25 25 25
25 25 25
25 25 25
25 25 25
25 25 25
25 25 25
25 25 25
25 25 25
25 25 25
25 25 25
25 25 25
25 25 25
25 25 25
25 25 25
25 25 25
25 25 25
25 25 25
25 25 25
25 25 25
25 25 25
25 25 25
25 25 25
25 25 25
25 25 25
25 25 25
25 25 25
25 25 25
25 25 25
25 25 25
25 25 25
25 25 25
25 25 25
25 25 25
0 2 11
0 2 11
0 2 11
0 2 11
0 2 11
0 2 11
0 2 11
0 2 11
0 2 11
0 2 11
0 2 11
0 2 11
0 2 11
0 2 11
0 2 11
0 2 11
0 2 11
0 2 11
0 2 11
0 2 11
0 2 11
0 2 11
0 2 11
0 2 11
78 0 0
86 0 0
90 0 0
92 0 0
93 0 0
92 0 0
91 0 0
89 0 0
86 0 0
83 0 0
79 0 0
74 0 0
69 0 0
64 0 0
57 0 0
50 0 0
41 0 0
28 0 0
0 2 11
0 2 11
0 2 11
0 2 11
0 2 11
0 2 11
0 2 11
0 2 11
0 2 11
0 2 11
0 2 11
0 2 11
0 2 11
0 2 11
0 2 11
0 2 11
0 2 11
0 2 11
0 2 11
0 2 11
0 2 11
0 2 11
0 2 11
0 2 11
0 2 11
0 2 11
0 2 11
0 2 11
0 2 11
0 2 11
0 2 11
0 2 11
0 2 11
0 2 11
0 2 11
0 2 11
0 2 11
0 2 11
0 2 11
0 2 11
0 2 11
0 2 11
0 2 11
0 2 11
0 2 11
0 2 11
0 2 11
0 2 11
0 2 11
0 2 11
0 2 11
0 2 11
0 2 11
0 2 11
0 2 11
0 2 11
0 2 11
0 2 11
0 2 11
0 2 11
0 2 11
0 2 11
0 2 11
0 2 11
0 2 11
0 2 11
0 2 11
0 2 11
0 2 11
0 2 11
0 2 11
0 2 11
0 2 11
0 2 11
0 2 11
0 2 11
0 2 11
0 2 11
0 2 11
0 2 11
0 2 11
0 2 11
0 2 11
0 2 11
0 2 11
0 2 11
0 2 11
0 2 11
0 2 11
0 2 11
0 2 11
0 2 11
0 2 11
0 2 11
0 2 11
0 2 11
0 2 11
0 2 11
0 2 11
0 2 11
0 2 11
0 2 11
0 2 11
0 2 11
0 2 11
0 2 11
0 2 11
0 2 11
0 2 11
0 2 11
0 2 11
0 2 11
0 2 11
0 2 11
0 2 11
0 2 11
0 2 11
0 2 11
0 2 11
0 2 11
0 2 11
0 2 11
0 2 11
0 2 11
0 2 11
0 2 11
0 2 11
0 2 11
0 2 11
0 2 11
0 2 11
0 2 11
0 2 11
0 2 11
0 2 11
0 2 11
0 2 11
0 2 11
0 2 11
0 2 11
0 2 11
0 2 11
0 2 11
0 2 11
0 2 11
0 2 11
0 2 11
0 2 11
0 2 11
0 2 11
0 2 11
0 2 11
0 2 11
0 2 11
0 2 11
0 2 11
0 2 11
0 2 11
0 2 11
0 2 11
0 2 11
0 2 11
0 2 11
0 2 11
0 2 11
0 2 11
0 2 11
0 2 11
0 2 11
0 2 11
0 2 11
0 2 11
0 2 11
0 2 11
0 2 11
0 2 11
0 2 11
0 2 11
0 2 11
0 2 11
0 2 11
0 2 11
0 2 11
0 2 11
0 2 11
0 2 11
0 2 11
0 2 11
0 2 11
0 2 11
0 2 11
0 2 11
0 2 11
0 2 11
0 2 11
0 2 11
0 2 11
0 2 11
0 2 11
0 2 11
0 2 11
0 2 11
0 2 11
0 2 11
0 2 11
0 2 11
0 2 11
0 2 11
0 2 11
0 2 11
0 2 11
0 2 11
0 2 11
0 2 11
0 2 11
0 2 11
0 2 11
0 2 11
0 2 11
0 2 11
0 2 11
0 2 11
0 2 11
0 2 11
0 2 11
25 25 25
25 25 25
25 25 25
25 25 25
25 25 25
25 25 25
25 25 25
25 25 25
25 25 25
25 25 25
25 25 25
25 25 25
25 25 25
25 25 25
25 25 25
25 25 25
25 25 25
25 25 25
25 25 25
25 25 25
25 25 25
25 25 25
25 25 25
25 25 25
25 25 25
25 25 25
25 25 25
25 25 25
25 25 25
25 25 25
25 25 25
25 25 25
25 25 25
0 2 11
0 2 11
0 2 11
0 2 11
0 2 11
0 2 11
0 2 11
0 2 11
0 2 11
0 2 11
0 2 11
0 2 11
0 2 11
0 2 11
0 2 11
0 2 11
0 2 11
0 2 11
0 2 11
0 2 11
0 2 11
0 2 11
90 0 0
98 0 0
103 0 0
105 0 0
107 0 0
107 0 0
106 0 0
105 0 0
103 0 0
101 0 0
98 0 0
94 0 0
90 0 0
86 0 0
81 0 0
76 0 0
70 0 0
64 0 0
56 0 0
49 0 0
39 0 0
28 0 0
0 2 11
0 2 11
0 2 11
0 2 11
0 2 11
0 2 11
0 2 11
0 2 11
0 2 11
0 2 11
0 2 11
0 2 11
0 2 11
0 2 11
0 2 11
0 2 11
0 2 11
0 2 11
0 2 11
0 2 11
0 2 11
0 2 11
0 2 11
0 2 11
0 2 11
0 2 11
0 2 11
0 2 11
0 2 11
0 2 11
0 2 11
0 2 11
0 2 11
0 2 11
0 2 11
0 2 11
0 2 11
0 2 11
0 2 11
0 2 11
0 2 11
0 2 11
0 2 11
0 2 11
0 2 11
0 2 11
0 2 11
0 2 11
0 2 11
0 2 11
0 2 11
0 2 11
0 2 11
0 2 11
0 2 11
0 2 11
0 2 11
0 2 11
0 2 11
0 2 11
0 2 11
0 2 11
0 2 11
0 2 11
0 2 11
0 2 11
0 2 11
0 2 11
0 2 11
0 2 11
0 2 11
0 2 11
0 2 11
0 2 11
0 2 11
0 2 11
0 2 11
0 2 11
0 2 11
0 2 11
0 2 11
0 2 11
0 2 11
0 2 11
0 2 11
0 2 11
0 2 11
0 2 11
0 2 11
0 2 11
0 2 11
0 2 11
0 2 11
0 2 11
0 2 11
0 2 11
0 2 11
0 2 11
0 2 11
0 2 11
0 2 11
0 2 11
0 2 11
0 2 11
0 2 11
0 2 11
0 2 11
0 2 11
0 2 11
0 2 11
0 2 11
0 2 11
0 2 11
0 2 11
0 2 11
0 2 11
0 2 11
0 2 11
0 2 11
0 2 11
0 2 11
0 2 11
0 2 11
0 2 11
0 2 11
0 2 11
0 2 11
0 2 11
0 2 11
0 2 11
0 2 11
0 2 11
0 2 11
0 2 11
0 2 11
0 2 11
0 2 11
0 2 11
0 2 11
0 2 11
0 2 11
0 2 11
0 2 11
0 2 11
0 2 11
0 2 11
0 2 11
0 2 11
0 2 11
0 2 11
0 2 11
0 2 11
0 2 11
0 2 11
0 2 11
0 2 11
0 2 11
0 2 11
0 2 11
0 2 11
0 2 11
0 2 11
0 2 11
0 2 11
0 2 11
0 2 11
0 2 11
0 2 11
0 2 11
0 2 11
0 2 11
0 2 11
0 2 11
0 2 11
0 2 11
0 2 11
0 2 11
0 2 11
0 2 11
0 2 11
0 2 11
0 2 11
0 2 11
0 2 11
0 2 11
0 2 11
0 2 11
0 2 11
0 2 11
0 2 11
0 2 11
0 2 11
0 2 11
0 2 11
0 2 11
0 2 11
0 2 11
0 2 11
0 2 11
0 2 11
0 2 11
0 2 11
0 2 11
0 2 11
0 2 11
0 2 11
0 2 11
0 2 11
0 2 11
0 2 11
0 2 11
0 2 11
0 2 11
0 2 11
0 2 11
0 2 11
0 2 11
0 2 11
0 2 11
0 2 11
0 2 11
0 2 11
0 2 11
25 25 25
25 25 25
25 25 25
25 25 25
25 25 25
25 25 25
25 25 25
25 25 25
25 25 25
25 25 25
25 25 25
25 25 25
25 25 25
25 25 25
25 25 25
25 25 25
25 25 25
25 25 25
25 25 25
25 25 25
25 25 25
25 25 25
25 25 25
25 25 25
25 25 25
25 25 25
25 25 25
25 25 25
25 25 25
25 25 25
25 25 25
25 25 25
25 25 25
0 2 11
0 2 11
0 2 11
0 2 11
0 2 11
0 2 11
0 2 11
0 2 11
0 2 11
0 2 11
0 2 11
0 2 11
0 2 11
0 2 11
0 2 11
0 2 11
0 2 11
0 2 11
0 2 11
0 2 11
94 0 0
104 0 0
110 0 0
114 0 0
116 0 0
118 0 0
118 0 0
117 0 0
116 0 0
114 0 0
112 0 0
109 0 0
106 0 0
103 0 0
99 0 0
94 0 0
89 0 0
84 0 0
79 0 0
73 0 0
66 0 0
59 0 0
52 0 0
43 0 0
33 0 0
25 0 0
0 2 11
0 2 11
0 2 11
0 2 11
0 2 11
0 2 11
0 2 11
0 2 11
0 2 11
0 2 11
0 2 11
0 2 11
0 2 11
0 2 11
0 2 11
0 2 11
0 2 11
0 2 11
0 2 11
0 2 11
0 2 11
0 2 11
0 2 11
0 2 11
0 2 11
0 2 11
0 2 11
0 2 11
0 2 11
0 2 11
0 2 11
0 2 11
0 2 11
0 2 11
0 2 11
0 2 11
0 2 11
0 2 11
0 2 11
0 2 11
0 2 11
0 2 11
0 2 11
0 2 11
0 2 11
0 2 11
0 2 11
0 2 11
0 2 11
0 2 11
0 2 11
0 2 11
0 2 11
0 2 11
0 2 11
0 2 11
0 2 11
0 2 11
0 2 11
0 2 11
0 2 11
0 2 11
0 2 11
0 2 11
0 2 11
0 2 11
0 2 11
0 2 11
0 2 11
0 2 11
0 2 11
0 2 11
0 2 11
0 2 11
0 2 11
0 2 11
0 2 11
0 2 11
0 2 11
0 2 11
0 2 11
0 2 11
0 2 11
0 2 11
0 2 11
0 2 11
0 2 11
0 2 11
0 2 11
0 2 11
0 2 11
0 2 11
0 2 11
0 2 11
0 2 11
0 2 11
0 2 11
0 2 11
0 2 11
0 2 11
0 2 11
0 2 11
0 2 11
0 2 11
0 2 11
0 2 11
0 2 11
0 2 11
0 2 11
0 2 11
0 2 11
0 2 11
0 2 11
0 2 11
0 2 11
0 2 11
0 2 11
0 2 11
0 2 11
0 2 11
0 2 11
0 2 11
0 2 11
0 2 11
0 2 11
0 2 11
0 2 11
0 2 11
0 2 11
0 2 11
0 2 11
0 2 11
0 2 11
0 2 11
0 2 11
0 2 11
0 2 11
0 2 11
0 2 11
0 2 11
0 2 11
0 2 11
0 2 11
0 2 11
0 2 11
0 2 11
0 2 11
0 2 11
0 2 11
0 2 11
0 2 11
0 2 11
0 2 11
0 2 11
0 2 11
0 2 11
0 2 11
0 2 11
0 2 11
0 2 11
0 2 11
0 2 11
0 2 11
0 2 11
0 2 11
0 2 11
0 2 11
0 2 11
0 2 11
0 2 11
0 2 11
0 2 11
0 2 11
0 2 11
0 2 11
0 2 11
0 2 11
0 2 11
0 2 11
0 2 11
0 2 11
0 2 11
0 2 11
0 2 11
0 2 11
0 2 11
0 2 11
0 2 11
0 2 11
0 2 11
0 2 11
0 2 11
0 2 11
0 2 11
0 2 11
0 2 11
0 2 11
0 2 11
0 2 11
0 2 11
0 2 11
0 2 11
0 2 11
0 2 11
0 2 11
0 2 11
0 2 11
0 2 11
0 2 11
0 2 11
0 2 11
0 2 11
0 2 11
0 2 11
0 2 11
0 2 11
0 2 11
0 2 11
0 2 11
0 2 11
0 2 11
25 25 25
25 25 25
25 25 25
25 25 25
25 25 25
25 25 25
25 25 25
25 25 25
25 25 25
25 25 25
25 25 25
25 25 25
25 25 25
25 25 25
25 25 25
25 25 25
25 25 25
25 25 25
25 25 25
25 25 25
25 25 25
25 25 25
25 25 25
25 25 25
25 25 25
25 25 25
25 25 25
25 25 25
25 25 25
25 25 25
25 25 25
25 25 25
25 25 25
0 2 11
0 2 11
0 2 11
0 2 11
0 2 11
0 2 11
0 2 11
0 2 11
0 2 11
0 2 11
0 2 11
0 2 11
0 2 11
0 2 11
0 2 11
0 2 11
0 2 11
0 2 11
25 0 0
105 0 0
114 0 0
119 0 0
123 0 0
125 0 0
126 0 0
127 0 0
126 0 0
125 0 0
124 0 0
122 0 0
119 0 0
116 0 0
113 0 0
109 0 0
105 0 0
101 0 0
96 0 0
91 0 0
85 0 0
80 0 0
74 0 0
67 0 0
60 0 0
52 0 0
44 0 0
35 0 0
25 0 0
25 0 0
0 2 11
0 2 11
0 2 11
0 2 11
0 2 11
0 2 11
0 2 11
0 2 11
0 2 11
0 2 11
0 2 11
0 2 11
0 2 11
0 2 11
0 2 11
0 2 11
0 2 11
0 2 11
0 2 11
0 2 11
0 2 11
0 2 11
0 2 11
0 2 11
0 2 11
0 2 11
0 2 11
0 2 11
0 2 11
0 2 11
0 2 11
0 2 11
0 2 11
0 2 11
0 2 11
0 2 11
0 2 11
0 2 11
0 2 11
0 2 11
0 2 11
0 2 11
0 2 11
0 2 11
0 2 11
0 2 11
0 2 11
0 2 11
0 2 11
0 2 11
0 2 11
0 2 11
0 2 11
0 2 11
0 2 11
0 2 11
0 2 11
0 2 11
0 2 11
0 2 11
0 2 11
0 2 11
0 2 11
0 2 11
0 2 11
0 2 11
0 2 11
0 2 11
0 2 11
0 2 11
0 2 11
0 2 11
0 2 11
0 2 11
0 2 11
0 2 11
0 2 11
0 2 11
0 2 11
0 2 11
0 2 11
0 2 11
0 2 11
0 2 11
0 2 11
0 2 11
0 2 11
0 2 11
0 2 11
0 2 11
0 2 11
0 2 11
0 2 11
0 2 11
0 2 11
0 2 11
0 2 11
0 2 11
0 2 11
0 2 11
0 2 11
0 2 11
0 2 11
0 2 11
0 2 11
0 2 11
0 2 11
0 2 11
0 2 11
0 2 11
0 2 11
0 2 11
0 2 11
0 2 11
0 2 11
0 2 11
0 2 11
0 2 11
0 2 11
0 2 11
0 2 11
0 2 11
0 2 11
0 2 11
0 2 11
0 2 11
0 2 11
0 2 11
0 2 11
0 2 11
0 2 11
0 2 11
0 2 11
0 2 11
0 2 11
0 2 11
0 2 11
0 2 11
0 2 11
0 2 11
0 2 11
0 2 11
0 2 11
0 2 11
0 2 11
0 2 11
0 2 11
0 2 11
0 2 11
0 2 11
0 2 11
0 2 11
0 2 11
0 2 11
0 2 11
0 2 11
0 2 11
0 2 11
0 2 11
0 2 11
0 2 11
0 2 11
0 2 11
0 2 11
0 2 11
0 2 11
0 2 11
0 2 11
0 2 11
0 2 11
0 2 11
0 2 11
0 2 11
0 2 11
0 2 11
0 2 11
0 2 11
0 2 11
0 2 11
0 2 11
0 2 11
0 2 11
0 2 11
0 2 11
0 2 11
0 2 11
0 2 11
0 2 11
0 2 11
0 2 11
0 2 11
0 2 11
0 2 11
0 2 11
0 2 11
0 2 11
0 2 11
0 2 11
0 2 11
0 2 11
0 2 11
0 2 11
0 2 11
0 2 11
0 2 11
0 2 11
0 2 11
0 2 11
0 2 11
0 2 11
0 2 11
0 2 11
0 2 11
0 2 11
0 2 11
0 2 11
0 2 11
0 2 11
0 2 11
25 25 25
25 25 25
25 25 25
25 25 25
25 25 25
25 25 25
25 25 25
25 25 25
25 25 25
25 25 25
25 25 25
25 25 25
25 25 25
25 25 25
25 25 25
25 25 25
25 25 25
25 25 25
25 25 25
25 25 25
25 25 25
25 25 25
25 25 25
25 25 25
25 25 25
25 25 25
25 25 25
25 25 25
25 25 25
25 25 25
25 25 25
25 25 25
25 25 25
0 2 11
0 2 11
0 2 11
0 2 11
0 2 11
0 2 11
0 2 11
0 2 11
0 2 11
0 2 11
0 2 11
0 2 11
0 2 11
0 2 11
0 2 11
0 2 11
0 2 11
25 0 0
25 0 0
120 0 0
125 0 0
129 0 0
132 0 0
133 0 0
134 0 0
134 0 0
133 0 0
132 0 0
131 0 0
128 0 0
125 0 0
122 0 0
118 0 0
114 0 0
110 0 0
106 0 0
101 0 0
96 0 0
91 0 0
85 0 0
79 0 0
73 0 0
66 0 0
59 0 0
51 0 0
43 0 0
34 0 0
25 0 0
25 0 0
0 2 11
0 2 11
0 2 11
0 2 11
0 2 11
0 2 11
0 2 11
0 2 11
0 2 11
0 2 11
0 2 11
0 2 11
0 2 11
0 2 11
0 2 11
0 2 11
0 2 11
0 2 11
0 2 11
0 2 11
0 2 11
0 2 11
0 2 11
0 2 11
0 2 11
0 2 11
0 2 11
0 2 11
0 2 11
0 2 11
0 2 11
0 2 11
0 2 11
0 2 11
0 2 11
0 2 11
0 2 11
0 2 11
0 2 11
0 2 11
0 2 11
0 2 11
0 2 11
0 2 11
0 2 11
0 2 11
0 2 11
0 2 11
0 2 11
0 2 11
0 2 11
0 2 11
0 2 11
0 2 11
0 2 11
0 2 11
0 2 11
0 2 11
0 2 11
0 2 11
0 2 11
0 2 11
0 2 11
0 2 11
0 2 11
0 2 11
0 2 11
0 2 11
0 2 11
0 2 11
0 2 11
0 2 11
0 2 11
0 2 11
0 2 11
0 2 11
0 2 11
0 2 11
0 2 11
0 2 11
0 2 11
0 2 11
0 2 11
0 2 11
4 10 5
4 10 5
4 10 5
4 10 5
4 10 5
4 10 5
4 10 5
4 10 5
4 10 5
4 10 5
4 10 5
4 10 5
4 10 5
4 10 5
4 10 5
4 10 5
4 10 5
4 10 5
4 10 5
4 10 5
4 10 5
4 10 5
4 10 5
4 10 5
4 10 5
4 10 5
4 10 5
4 10 5
4 10 5
4 10 5
4 10 5
4 10 5
4 10 5
4 10 5
4 10 5
4 10 5
4 10 5
4 10 5
4 10 5
4 10 5
4 10 5
4 10 5
4 10 5
4 10 5
4 10 5
4 10 5
4 10 5
4 10 5
4 10 5
4 10 5
4 10 5
4 10 5
4 10 5
4 10 5
4 10 5
4 10 5
4 10 5
4 10 5
4 10 5
4 10 5
4 10 5
4 10 5
4 10 5
4 10 5
4 10 5
4 10 5
4 10 5
4 10 5
4 10 5
4 10 5
4 10 5
4 10 5
4 10 5
4 10 5
4 10 5
4 10 5
4 10 5
4 10 5
4 10 5
4 10 5
4 10 5
4 10 5
4 10 5
4 10 5
4 10 5
4 10 5
4 10 5
4 10 5
4 10 5
4 10 5
4 10 5
4 10 5
4 10 5
4 10 5
4 10 5
4 10 5
4 10 5
4 10 5
4 10 5
4 10 5
4 10 5
4 10 5
4 10 5
4 10 5
4 10 5
4 10 5
4 10 5
4 10 5
4 10 5
4 10 5
4 10 5
4 10 5
4 10 5
4 10 5
4 10 5
4 10 5
4 10 5
4 10 5
4 10 5
4 10 5
4 10 5
4 10 5
4 10 5
4 10 5
4 10 5
4 10 5
4 10 5
4 10 5
4 10 5
4 10 5
4 10 5
4 10 5
4 10 5
4 10 5
25 25 25
25 25 25
25 25 25
25 25 25
25 25 25
25 25 25
25 25 25
25 25 25
25 25 25
25 25 25
25 25 25
25 25 25
25 25 25
25 25 25
25 25 25
25 25 25
25 25 25
25 25 25
25 25 25
25 25 25
25 25 25
25 25 25
25 25 25
25 25 25
25 25 25
25 25 25
25 25 25
25 25 25
25 25 25
25 25 25
25 25 25
25 25 25
25 25 25
4 10 5
4 10 5
3 10 5
3 10 5
3 10 5
3 10 5
3 10 5
3 10 5
3 10 5
3 10 5
3 10 5
3 10 5
3 10 5
3 10 5
3 10 5
3 10 5
25 0 0
25 0 0
124 0 0
130 0 0
134 0 0
137 0 0
139 0 0
140 0 0
141 0 0
142 0 0
142 0 0
141 0 0
139 0 0
137 0 0
133 0 0
129 0 0
124 0 0
120 0 0
115 0 0
110 0 0
105 0 0
100 0 0
95 0 0
89 0 0
83 0 0
77 0 0
71 0 0
64 0 0
57 0 0
49 0 0
41 0 0
31 0 0
25 0 0
25 0 0
3 10 5
3 10 5
3 10 5
3 10 5
3 10 5
3 10 5
3 10 5
3 10 5
3 10 5
3 10 5
3 10 5
3 10 5
3 10 5
3 10 5
3 10 5
3 10 5
3 10 5
3 10 5
3 10 5
3 10 5
3 10 5
3 10 5
3 10 5
3 10 5
3 10 5
3 10 5
3 10 5
3 10 5
3 10 5
3 10 5
3 10 5
3 10 5
3 10 5
3 10 5
3 10 5
3 10 5
3 10 5
3 10 5
3 10 5
3 10 5
3 10 5
3 10 5
3 10 5
3 10 5
3 10 5
3 10 5
3 10 5
3 10 5
3 10 5
3 10 5
3 10 5
3 10 5
3 10 5
3 10 5
4 10 5
4 10 5
4 10 5
4 10 5
4 10 5
4 10 5
4 10 5
4 10 5
4 10 5
4 10 5
4 10 5
4 10 5
4 10 5
4 10 5
4 10 5
4 10 5
4 10 5
4 10 5
4 10 5
4 10 5
4 10 5
4 10 5
4 10 5
4 10 5
4 10 5
4 10 5
4 10 5
4 10 5
4 10 5
4 11 5
4 11 5
4 11 5
4 11 5
4 11 5
4 11 5
4 11 5
4 11 5
4 11 5
4 11 5
4 11 5
4 11 5
4 11 5
4 11 5
4 11 5
4 11 5
4 11 5
4 11 5
4 11 5
4 11 5
4 11 5
4 11 5
4 11 5
4 11 5
4 11 5
4 11 5
4 11 5
4 11 5
4 11 5
4 11 5
4 11 5
4 11 5
4 11 5
4 11 5
4 11 5
4 11 5
4 11 5
4 11 5
4 11 5
4 11 5
4 11 5
4 11 5
4 11 5
4 11 5
4 11 5
4 11 5
4 11 5
4 11 5
4 11 5
4 11 5
4 11 5
4 11 5
4 11 5
4 11 5
4 11 5
4 11 5
4 11 5
4 11 5
4 11 5
4 11 5
4 11 5
4 11 5
4 11 5
4 11 5
4 11 5
4 11 5
4 11 5
4 11 5
4 11 5
4 11 5
4 11 5
4 11 5
4 11 5
4 11 5
4 11 5
4 11 5
4 11 5
4 11 5
4 11 5
4 11 5
4 11 5
4 11 5
4 11 5
4 11 5
4 11 5
4 11 5
4 11 5
4 11 5
4 11 5
4 11 5
4 11 5
4 11 5
4 11 5
4 11 5
4 11 5
4 11 5
4 11 5
4 11 5
4 11 5
4 11 5
4 11 5
4 11 5
4 11 5
4 11 5
4 11 5
4 11 5
4 11 5
4 11 5
4 11 5
4 11 5
4 11 5
4 11 5
4 11 5
4 11 5
4 11 5
4 11 5
4 11 5
4 11 5
4 11 5
4 11 5
4 11 5
4 11 5
4 11 5
4 11 5
4 11 5
4 11 5
4 11 5
4 11 5
4 11 5
4 11 5
4 11 5
4 11 5
4 11 5
4 11 5
25 25 25
25 25 25
25 25 25
25 25 25
25 25 25
25 25 25
25 25 25
25 25 25
25 25 25
25 25 25
25 25 25
25 25 25
25 25 25
25 25 25
25 25 25
25 25 25
25 25 25
25 25 25
25 25 25
25 25 25
25 25 25
25 25 25
25 25 25
25 25 25
25 25 25
25 25 25
25 25 25
25 25 25
25 25 25
25 25 25
25 25 25
25 25 25
25 25 25
3 10 5
3 10 5
3 10 5
3 10 5
3 10 5
3 10 5
3 10 5
3 10 5
3 10 5
3 10 5
3 10 5
3 10 5
3 10 5
3 10 5
3 10 5
25 0 0
25 0 0
126 0 0
132 0 0
137 0 0
140 0 0
143 0 0
146 0 0
149 0 0
152 0 0
154 0 0
155 0 0
154 0 0
152 0 0
148 0 0
144 0 0
138 0 0
132 0 0
126 0 0
120 0 0
114 0 0
108 0 0
103 0 0
98 0 0
92 0 0
87 0 0
81 0 0
74 0 0
68 0 0
61 0 0
53 0 0
46 0 0
37 0 0
27 0 0
25 0 0
25 0 0
3 10 5
3 10 5
3 10 5
3 10 5
3 10 5
3 10 5
3 10 5
3 10 5
3 10 5
3 10 5
3 10 5
3 10 5
3 10 5
3 10 5
3 10 5
3 10 5
3 10 5
3 10 5
3 10 5
3 10 5
3 10 5
3 10 5
3 10 5
3 10 5
3 10 5
3 10 5
3 10 5
3 10 5
3 10 5
3 10 5
3 10 5
3 10 5
3 10 5
3 10 5
3 10 5
3 10 5
3 10 5
3 10 5
3 10 5
3 10 5
3 10 5
3 10 5
3 10 5
3 10 5
3 10 5
3 10 5
3 10 5
3 10 5
3 10 5
4 11 5
4 11 5
4 11 5
4 11 5
4 11 5
4 11 5
4 11 5
4 11 5
4 11 5
4 11 5
4 11 5
4 11 5
4 11 5
4 11 5
4 11 5
4 11 5
4 11 5
4 11 5
4 11 5
4 11 5
4 11 5
4 11 5
4 11 5
4 11 5
4 11 5
4 11 5
4 11 5
4 11 5
4 11 5
4 11 5
4 11 5
4 11 5
4 11 5
4 12 6
4 12 6
4 12 6
4 12 6
4 12 6
4 12 6
4 12 6
4 12 6
4 12 6
4 12 6
4 12 6
4 12 6
4 12 6
4 12 6
4 12 6
4 12 6
4 12 6
4 12 6
4 12 6
4 12 6
4 12 6
4 12 6
4 12 6
4 12 6
4 12 6
4 12 6
4 12 6
4 12 6
4 12 6
4 12 6
4 12 6
4 12 6
4 12 6
4 12 6
4 12 6
4 12 6
4 12 6
4 12 6
4 12 6
4 12 6
4 12 6
4 12 6
4 12 6
4 12 6
4 12 6
4 12 6
4 12 6
4 12 6
4 12 6
4 12 6
4 12 6
4 12 6
4 12 6
4 12 6
4 12 6
4 12 6
4 12 6
4 12 6
4 12 6
4 12 6
4 12 6
4 12 6
4 12 6
4 12 6
4 12 6
4 12 6
4 12 6
4 12 6
4 12 6
4 12 6
4 12 6
4 12 6
4 12 6
4 12 6
4 12 6
4 12 6
4 12 6
4 12 6
4 12 6
4 12 6
4 12 6
4 12 6
4 12 6
4 12 6
4 12 6
4 12 6
4 12 6
4 12 6
4 12 6
4 12 6
4 12 6
4 12 6
4 12 6
4 12 6
4 12 6
4 12 6
4 12 6
4 12 6
4 12 6
4 12 6
4 12 6
4 12 6
4 12 6
4 12 6
4 12 6
4 12 6
4 12 6
4 12 6
4 12 6
4 12 6
4 12 6
4 12 6
4 12 6
4 12 6
4 12 6
4 12 6
4 12 6
4 12 6
4 12 6
4 12 6
4 12 6
4 12 6
4 12 6
4 12 6
4 12 6
4 12 6
4 12 6
4 12 6
4 12 6
4 12 6
4 12 6
4 13 6
4 13 6
4 13 6
25 25 25
25 25 25
25 25 25
25 25 25
25 25 25
25 25 25
25 25 25
25 25 25
25 25 25
25 25 25
25 25 25
25 25 25
25 25 25
25 25 25
25 25 25
25 25 25
25 25 25
25 25 25
25 25 25
25 25 25
25 25 25
25 25 25
25 25 25
25 25 25
25 25 25
25 25 25
25 25 25
25 25 25
25 25 25
25 25 25
25 25 25
25 25 25
25 25 25
3 10 5
3 10 5
3 10 5
3 10 5
3 10 5
3 10 5
3 10 5
3 10 5
3 10 5
3 10 5
3 10 5
3 10 5
3 10 5
3 10 5
25 0 0
25 0 0
25 0 0
133 0 0
138 0 0
143 0 0
147 0 0
151 0 0
157 0 0
162 0 0
167 0 0
171 0 0
172 0 0
172 0 0
169 0 0
164 0 0
157 0 0
149 0 0
141 0 0
133 0 0
125 0 0
118 0 0
112 0 0
106 0 0
100 0 0
95 0 0
89 0 0
83 0 0
77 0 0
71 0 0
64 0 0
57 0 0
49 0 0
41 0 0
32 0 0
25 0 0
25 0 0
25 0 0
3 10 5
3 10 5
3 10 5
3 10 5
3 10 5
3 10 5
3 10 5
3 10 5
3 10 5
3 10 5
3 10 5
3 10 5
3 10 5
3 10 5
3 10 5
3 10 5
3 10 5
3 10 5
3 10 5
3 10 5
3 10 5
3 10 5
3 10 5
3 10 5
3 10 5
3 10 5
3 10 5
3 10 5
3 10 5
3 10 5
3 10 5
3 10 5
3 10 5
3 10 5
3 10 5
3 10 5
3 10 5
3 10 5
3 10 5
3 10 5
3 10 5
3 10 5
3 10 5
3 10 5
4 12 6
4 12 6
4 12 6
4 12 6
4 12 6
4 12 6
4 12 6
4 12 6
4 12 6
4 12 6
4 12 6
4 12 6
4 12 6
4 12 6
4 12 6
4 12 6
4 12 6
4 12 6
4 12 6
4 12 6
4 12 6
4 12 6
4 12 6
4 12 6
4 12 6
4 12 6
4 12 6
4 12 6
4 12 6
4 12 6
4 12 6
4 12 6
4 12 6
4 12 6
4 12 6
4 12 6
4 12 6
5 13 6
5 13 6
5 13 6
5 13 6
5 13 6
5 13 6
5 13 6
5 13 6
5 13 6
5 13 6
5 13 6
5 13 6
5 13 6
5 13 6
5 13 6
5 13 6
5 13 6
5 13 6
5 13 6
5 13 6
5 13 6
5 13 6
5 13 6
5 13 6
5 13 6
5 13 6
5 13 6
5 13 6
5 13 6
5 13 6
5 13 6
5 13 6
5 13 6
5 13 6
5 13 6
5 13 6
5 13 6
5 13 6
5 13 6
5 13 6
5 13 6
5 13 6
5 13 6
5 13 6
5 13 6
5 13 6
5 13 6
5 13 6
5 13 6
5 13 6
5 13 6
5 13 6
5 13 6
5 13 6
5 13 6
5 13 6
5 13 6
5 13 6
5 13 6
5 13 6
5 13 6
5 13 6
5 13 6
5 13 6
5 13 6
5 13 6
5 13 6
5 13 6
5 13 6
5 13 6
5 13 6
5 13 6
5 13 6
5 13 6
5 13 6
5 13 6
5 14 7
5 14 7
5 14 7
5 14 7
5 14 7
5 14 7
5 14 7
5 14 7
5 14 7
5 14 7
5 14 7
5 14 7
5 14 7
5 14 7
5 14 7
5 14 7
5 14 7
5 14 7
5 14 7
5 14 7
5 14 7
5 14 7
5 14 7
5 14 7
5 14 7
5 14 7
5 14 7
5 14 7
5 14 7
5 14 7
5 14 7
5 14 7
5 14 7
5 14 7
5 14 7
5 14 7
5 14 7
5 14 7
5 14 7
5 14 7
5 14 7
5 14 7
5 14 7
5 14 7
5 14 7
5 14 7
5 14 7
5 14 7
5 14 7
5 14 7
5 14 7
5 14 7
5 14 7
5 14 7
5 14 7
5 14 7
5 14 7
5 14 7
25 25 25
25 25 25
25 25 25
25 25 25
25 25 25
25 25 25
25 25 25
25 25 25
25 25 25
25 25 25
25 25 25
25 25 25
25 25 25
25 25 25
25 25 25
25 25 25
25 25 25
25 25 25
25 25 25
25 25 25
25 25 25
25 25 25
25 25 25
25 25 25
25 25 25
25 25 25
25 25 25
25 25 25
25 25 25
25 25 25
25 25 25
25 25 25
25 25 25
3 10 5
3 10 5
3 10 5
3 10 5
3 10 5
3 10 5
3 10 5
3 10 5
3 10 5
3 10 5
3 10 5
3 10 5
3 10 5
25 0 0
25 0 0
25 0 0
133 0 0
139 0 0
143 0 0
148 0 0
155 0 0
162 0 0
171 0 0
179 0 0
186 0 0
191 0 0
194 0 0
193 0 0
189 0 0
182 0 0
173 0 0
163 0 0
152 0 0
142 0 0
132 0 0
123 0 0
115 0 0
108 0 0
102 0 0
96 0 0
91 0 0
85 0 0
79 0 0
73 0 0
66 0 0
59 0 0
52 0 0
44 0 0
36 0 0
27 0 0
25 0 0
25 0 0
25 0 0
3 10 5
3 10 5
3 10 5
3 10 5
3 10 5
3 10 5
3 10 5
3 10 5
3 10 5
3 10 5
3 10 5
3 10 5
3 10 5
3 10 5
3 10 5
3 10 5
3 10 5
3 10 5
3 10 5
3 10 5
3 10 5
3 10 5
3 10 5
3 10 5
3 10 5
3 10 5
3 10 5
3 10 5
3 10 5
3 10 5
3 10 5
3 10 5
3 10 5
3 10 5
3 10 5
3 10 5
3 10 5
3 10 5
3 10 5
5 13 6
5 13 6
5 13 6
5 13 6
5 13 6
5 13 6
5 13 6
5 13 6
5 13 6
5 13 6
5 13 6
5 13 6
5 13 6
5 13 6
5 13 6
5 13 6
5 13 6
5 13 6
5 13 6
5 13 6
5 13 6
5 13 6
5 13 6
5 13 6
5 13 6
5 13 6
5 13 6
5 13 6
5 13 6
5 13 6
5 13 6
5 13 6
5 13 6
5 13 6
5 13 6
5 13 6
5 13 6
5 13 6
5 13 6
5 13 6
5 13 6
5 14 7
5 14 7
5 14 7
5 14 7
5 14 7
5 14 7
5 14 7
5 14 7
5 14 7
5 14 7
5 14 7
5 14 7
5 14 7
5 14 7
5 14 7
5 14 7
5 14 7
5 14 7
5 14 7
5 14 7
5 14 7
5 14 7
5 14 7
5 14 7
5 14 7
5 14 7
5 14 7
5 14 7
5 14 7
5 14 7
5 14 7
5 14 7
5 14 7
5 14 7
5 14 7
5 14 7
5 14 7
5 14 7
5 14 7
5 14 7
5 14 7
5 14 7
5 14 7
5 14 7
5 14 7
5 14 7
5 14 7
5 14 7
5 14 7
5 14 7
5 14 7
5 15 7
5 15 7
5 15 7
5 15 7
5 15 7
5 15 7
5 15 7
5 15 7
5 15 7
5 15 7
5 15 7
5 15 7
5 15 7
5 15 7
5 15 7
5 15 7
5 15 7
5 15 7
5 15 7
5 15 7
5 15 7
5 15 7
5 15 7
5 15 7
5 15 7
5 15 7
5 15 7
5 15 7
5 15 7
5 15 7
5 15 7
5 15 7
5 15 7
5 15 7
5 15 7
5 15 7
5 15 7
5 15 7
5 15 7
5 15 7
5 15 7
5 15 7
5 15 7
5 15 7
5 15 7
5 15 7
5 15 7
5 15 7
5 15 7
5 15 7
5 15 7
5 15 7
5 15 7
5 15 7
5 15 7
5 15 7
5 15 7
5 15 7
5 15 7
5 15 7
5 15 7
5 15 7
5 15 7
5 15 7
5 15 7
5 15 7
5 15 7
5 15 7
5 15 7
5 15 7
5 15 7
5 15 7
5 15 7
5 15 7
5 15 7
5 15 7
5 15 7
5 15 7
5 15 7
5 15 7
5 15 7
5 15 7
5 15 7
25 25 25
25 25 25
25 25 25
25 25 25
25 25 25
25 25 25
25 25 25
25 25 25
25 25 25
25 25 25
25 25 25
25 25 25
25 25 25
25 25 25
25 25 25
25 25 25
25 25 25
25 25 25
25 25 25
25 25 25
25 25 25
25 25 25
25 25 25
25 25 25
25 25 25
25 25 25
25 25 25
25 25 25
25 25 25
25 25 25
25 25 25
25 25 25
25 25 25
3 10 5
3 10 5
3 10 5
3 10 5
3 10 5
3 10 5
3 10 5
3 10 5
3 10 5
3 10 5
3 10 5
3 10 5
3 10 5
25 0 0
25 0 0
130 0 0
137 0 0
142 0 0
148 0 0
155 0 0
165 0 0
176 0 0
188 0 0
199 0 0
208 0 0
214 0 0
217 0 0
215 0 0
210 0 0
201 0 0
190 0 0
177 0 0
163 0 0
150 0 0
138 0 0
127 0 0
118 0 0
110 0 0
103 0 0
97 0 0
92 0 0
86 0 0
80 0 0
74 0 0
67 0 0
61 0 0
54 0 0
46 0 0
38 0 0
30 0 0
25 0 0
25 0 0
25 0 0
3 10 5
3 10 5
3 10 5
3 10 5
3 10 5
3 10 5
3 10 5
3 10 5
3 10 5
3 10 5
3 10 5
3 10 5
3 10 5
3 10 5
3 10 5
3 10 5
3 10 5
3 10 5
3 10 5
3 10 5
3 10 5
3 10 5
3 10 5
3 10 5
3 10 5
3 10 5
3 10 5
3 10 5
3 10 5
3 10 5
3 10 5
3 10 5
3 10 5
3 10 5
3 10 5
5 14 7
5 14 7
5 14 7
5 14 7
5 14 7
5 14 7
5 14 7
5 14 7
5 14 7
5 14 7
5 14 7
5 14 7
5 14 7
5 14 7
5 14 7
5 14 7
5 14 7
5 14 7
5 14 7
5 14 7
5 14 7
5 14 7
5 14 7
5 14 7
5 14 7
5 14 7
5 14 7
5 14 7
5 14 7
5 14 7
5 14 7
5 14 7
5 14 7
5 14 7
5 14 7
5 14 7
5 14 7
5 14 7
5 14 7
5 14 7
5 14 7
5 14 7
5 14 7
5 14 7
5 14 7
5 15 7
5 15 7
5 15 7
5 15 7
5 15 7
5 15 7
5 15 7
5 15 7
5 15 7
5 15 7
5 15 7
5 15 7
5 15 7
5 15 7
5 15 7
5 15 7
5 15 7
5 15 7
5 15 7
5 15 7
5 15 7
5 15 7
5 15 7
5 15 7
5 15 7
5 15 7
5 15 7
5 15 7
5 15 7
5 15 7
5 15 7
5 15 7
5 15 7
6 16 8
6 16 8
6 16 8
6 16 8
6 16 8
6 16 8
6 16 8
6 16 8
6 16 8
6 16 8
6 16 8
6 16 8
6 16 8
6 16 8
6 16 8
6 16 8
6 16 8
6 16 8
6 16 8
6 16 8
6 16 8
6 16 8
6 16 8
6 16 8
6 16 8
6 16 8
6 16 8
6 16 8
6 16 8
6 16 8
6 16 8
6 16 8
6 16 8
6 16 8
6 16 8
6 16 8
6 16 8
6 16 8
6 16 8
6 16 8
6 16 8
6 16 8
6 16 8
6 16 8
6 16 8
6 16 8
6 16 8
6 16 8
6 16 8
6 16 8
6 16 8
6 16 8
6 16 8
6 16 8
6 16 8
6 16 8
6 16 8
6 16 8
6 16 8
6 16 8
6 16 8
6 16 8
6 16 8
6 16 8
6 16 8
6 16 8
6 16 8
6 17 8
6 17 8
6 17 8
6 17 8
6 17 8
6 17 8
6 17 8
6 17 8
6 17 8
6 17 8
6 17 8
6 17 8
6 17 8
6 17 8
6 17 8
6 17 8
6 17 8
6 17 8
6 17 8
6 17 8
6 17 8
6 17 8
6 17 8
6 17 8
6 17 8
6 17 8
6 17 8
6 17 8
6 17 8
6 17 8
6 17 8
6 17 8
6 17 8
6 17 8
25 25 25
25 25 25
25 25 25
25 25 25
25 25 25
25 25 25
25 25 25
25 25 25
25 25 25
25 25 25
25 25 25
25 25 25
25 25 25
25 25 25
25 25 25
25 25 25
25 25 25
25 25 25
25 25 25
25 25 25
25 25 25
25 25 25
25 25 25
25 25 25
25 25 25
25 25 25
25 25 25
25 25 25
25 25 25
25 25 25
25 25 25
25 25 25
25 25 25
3 10 5
3 10 5
3 10 5
3 10 5
3 10 5
3 10 5
3 10 5
3 10 5
3 10 5
3 10 5
3 10 5
3 10 5
25 0 0
25 0 0
126 0 0
134 0 0
140 0 0
146 0 0
153 0 0
163 0 0
176 0 0
190 0 0
205 0 0
219 0 0
230 0 0
237 0 0
239 0 0
236 0 0
229 0 0
218 0 0
205 0 0
189 0 0
174 0 0
158 0 0
144 0 0
132 0 0
121 0 0
112 0 0
104 0 0
98 0 0
92 0 0
86 0 0
81 0 0
75 0 0
68 0 0
62 0 0
55 0 0
47 0 0
40 0 0
31 0 0
25 0 0
25 0 0
25 0 0
25 0 0
3 10 5
3 10 5
3 10 5
3 10 5
3 10 5
3 10 5
3 10 5
3 10 5
3 10 5
3 10 5
3 10 5
3 10 5
3 10 5
3 10 5
3 10 5
3 10 5
3 10 5
3 10 5
3 10 5
3 10 5
3 10 5
3 10 5
3 10 5
3 10 5
3 10 5
3 10 5
3 10 5
3 10 5
3 10 5
6 16 8
6 16 8
6 16 8
6 16 8
6 16 8
6 16 8
6 16 8
6 16 8
6 16 8
6 16 8
6 16 8
6 16 8
6 16 8
6 16 8
6 16 8
6 16 8
6 16 8
6 16 8
5 15 7
5 15 7
5 15 7
5 15 7
5 15 7
5 15 7
5 15 7
5 15 7
5 15 7
5 15 7
5 15 7
5 15 7
5 15 7
5 15 7
5 15 7
5 15 7
5 15 7
5 15 7
5 15 7
5 15 7
5 15 7
5 15 7
5 15 7
5 15 7
5 15 7
5 15 7
5 15 7
5 15 7
5 15 7
5 15 7
5 15 7
5 15 7
6 16 8
6 16 8
6 16 8
6 16 8
6 16 8
6 16 8
6 16 8
6 16 8
6 16 8
6 16 8
6 16 8
6 16 8
6 16 8
6 16 8
6 16 8
6 16 8
6 16 8
6 16 8
6 17 8
6 17 8
6 17 8
6 17 8
6 17 8
6 17 8
6 17 8
6 17 8
6 17 8
6 17 8
6 17 8
6 17 8
6 17 8
6 17 8
6 17 8
6 17 8
6 17 8
6 17 8
6 17 8
6 17 8
6 17 8
6 17 8
6 17 8
6 17 8
6 17 8
6 17 8
6 17 8
6 17 8
6 17 8
6 17 8
6 17 8
6 17 8
6 17 8
6 17 8
6 17 8
6 17 8
6 17 8
6 17 8
6 17 8
6 17 8
6 17 8
6 17 8
6 17 8
6 17 8
6 17 8
6 17 8
6 18 9
6 18 9
6 18 9
6 18 9
6 18 9
6 18 9
6 18 9
6 18 9
6 18 9
6 18 9
6 18 9
6 18 9
6 18 9
6 18 9
6 18 9
6 18 9
6 18 9
6 18 9
6 18 9
6 18 9
6 18 9
6 18 9
6 18 9
6 18 9
6 18 9
6 18 9
6 18 9
6 18 9
6 18 9
6 18 9
6 18 9
6 18 9
6 18 9
6 18 9
6 18 9
7 18 9
7 18 9
7 18 9
7 18 9
7 18 9
7 18 9
7 18 9
7 18 9
7 18 9
7 18 9
7 18 9
7 18 9
7 18 9
7 18 9
7 18 9
7 18 9
7 18 9
7 18 9
7 18 9
7 18 9
7 18 9
7 18 9
7 18 9
7 18 9
7 18 9
7 18 9
7 19 9
7 19 9
7 19 9
7 19 9
7 19 9
7 19 9
7 19 9
7 19 9
7 19 9
25 25 25
25 25 25
25 25 25
25 25 25
25 25 25
25 25 25
25 25 25
25 25 25
25 25 25
25 25 25
25 25 25
25 25 25
25 25 25
25 25 25
25 25 25
25 25 25
25 25 25
25 25 25
25 25 25
25 25 25
25 25 25
25 25 25
25 25 25
25 25 25
25 25 25
25 25 25
25 25 25
25 25 25
25 25 25
25 25 25
25 25 25
25 25 25
25 25 25
3 10 5
3 10 5
3 10 5
3 10 5
3 10 5
3 10 5
3 10 5
3 10 5
3 10 5
3 10 5
3 10 5
3 10 5
25 0 0
25 0 0
129 0 0
136 0 0
142 0 0
149 0 0
158 0 0
171 0 0
186 0 0
204 0 0
221 0 0
236 0 0
248 0 0
255 0 0
255 0 0
253 0 0
245 0 0
232 0 0
216 0 0
199 0 0
181 0 0
164 0 0
148 0 0
134 0 0
123 0 0
113 0 0
105 0 0
98 0 0
92 0 0
86 0 0
81 0 0
75 0 0
68 0 0
62 0 0
55 0 0
48 0 0
41 0 0
33 0 0
25 0 0
25 0 0
25 0 0
25 0 0
3 10 5
3 10 5
3 10 5
3 10 5
3 10 5
3 10 5
3 10 5
3 10 5
3 10 5
3 10 5
3 10 5
3 10 5
3 10 5
3 10 5
3 10 5
3 10 5
3 10 5
3 10 5
3 10 5
3 10 5
3 10 5
3 10 5
3 10 5
3 10 5
6 17 8
6 17 8
6 17 8
6 17 8
6 17 8
6 17 8
6 17 8
6 17 8
6 17 8
6 17 8
6 17 8
6 17 8
6 17 8
6 17 8
6 17 8
6 17 8
6 17 8
6 17 8
6 17 8
6 17 8
6 17 8
6 17 8
6 17 8
6 17 8
6 17 8
6 17 8
6 17 8
6 17 8
6 17 8
6 17 8
6 17 8
6 17 8
6 17 8
6 17 8
6 17 8
6 17 8
6 17 8
6 16 8
6 16 8
6 16 8
6 16 8
6 16 8
6 16 8
6 16 8
6 16 8
6 16 8
6 16 8
6 16 8
6 16 8
6 16 8
6 16 8
6 16 8
6 16 8
6 16 8
6 16 8
6 17 8
6 17 8
6 17 8
6 17 8
6 17 8
6 17 8
6 17 8
6 18 9
6 18 9
6 18 9
6 18 9
6 18 9
6 18 9
6 18 9
6 18 9
6 18 9
6 18 9
6 18 9
6 18 9
6 18 9
6 18 9
6 18 9
6 18 9
6 18 9
6 18 9
6 18 9
6 18 9
6 18 9
6 18 9
6 18 9
6 18 9
7 18 9
7 18 9
7 18 9
7 18 9
7 18 9
7 18 9
7 18 9
7 18 9
7 18 9
7 18 9
7 18 9
7 19 9
7 19 9
7 19 9
7 19 9
7 19 9
7 19 9
7 19 9
7 19 9
7 19 9
7 19 9
7 19 9
7 19 9
7 19 9
7 19 9
7 19 9
7 19 9
7 19 9
7 19 9
7 19 9
7 19 9
7 19 9
7 19 9
7 19 9
7 19 9
7 19 9
7 19 9
7 19 9
7 19 9
7 19 9
7 19 9
7 19 9
7 19 9
7 19 9
7 19 9
7 19 9
7 20 10
7 20 10
7 20 10
7 20 10
7 20 10
7 20 10
7 20 10
7 20 10
7 20 10
7 20 10
7 20 10
7 20 10
7 20 10
7 20 10
7 20 10
7 20 10
7 20 10
7 20 10
7 20 10
7 20 10
7 20 10
7 20 10
7 20 10
7 20 10
7 20 10
7 20 10
7 20 10
7 20 10
7 20 10
7 20 10
7 20 10
7 20 10
7 20 10
7 20 10
7 20 10
7 20 10
7 20 10
7 20 10
7 20 10
7 20 10
7 20 10
7 20 10
7 20 10
7 20 10
7 20 10
7 20 10
7 20 10
7 21 10
7 21 10
7 21 10
7 21 10
7 21 10
7 21 10
7 21 10
7 21 10
7 21 10
7 21 10
25 25 25
25 25 25
25 25 25
25 25 25
25 25 25
25 25 25
25 25 25
25 25 25
25 25 25
25 25 25
25 25 25
25 25 25
25 25 25
25 25 25
25 25 25
25 25 25
25 25 25
25 25 25
25 25 25
25 25 25
25 25 25
25 25 25
25 25 25
25 25 25
25 25 25
25 25 25
25 25 25
25 25 25
25 25 25
25 25 25
25 25 25
25 25 25
25 25 25
3 10 5
3 10 5
3 10 5
3 10 5
3 10 5
3 10 5
3 10 5
3 10 5
3 10 5
3 10 5
3 10 5
25 0 0
25 0 0
122 0 0
131 0 0
137 0 0
143 0 0
151 0 0
162 0 0
177 0 0
195 0 0
214 0 0
233 0 0
249 0 0
255 0 0
255 0 0
255 0 0
255 0 0
254 0 0
240 0 0
223 0 0
204 0 0
185 0 0
167 0 0
150 0 0
136 0 0
123 0 0
113 0 0
105 0 0
98 0 0
92 0 0
86 0 0
80 0 0
74 0 0
68 0 0
62 0 0
55 0 0
48 0 0
41 0 0
33 0 0
25 0 0
25 0 0
25 0 0
25 0 0
25 0 0
3 10 5
3 10 5
3 10 5
3 10 5
3 10 5
3 10 5
3 10 5
3 10 5
3 10 5
3 10 5
3 10 5
3 10 5
3 10 5
3 10 5
3 10 5
3 10 5
3 10 5
3 10 5
7 19 9
7 19 9
7 19 9
7 19 9
7 19 9
7 19 9
7 19 9
7 19 9
7 19 9
7 19 9
7 19 9
7 19 9
7 19 9
7 19 9
7 19 9
7 19 9
7 19 9
7 19 9
7 19 9
7 18 9
7 18 9
7 18 9
7 18 9
7 18 9
7 18 9
7 18 9
7 18 9
7 18 9
7 18 9
7 18 9
6 18 9
6 18 9
6 18 9
6 18 9
6 18 9
6 18 9
6 18 9
6 18 9
6 18 9
6 18 9
6 18 9
6 18 9
6 18 9
6 18 9
6 18 9
6 18 9
6 18 9
6 18 9
6 18 9
6 18 9
6 18 9
6 18 9
6 18 9
6 18 9
6 17 8
6 17 8
6 17 8
6 17 8
6 17 8
6 17 8
7 19 9
7 19 9
7 19 9
7 19 9
7 19 9
7 19 9
7 19 9
7 19 9
7 19 9
7 19 9
7 19 9
7 19 9
7 19 9
7 19 9
7 19 9
7 19 9
7 19 9
7 19 9
7 19 9
7 19 9
7 19 9
7 19 9
7 19 9
7 19 9
7 19 9
7 19 9
7 20 10
7 20 10
7 20 10
7 20 10
7 20 10
7 20 10
7 20 10
7 20 10
7 20 10
7 20 10
7 20 10
7 20 10
7 20 10
7 20 10
7 20 10
7 20 10
7 20 10
7 20 10
7 20 10
7 20 10
7 20 10
7 20 10
7 20 10
7 20 10
7 20 10
7 20 10
7 21 10
7 21 10
7 21 10
7 21 10
7 21 10
7 21 10
7 21 10
7 21 10
7 21 10
8 21 10
8 21 10
8 21 10
8 21 10
8 21 10
8 21 10
8 21 10
8 21 10
8 21 10
8 21 10
8 21 10
8 21 10
8 21 10
8 21 10
8 21 10
8 21 10
8 21 10
8 21 10
8 22 11
8 22 11
8 22 11
8 22 11
8 22 11
8 22 11
8 22 11
8 22 11
8 22 11
8 22 11
8 22 11
8 22 11
8 22 11
8 22 11
8 22 11
8 22 11
8 22 11
8 22 11
8 22 11
8 22 11
8 22 11
8 22 11
8 22 11
8 22 11
8 22 11
8 22 11
8 22 11
8 22 11
8 22 11
8 22 11
8 22 11
8 23 11
8 23 11
8 23 11
8 23 11
8 23 11
8 23 11
8 23 11
8 23 11
8 23 11
8 23 11
8 23 11
8 23 11
8 23 11
8 23 11
8 23 11
8 23 11
8 23 11
8 23 11
8 23 11
8 23 11
8 23 11
8 23 11
8 23 11
8 23 11
25 25 25
25 25 25
25 25 25
25 25 25
25 25 25
25 25 25
25 25 25
25 25 25
25 25 25
25 25 25
25 25 25
25 25 25
25 25 25
25 25 25
25 25 25
25 25 25
25 25 25
25 25 25
25 25 25
25 25 25
25 25 25
25 25 25
25 25 25
25 25 25
25 25 25
25 25 25
25 25 25
25 25 25
25 25 25
25 25 25
25 25 25
25 25 25
25 25 25
3 10 5
3 10 5
3 10 5
3 10 5
3 10 5
3 10 5
3 10 5
3 10 5
3 10 5
3 10 5
3 10 5
25 0 0
112 0 0
123 0 0
131 0 0
137 0 0
144 0 0
152 0 0
165 0 0
181 0 0
199 0 0
219 0 0
238 0 0
254 0 0
255 0 0
255 0 0
255 0 0
255 0 0
255 0 0
242 0 0
224 0 0
205 0 0
185 0 0
167 0 0
150 0 0
135 0 0
122 0 0
112 0 0
104 0 0
97 0 0
91 0 0
85 0 0
79 0 0
74 0 0
67 0 0
61 0 0
55 0 0
48 0 0
41 0 0
33 0 0
25 0 0
25 0 0
25 0 0
25 0 0
25 0 0
3 10 5
3 10 5
3 10 5
3 10 5
3 10 5
3 10 5
3 10 5
3 10 5
3 10 5
3 10 5
3 10 5
3 10 5
3 10 5
8 21 10
8 21 10
8 21 10
8 21 10
8 21 10
3 10 5
3 10 5
3 10 5
3 10 5
3 10 5
3 10 5
3 10 5
3 10 5
3 10 5
3 10 5
3 10 5
3 10 5
3 10 5
3 10 5
3 10 5
3 10 5
3 10 5
3 10 5
3 10 5
3 10 5
3 10 5
3 10 5
3 10 5
3 10 5
3 10 5
3 10 5
3 10 5
3 10 5
3 10 5
3 10 5
3 10 5
3 10 5
3 10 5
3 10 5
3 10 5
3 10 5
3 10 5
3 10 5
3 10 5
3 10 5
3 10 5
7 19 9
7 19 9
7 19 9
7 19 9
7 19 9
7 19 9
7 19 9
7 19 9
7 19 9
7 19 9
7 19 9
7 19 9
7 19 9
7 19 9
7 19 9
7 19 9
7 19 9
7 19 9
7 19 9
7 20 10
7 20 10
7 20 10
7 20 10
7 20 10
7 20 10
7 20 10
7 20 10
7 20 10
7 20 10
7 20 10
7 20 10
7 20 10
7 21 10
7 21 10
7 21 10
7 21 10
7 21 10
7 21 10
7 21 10
8 21 10
8 21 10
8 21 10
8 21 10
8 21 10
8 21 10
8 21 10
8 21 10
8 21 10
8 21 10
8 21 10
8 21 10
8 21 10
8 21 10
8 21 10
8 22 11
8 22 11
8 22 11
8 22 11
8 22 11
8 22 11
8 22 11
8 22 11
8 22 11
8 22 11
8 22 11
8 22 11
8 22 11
8 22 11
8 22 11
8 22 11
8 22 11
8 22 11
8 22 11
8 22 11
8 23 11
8 23 11
8 23 11
8 23 11
8 23 11
8 23 11
8 23 11
8 23 11
8 23 11
8 23 11
8 23 11
8 23 11
8 23 11
8 23 11
8 23 11
8 23 11
8 23 11
8 23 11
8 23 11
8 23 11
8 23 11
9 24 12
9 24 12
9 24 12
9 24 12
9 24 12
9 24 12
9 24 12
9 24 12
9 24 12
9 24 12
9 24 12
9 24 12
9 24 12
9 24 12
9 24 12
9 24 12
9 24 12
9 24 12
9 24 12
9 24 12
9 24 12
9 25 12
9 25 12
9 25 12
9 25 12
9 25 12
9 25 12
9 25 12
9 25 12
9 25 12
9 25 12
9 25 12
9 25 12
9 25 12
9 25 12
9 25 12
9 25 12
9 25 12
9 25 12
9 25 12
9 25 12
9 25 12
9 25 12
9 25 12
9 25 12
9 25 12
9 25 12
9 25 12
9 25 12
9 25 12
9 26 13
9 26 13
9 26 13
9 26 13
9 26 13
9 26 13
9 26 13
9 26 13
25 25 25
25 25 25
25 25 25
25 25 25
25 25 25
25 25 25
25 25 25
25 25 25
25 25 25
25 25 25
25 25 25
25 25 25
25 25 25
25 25 25
25 25 25
25 25 25
25 25 25
25 25 25
25 25 25
25 25 25
25 25 25
25 25 25
25 25 25
25 25 25
25 25 25
25 25 25
25 25 25
25 25 25
25 25 25
25 25 25
25 25 25
25 25 25
25 25 25
3 10 5
3 10 5
3 10 5
3 10 5
3 10 5
3 10 5
3 10 5
3 10 5
3 10 5
3 10 5
3 10 5
25 0 0
113 0 0
123 0 0
130 0 0
136 0 0
143 0 0
152 0 0
165 0 0
181 0 0
199 0 0
219 0 0
237 0 0
252 0 0
255 0 0
255 0 0
255 0 0
255 0 0
251 0 0
237 0 0
219 0 0
200 0 0
181 0 0
163 0 0
146 0 0
132 0 0
120 0 0
110 0 0
102 0 0
95 0 0
89 0 0
84 0 0
78 0 0
72 0 0
66 0 0
60 0 0
54 0 0
47 0 0
40 0 0
32 0 0
25 0 0
25 0 0
25 0 0
25 0 0
25 0 0
3 10 5
3 10 5
3 10 5
3 10 5
3 10 5
3 10 5
3 10 5
3 10 5
3 10 5
3 10 5
3 10 5
3 10 5
3 10 5
3 10 5
3 10 5
3 10 5
3 10 5
3 10 5
3 10 5
3 10 5
3 10 5
3 10 5
3 10 5
3 10 5
3 10 5
3 10 5
3 10 5
3 10 5
3 10 5
3 10 5
3 10 5
3 10 5
3 10 5
3 10 5
3 10 5
3 10 5
3 10 5
3 10 5
3 10 5
3 10 5
3 10 5
3 10 5
3 10 5
3 10 5
3 10 5
3 10 5
3 10 5
3 10 5
3 10 5
3 10 5
3 10 5
3 10 5
3 10 5
3 10 5
3 10 5
3 10 5
3 10 5
3 10 5
3 10 5
3 10 5
7 21 10
7 21 10
7 21 10
7 21 10
7 21 10
7 21 10
7 21 10
7 20 10
7 20 10
7 20 10
7 20 10
7 20 10
7 20 10
7 20 10
7 20 10
7 20 10
7 20 10
7 20 10
8 21 10
8 21 10
8 22 11
8 22 11
8 22 11
8 22 11
8 22 11
8 22 11
8 22 11
8 22 11
8 22 11
8 22 11
8 22 11
8 22 11
8 22 11
8 22 11
8 22 11
8 22 11
8 22 11
8 22 11
8 22 11
8 23 11
8 23 11
8 23 11
8 23 11
8 23 11
8 23 11
8 23 11
8 23 11
8 23 11
8 23 11
8 23 11
8 23 11
8 23 11
8 23 11
8 23 11
8 23 11
8 23 11
9 24 12
9 24 12
9 24 12
9 24 12
9 24 12
9 24 12
9 24 12
9 24 12
9 24 12
9 24 12
9 24 12
9 24 12
9 24 12
9 24 12
9 24 12
9 24 12
9 25 12
9 25 12
9 25 12
9 25 12
9 25 12
9 25 12
9 25 12
9 25 12
9 25 12
9 25 12
9 25 12
9 25 12
9 25 12
9 25 12
9 25 12
9 25 12
9 26 13
9 26 13
9 26 13
9 26 13
9 26 13
9 26 13
9 26 13
9 26 13
9 26 13
9 26 13
10 26 13
10 26 13
10 26 13
10 26 13
10 26 13
10 26 13
10 27 13
10 27 13
10 27 13
10 27 13
10 27 13
10 27 13
10 27 13
10 27 13
10 27 13
10 27 13
10 27 13
10 27 13
10 27 13
10 27 13
10 27 13
10 27 13
10 28 14
10 28 14
10 28 14
10 28 14
10 28 14
10 28 14
10 28 14
10 28 14
10 28 14
10 28 14
10 28 14
10 28 14
10 28 14
10 28 14
10 28 14
10 28 14
10 28 14
10 28 14
10 28 14
10 28 14
10 28 14
10 29 14
10 29 14
10 29 14
10 29 14
10 29 14
10 29 14
10 29 14
10 29 14
10 29 14
10 29 14
10 29 14
25 25 25
25 25 25
25 25 25
25 25 25
25 25 25
25 25 25
25 25 25
25 25 25
25 25 25
25 25 25
25 25 25
25 25 25
25 25 25
25 25 25
25 25 25
25 25 25
25 25 25
25 25 25
25 25 25
25 25 25
25 25 25
25 25 25
25 25 25
25 25 25
25 25 25
25 25 25
25 25 25
25 25 25
25 25 25
25 25 25
25 25 25
25 25 25
25 25 25
3 10 5
3 10 5
3 10 5
3 10 5
3 10 5
3 10 5
3 10 5
3 10 5
3 10 5
3 10 5
3 10 5
98 0 0
112 0 0
122 0 0
129 0 0
135 0 0
141 0 0
150 0 0
162 0 0
177 0 0
194 0 0
212 0 0
229 0 0
243 0 0
253 0 0
255 0 0
255 0 0
250 0 0
240 0 0
226 0 0
209 0 0
191 0 0
173 0 0
156 0 0
141 0 0
128 0 0
116 0 0
107 0 0
99 0 0
93 0 0
87 0 0
82 0 0
76 0 0
71 0 0
65 0 0
59 0 0
52 0 0
46 0 0
39 0 0
31 0 0
25 0 0
25 0 0
25 0 0
25 0 0
25 0 0
3 10 5
3 10 5
3 10 5
3 10 5
3 10 5
3 10 5
3 10 5
3 10 5
3 10 5
3 10 5
3 10 5
3 10 5
3 10 5
3 10 5
3 10 5
3 10 5
3 10 5
3 10 5
3 10 5
3 10 5
3 10 5
3 10 5
3 10 5
3 10 5
3 10 5
3 10 5
3 10 5
3 10 5
3 10 5
3 10 5
3 10 5
3 10 5
3 10 5
3 10 5
3 10 5
3 10 5
3 10 5
3 10 5
3 10 5
3 10 5
3 10 5
3 10 5
3 10 5
3 10 5
3 10 5
3 10 5
3 10 5
3 10 5
3 10 5
3 10 5
3 10 5
3 10 5
3 10 5
3 10 5
3 10 5
3 10 5
3 10 5
8 23 11
8 23 11
8 22 11
8 22 11
8 22 11
8 22 11
8 22 11
8 22 11
8 22 11
8 22 11
8 22 11
8 22 11
8 22 11
8 22 11
8 22 11
8 22 11
8 22 11
8 22 11
8 22 11
8 22 11
8 22 11
8 23 11
8 23 11
8 23 11
8 23 11
8 23 11
8 23 11
8 23 11
8 23 11
8 23 11
8 23 11
9 24 12
9 24 12
9 24 12
9 24 12
9 24 12
9 24 12
9 24 12
9 24 12
9 24 12
9 24 12
9 24 12
9 24 12
9 24 12
9 24 12
9 24 12
9 25 12
9 25 12
9 25 12
9 25 12
9 25 12
9 25 12
9 25 12
9 25 12
9 25 12
9 25 12
9 25 12
9 25 12
9 25 12
9 25 12
9 26 13
9 26 13
9 26 13
9 26 13
9 26 13
9 26 13
9 26 13
9 26 13
10 26 13
10 26 13
10 26 13
10 26 13
10 26 13
10 27 13
10 27 13
10 27 13
10 27 13
10 27 13
10 27 13
10 27 13
10 27 13
10 27 13
10 27 13
10 27 13
10 27 13
10 28 14
10 28 14
10 28 14
10 28 14
10 28 14
10 28 14
10 28 14
10 28 14
10 28 14
10 28 14
10 28 14
10 28 14
10 29 14
10 29 14
10 29 14
10 29 14
11 29 14
11 29 14
11 29 14
11 29 14
11 29 14
11 29 14
11 29 14
11 29 14
11 30 15
11 30 15
11 30 15
11 30 15
11 30 15
11 30 15
11 30 15
11 30 15
11 30 15
11 30 15
11 30 15
11 30 15
11 31 15
11 31 15
11 31 15
11 31 15
11 31 15
11 31 15
11 31 15
11 31 15
11 31 15
11 31 15
11 31 15
11 31 15
11 31 15
11 31 15
12 32 16
12 32 16
12 32 16
12 32 16
12 32 16
12 32 16
12 32 16
12 32 16
12 32 16
12 32 16
12 32 16
12 32 16
12 32 16
12 32 16
12 32 16
12 32 16
12 32 16
12 32 16
12 32 16
12 33 16
25 25 25
25 25 25
25 25 25
25 25 25
25 25 25
25 25 25
25 25 25
25 25 25
25 25 25
25 25 25
25 25 25
25 25 25
25 25 25
25 25 25
25 25 25
25 25 25
25 25 25
25 25 25
25 25 25
25 25 25
25 25 25
25 25 25
25 25 25
25 25 25
25 25 25
25 25 25
25 25 25
25 25 25
25 25 25
25 25 25
25 25 25
25 25 25
25 25 25
3 10 5
3 10 5
3 10 5
3 10 5
3 10 5
3 10 5
3 10 5
3 10 5
3 10 5
3 10 5
3 10 5
97 0 0
110 0 0
120 0 0
126 0 0
132 0 0
138 0 0
146 0 0
157 0 0
170 0 0
185 0 0
201 0 0
216 0 0
228 0 0
236 0 0
240 0 0
239 0 0
233 0 0
223 0 0
210 0 0
195 0 0
179 0 0
163 0 0
148 0 0
134 0 0
122 0 0
112 0 0
103 0 0
96 0 0
90 0 0
85 0 0
80 0 0
74 0 0
69 0 0
63 0 0
57 0 0
50 0 0
44 0 0
37 0 0
30 0 0
25 0 0
25 0 0
25 0 0
25 0 0
25 0 0
3 10 5
3 10 5
3 10 5
3 10 5
3 10 5
3 10 5
3 10 5
3 10 5
3 10 5
3 10 5
3 10 5
3 10 5
3 10 5
3 10 5
3 10 5
3 10 5
3 10 5
3 10 5
3 10 5
3 10 5
3 10 5
3 10 5
3 10 5
3 10 5
3 10 5
3 10 5
3 10 5
3 10 5
3 10 5
3 10 5
3 10 5
3 10 5
3 10 5
3 10 5
3 10 5
3 10 5
3 10 5
3 10 5
3 10 5
3 10 5
3 10 5
3 10 5
3 10 5
3 10 5
3 10 5
3 10 5
3 10 5
3 10 5
3 10 5
3 10 5
3 10 5
3 10 5
3 10 5
9 25 12
9 25 12
9 24 12
9 24 12
9 24 12
9 24 12
9 24 12
9 24 12
9 24 12
9 24 12
9 24 12
9 24 12
9 24 12
9 24 12
9 24 12
9 24 12
9 24 12
8 23 11
8 23 11
8 23 11
8 23 11
8 23 11
8 23 11
8 23 11
8 23 11
9 24 12
9 25 12
9 25 12
9 25 12
9 25 12
9 25 12
9 25 12
9 25 12
9 25 12
9 25 12
9 25 12
9 25 12
9 25 12
9 25 12
9 26 13
9 26 13
9 26 13
9 26 13
9 26 13
9 26 13
9 26 13
9 26 13
10 26 13
10 26 13
10 26 13
10 26 13
10 27 13
10 27 13
10 27 13
10 27 13
10 27 13
10 27 13
10 27 13
10 27 13
10 27 13
10 27 13
10 27 13
10 27 13
10 28 14
10 28 14
10 28 14
10 28 14
10 28 14
10 28 14
10 28 14
10 28 14
10 28 14
10 28 14
10 29 14
10 29 14
10 29 14
10 29 14
11 29 14
11 29 14
11 29 14
11 29 14
11 29 14
11 29 14
11 30 15
11 30 15
11 30 15
11 30 15
11 30 15
11 30 15
11 30 15
11 30 15
11 30 15
11 31 15
11 31 15
11 31 15
11 31 15
11 31 15
11 31 15
11 31 15
11 31 15
11 31 15
11 31 15
12 32 16
12 32 16
12 32 16
12 32 16
12 32 16
12 32 16
12 32 16
12 32 16
12 33 16
12 33 16
12 33 16
12 33 16
12 33 16
12 33 16
12 33 16
12 33 16
12 33 16
12 34 17
12 34 17
12 34 17
12 34 17
12 34 17
12 34 17
12 34 17
13 34 17
13 34 17
13 34 17
13 35 17
13 35 17
13 35 17
13 35 17
13 35 17
13 35 17
13 35 17
13 35 17
13 35 17
13 35 17
13 36 18
13 36 18
13 36 18
13 36 18
13 36 18
13 36 18
13 36 18
13 36 18
13 36 18
13 36 18
13 36 18
13 36 18
13 37 18
13 37 18
13 37 18
13 37 18
13 37 18
13 37 18
14 37 18
14 37 18
25 25 25
25 25 25
25 25 25
25 25 25
25 25 25
25 25 25
25 25 25
25 25 25
25 25 25
25 25 25
25 25 25
25 25 25
25 25 25
25 25 25
25 25 25
25 25 25
25 25 25
25 25 25
25 25 25
25 25 25
25 25 25
25 25 25
25 25 25
25 25 25
25 25 25
25 25 25
25 25 25
25 25 25
25 25 25
25 25 25
25 25 25
25 25 25
25 25 25
3 10 5
3 10 5
3 10 5
3 10 5
3 10 5
3 10 5
3 10 5
3 10 5
3 10 5
3 10 5
25 0 0
94 0 0
107 0 0
116 0 0
123 0 0
129 0 0
134 0 0
141 0 0
150 0 0
161 0 0
174 0 0
187 0 0
199 0 0
209 0 0
215 0 0
218 0 0
217 0 0
212 0 0
203 0 0
191 0 0
178 0 0
164 0 0
151 0 0
137 0 0
126 0 0
115 0 0
107 0 0
99 0 0
93 0 0
87 0 0
82 0 0
77 0 0
72 0 0
66 0 0
60 0 0
54 0 0
48 0 0
42 0 0
35 0 0
27 0 0
25 0 0
25 0 0
25 0 0
25 0 0
25 0 0
3 10 5
3 10 5
3 10 5
3 10 5
3 10 5
3 10 5
3 10 5
3 10 5
3 10 5
3 10 5
3 10 5
3 10 5
3 10 5
3 10 5
3 10 5
3 10 5
3 10 5
3 10 5
3 10 5
3 10 5
3 10 5
3 10 5
3 10 5
3 10 5
3 10 5
3 10 5
3 10 5
3 10 5
3 10 5
3 10 5
3 10 5
3 10 5
3 10 5
3 10 5
3 10 5
3 10 5
3 10 5
3 10 5
3 10 5
3 10 5
3 10 5
3 10 5
3 10 5
3 10 5
3 10 5
3 10 5
3 10 5
10 27 13
10 27 13
10 27 13
10 27 13
10 27 13
10 27 13
10 27 13
10 26 13
10 26 13
10 26 13
10 26 13
9 26 13
9 26 13
9 26 13
9 26 13
9 26 13
9 26 13
9 26 13
9 26 13
9 25 12
9 25 12
9 25 12
9 25 12
9 25 12
9 25 12
9 25 12
9 25 12
9 25 12
9 25 12
9 25 12
9 25 12
9 26 13
10 26 13
10 26 13
10 26 13
10 26 13
10 27 13
10 27 13
10 27 13
10 27 13
10 27 13
10 27 13
10 27 13
10 27 13
10 27 13
10 27 13
10 27 13
10 28 14
10 28 14
10 28 14
10 28 14
10 28 14
10 28 14
10 28 14
10 28 14
10 28 14
10 28 14
10 28 14
10 29 14
10 29 14
10 29 14
11 29 14
11 29 14
11 29 14
11 29 14
11 29 14
11 29 14
11 30 15
11 30 15
11 30 15
11 30 15
11 30 15
11 30 15
11 30 15
11 30 15
11 30 15
11 31 15
11 31 15
11 31 15
11 31 15
11 31 15
11 31 15
11 31 15
11 31 15
12 32 16
12 32 16
12 32 16
12 32 16
12 32 16
12 32 16
12 32 16
12 32 16
12 33 16
12 33 16
12 33 16
12 33 16
12 33 16
12 33 16
12 33 16
12 34 17
12 34 17
12 34 17
12 34 17
12 34 17
13 34 17
13 34 17
13 35 17
13 35 17
13 35 17
13 35 17
13 35 17
13 35 17
13 35 17
13 36 18
13 36 18
13 36 18
13 36 18
13 36 18
13 36 18
13 36 18
13 37 18
13 37 18
14 37 18
14 37 18
14 37 18
14 37 18
14 38 19
14 38 19
14 38 19
14 38 19
14 38 19
14 38 19
14 38 19
14 39 19
14 39 19
14 39 19
14 39 19
14 39 19
14 39 19
14 39 19
15 40 20
15 40 20
15 40 20
15 40 20
15 40 20
15 40 20
15 40 20
15 40 20
15 41 20
15 41 20
15 41 20
15 41 20
15 41 20
15 41 20
0 0 0
0 0 0
0 0 0
0 0 0
0 0 0
0 0 0
15 42 21
15 42 21
15 42 21
15 42 21
16 42 21
16 42 21
16 42 21
16 42 21
16 42 21
16 43 21
16 43 21
16 43 21
25 25 25
25 25 25
25 25 25
25 25 25
25 25 25
25 25 25
25 25 25
25 25 25
25 25 25
25 25 25
25 25 25
25 25 25
25 25 25
25 25 25
25 25 25
25 25 25
25 25 25
25 25 25
25 25 25
25 25 25
25 25 25
25 25 25
25 25 25
25 25 25
25 25 25
25 25 25
3 10 5
3 10 5
3 10 5
3 10 5
3 10 5
3 10 5
3 10 5
3 10 5
3 10 5
3 10 5
3 10 5
90 0 0
103 0 0
112 0 0
119 0 0
124 0 0
129 0 0
135 0 0
142 0 0
151 0 0
161 0 0
171 0 0
180 0 0
188 0 0
193 0 0
195 0 0
194 0 0
189 0 0
181 0 0
172 0 0
161 0 0
149 0 0
138 0 0
127 0 0
117 0 0
109 0 0
101 0 0
95 0 0
89 0 0
84 0 0
79 0 0
74 0 0
69 0 0
63 0 0
58 0 0
52 0 0
45 0 0
39 0 0
32 0 0
25 0 0
25 0 0
25 0 0
25 0 0
25 0 0
25 0 0
3 10 5
3 10 5
3 10 5
3 10 5
3 10 5
3 10 5
3 10 5
3 10 5
3 10 5
3 10 5
3 10 5
3 10 5
3 10 5
3 10 5
3 10 5
3 10 5
3 10 5
3 10 5
3 10 5
3 10 5
3 10 5
3 10 5
3 10 5
3 10 5
3 10 5
3 10 5
3 10 5
3 10 5
3 10 5
3 10 5
3 10 5
3 10 5
3 10 5
3 10 5
3 10 5
3 10 5
3 10 5
3 10 5
3 10 5
11 30 15
11 30 15
11 30 15
11 30 15
11 30 15
11 29 14
11 29 14
11 29 14
11 29 14
11 29 14
11 29 14
10 29 14
10 29 14
10 29 14
10 29 14
10 28 14
10 28 14
10 28 14
10 28 14
10 28 14
10 28 14
10 28 14
10 28 14
10 28 14
10 28 14
10 27 13
10 27 13
10 27 13
10 27 13
10 27 13
10 27 13
10 27 13
10 27 13
10 27 13
10 27 13
10 27 13
10 26 13
10 26 13
10 26 13
10 28 14
10 28 14
10 28 14
10 28 14
10 28 14
10 28 14
10 28 14
10 28 14
10 29 14
10 29 14
10 29 14
11 29 14
11 29 14
11 29 14
11 29 14
11 29 14
11 29 14
11 29 14
11 30 15
11 30 15
11 30 15
11 30 15
11 30 15
11 30 15
11 30 15
11 30 15
11 31 15
11 31 15
11 31 15
11 31 15
11 31 15
11 31 15
11 31 15
11 31 15
12 32 16
12 32 16
12 32 16
12 32 16
12 32 16
12 32 16
12 32 16
12 32 16
12 33 16
12 33 16
12 33 16
12 33 16
12 33 16
12 33 16
12 34 17
12 34 17
12 34 17
12 34 17
12 34 17
13 34 17
13 34 17
13 35 17
13 35 17
13 35 17
13 35 17
13 35 17
13 35 17
13 36 18
13 36 18
13 36 18
13 36 18
13 36 18
13 36 18
13 37 18
13 37 18
14 37 18
14 37 18
14 37 18
14 37 18
14 38 19
14 38 19
14 38 19
14 38 19
14 38 19
14 39 19
14 39 19
14 39 19
14 39 19
14 39 19
15 40 20
15 40 20
15 40 20
15 40 20
15 40 20
15 41 20
15 41 20
15 41 20
15 41 20
15 41 20
15 42 21
15 42 21
15 42 21
15 42 21
16 42 21
16 43 21
16 43 21
16 43 21
16 43 21
16 43 21
16 44 22
16 44 22
16 44 22
16 44 22
16 44 22
16 45 22
16 45 22
17 45 22
17 45 22
17 45 22
17 45 22
17 46 23
17 46 23
17 46 23
17 46 23
17 46 23
17 47 23
17 47 23
17 47 23
0 0 0
0 0 0
0 0 0
0 0 0
0 0 0
0 0 0
0 0 0
0 0 0
18 48 24
18 48 24
18 48 24
18 49 24
18 49 24
18 49 24
18 49 24
18 49 24
18 49 24
18 49 24
18 49 24
18 49 24
18 49 24
18 49 24
18 49 24
18 49 24
18 49 24
18 50 25
18 50 25
18 50 25
18 50 25
18 50 25
0 0 0
0 0 0
0 0 0
0 0 0
0 0 0
0 0 0
0 0 0
0 0 0
18 49 24
3 10 5
3 10 5
3 10 5
3 10 5
3 10 5
3 10 5
3 10 5
3 10 5
3 10 5
3 10 5
3 10 5
3 10 5
0 0 0
0 0 0
0 0 0
0 0 0
0 0 0
84 0 0
98 0 0
108 0 0
114 0 0
120 0 0
124 0 0
128 0 0
134 0 0
140 0 0
147 0 0
155 0 0
162 0 0
168 0 0
171 0 0
172 0 0
171 0 0
167 0 0
161 0 0
153 0 0
144 0 0
135 0 0
126 0 0
117 0 0
109 0 0
102 0 0
96 0 0
91 0 0
86 0 0
81 0 0
76 0 0
71 0 0
66 0 0
60 0 0
54 0 0
49 0 0
42 0 0
36 0 0
29 0 0
25 0 0
25 0 0
25 0 0
25 0 0
25 0 0
25 0 0
3 10 5
3 10 5
3 10 5
3 10 5
3 10 5
3 10 5
3 10 5
3 10 5
3 10 5
3 10 5
3 10 5
3 10 5
3 10 5
3 10 5
3 10 5
3 10 5
3 10 5
3 10 5
3 10 5
3 10 5
3 10 5
3 10 5
3 10 5
3 10 5
3 10 5
3 10 5
3 10 5
3 10 5
3 10 5
3 10 5
12 34 17
12 34 17
12 33 16
12 33 16
12 33 16
12 33 16
12 33 16
12 33 16
12 33 16
12 32 16
12 32 16
12 32 16
12 32 16
12 32 16
12 32 16
12 32 16
11 31 15
11 31 15
11 31 15
11 31 15
11 31 15
11 31 15
11 31 15
11 31 15
11 30 15
11 30 15
11 30 15
11 30 15
11 30 15
11 30 15
11 30 15
11 30 15
11 30 15
11 29 14
11 29 14
11 29 14
11 29 14
11 29 14
11 29 14
10 29 14
10 29 14
10 29 14
10 28 14
10 28 14
10 28 14
10 28 14
10 28 14
10 28 14
11 29 14
11 30 15
11 30 15
11 30 15
11 30 15
11 30 15
11 30 15
11 30 15
11 30 15
11 30 15
11 31 15
11 31 15
11 31 15
11 31 15
11 31 15
11 31 15
11 31 15
11 31 15
12 32 16
12 32 16
12 32 16
12 32 16
12 32 16
12 32 16
12 32 16
12 32 16
12 33 16
12 33 16
12 33 16
12 33 16
12 33 16
12 33 16
12 34 17
12 34 17
12 34 17
12 34 17
12 34 17
13 34 17
13 34 17
13 35 17
13 35 17
13 35 17
13 35 17
13 35 17
13 35 17
13 36 18
13 36 18
13 36 18
13 36 18
13 36 18
13 37 18
13 37 18
14 37 18
14 37 18
14 37 18
14 37 18
14 38 19
14 38 19
14 38 19
14 38 19
14 38 19
14 39 19
14 39 19
14 39 19
14 39 19
14 39 19
15 40 20
15 40 20
15 40 20
15 40 20
15 41 20
15 41 20
15 41 20
15 41 20
15 41 20
15 42 21
15 42 21
16 42 21
16 42 21
16 43 21
16 43 21
16 43 21
16 43 21
16 44 22
16 44 22
16 44 22
16 44 22
16 45 22
17 45 22
17 45 22
17 45 22
17 46 23
17 46 23
17 46 23
17 47 23
17 47 23
17 47 23
17 47 23
18 48 24
18 48 24
18 48 24
18 48 24
18 49 24
18 49 24
18 49 24
18 49 24
18 50 25
18 50 25
19 50 25
19 51 25
19 51 25
19 51 25
19 51 25
19 52 26
19 52 26
19 52 26
19 52 26
19 53 26
20 53 26
20 53 26
20 53 26
20 54 27
0 0 0
0 0 0
0 0 0
0 0 0
0 0 0
0 0 0
0 0 0
0 0 0
21 56 28
21 56 28
21 56 28
21 56 28
21 56 28
21 56 28
21 57 28
21 57 28
21 57 28
21 57 28
0 0 0
0 0 0
0 0 0
0 0 0
0 0 0
21 58 29
21 58 29
21 58 29
21 58 29
21 58 29
21 58 29
21 58 29
0 0 0
0 0 0
0 0 0
0 0 0
0 0 0
0 0 0
0 0 0
0 0 0
21 57 28
21 57 28
21 57 28
21 57 28
21 57 28
21 57 28
21 57 28
21 56 28
21 56 28
21 56 28
21 56 28
0 0 0
0 0 0
0 0 0
0 0 0
0 0 0
0 0 0
0 0 0
0 0 0
92 0 0
102 0 0
109 0 0
114 0 0
118 0 0
122 0 0
126 0 0
130 0 0
135 0 0
141 0 0
145 0 0
149 0 0
151 0 0
152 0 0
150 0 0
147 0 0
142 0 0
136 0 0
129 0 0
122 0 0
115 0 0
108 0 0
102 0 0
96 0 0
91 0 0
86 0 0
82 0 0
77 0 0
72 0 0
67 0 0
62 0 0
57 0 0
51 0 0
45 0 0
39 0 0
33 0 0
26 0 0
25 0 0
25 0 0
25 0 0
25 0 0
25 0 0
25 0 0
3 10 5
3 10 5
3 10 5
3 10 5
3 10 5
3 10 5
3 10 5
3 10 5
3 10 5
3 10 5
3 10 5
3 10 5
3 10 5
3 10 5
3 10 5
3 10 5
3 10 5
3 10 5
3 10 5
3 10 5
14 38 19
14 38 19
14 38 19
14 38 19
14 38 19
14 37 18
14 37 18
14 37 18
13 37 18
13 37 18
13 36 18
13 36 18
13 36 18
13 36 18
13 36 18
13 36 18
13 35 17
13 35 17
13 35 17
13 35 17
13 35 17
13 35 17
13 34 17
13 34 17
12 34 17
12 34 17
12 34 17
12 34 17
12 33 16
12 33 16
12 33 16
12 33 16
12 33 16
12 33 16
12 33 16
12 32 16
12 32 16
12 32 16
12 32 16
12 32 16
12 32 16
12 32 16
11 31 15
11 31 15
11 31 15
11 31 15
11 31 15
11 31 15
11 31 15
11 31 15
11 30 15
11 30 15
11 30 15
11 30 15
11 30 15
11 30 15
11 30 15
11 30 15
11 31 15
11 31 15
11 31 15
11 31 15
12 32 16
12 32 16
12 32 16
12 32 16
12 32 16
12 32 16
12 32 16
12 32 16
12 33 16
12 33 16
12 33 16
12 33 16
12 33 16
12 33 16
12 33 16
12 34 17
12 34 17
12 34 17
12 34 17
13 34 17
13 34 17
13 35 17
13 35 17
13 35 17
13 35 17
13 35 17
13 35 17
13 36 18
13 36 18
13 36 18
13 36 18
13 36 18
13 36 18
13 37 18
13 37 18
14 37 18
14 37 18
14 37 18
14 38 19
14 38 19
14 38 19
14 38 19
14 38 19
14 39 19
14 39 19
14 39 19
14 39 19
14 39 19
15 40 20
15 40 20
15 40 20
15 40 20
15 41 20
15 41 20
15 41 20
15 41 20
15 42 21
15 42 21
15 42 21
16 42 21
16 43 21
16 43 21
16 43 21
16 43 21
16 44 22
16 44 22
16 44 22
16 44 22
16 45 22
0 0 0
0 0 0
0 0 0
17 46 23
17 46 23
17 46 23
17 47 23
17 47 23
17 47 23
18 48 24
18 48 24
18 48 24
18 49 24
18 49 24
18 49 24
18 50 25
18 50 25
19 50 25
19 51 25
19 51 25
19 51 25
19 52 26
19 52 26
19 52 26
19 53 26
20 53 26
20 53 26
20 54 27
20 54 27
20 55 27
20 55 27
20 55 27
21 56 28
21 56 28
21 56 28
21 57 28
21 57 28
21 57 28
21 58 29
22 58 29
22 59 29
22 59 29
22 59 29
22 60 30
22 60 30
22 60 30
22 61 30
23 61 30
23 61 30
0 0 0
0 0 0
0 0 0
0 0 0
0 0 0
0 0 0
0 0 0
0 0 0
24 64 32
24 65 32
24 65 32
24 65 32
24 65 32
24 66 33
24 66 33
24 66 33
0 0 0
0 0 0
0 0 0
0 0 0
0 0 0
0 0 0
0 0 0
0 0 0
25 67 33
25 67 33
25 68 34
25 68 34
25 68 34
25 68 34
0 0 0
0 0 0
0 0 0
0 0 0
0 0 0
0 0 0
0 0 0
0 0 0
25 67 33
25 67 33
25 67 33
25 66 33
25 66 33
24 66 33
24 66 33
24 66 33
24 65 32
24 65 32
24 65 32
0 0 0
0 0 0
0 0 0
0 0 0
0 0 0
0 0 0
0 0 0
0 0 0
0 0 0
23 62 31
103 0 0
108 0 0
113 0 0
116 0 0
119 0 0
122 0 0
125 0 0
128 0 0
131 0 0
133 0 0
135 0 0
134 0 0
133 0 0
130 0 0
127 0 0
122 0 0
117 0 0
111 0 0
106 0 0
101 0 0
96 0 0
91 0 0
86 0 0
82 0 0
78 0 0
73 0 0
68 0 0
63 0 0
58 0 0
53 0 0
47 0 0
41 0 0
35 0 0
29 0 0
25 0 0
25 0 0
25 0 0
25 0 0
25 0 0
25 0 0
3 10 5
3 10 5
3 10 5
3 10 5
3 10 5
3 10 5
3 10 5
17 45 22
17 45 22
16 45 22
16 44 22
16 44 22
16 44 22
16 44 22
16 43 21
16 43 21
16 43 21
16 43 21
16 42 21
15 42 21
15 42 21
15 42 21
15 41 20
15 41 20
15 41 20
15 41 20
15 40 20
15 40 20
15 40 20
15 40 20
14 39 19
14 39 19
14 39 19
14 39 19
14 39 19
14 38 19
14 38 19
14 38 19
14 38 19
14 38 19
14 37 18
14 37 18
14 37 18
13 37 18
13 37 18
13 36 18
13 36 18
13 36 18
13 36 18
13 36 18
13 36 18
13 35 17
13 35 17
13 35 17
13 35 17
13 35 17
13 35 17
13 34 17
13 34 17
12 34 17
12 34 17
12 34 17
12 34 17
12 33 16
12 33 16
12 33 16
12 33 16
12 33 16
12 33 16
12 33 16
12 32 16
12 32 16
12 32 16
12 32 16
12 32 16
12 32 16
12 32 16
12 32 16
11 31 15
12 33 16
12 33 16
12 33 16
12 33 16
12 33 16
12 33 16
12 33 16
12 34 17
12 34 17
12 34 17
12 34 17
13 34 17
13 34 17
13 35 17
13 35 17
13 35 17
13 35 17
13 35 17
13 35 17
13 36 18
13 36 18
13 36 18
13 36 18
13 36 18
13 36 18
13 37 18
13 37 18
14 37 18
14 37 18
14 37 18
14 38 19
14 38 19
14 38 19
14 38 19
14 38 19
14 39 19
14 39 19
14 39 19
14 39 19
14 39 19
15 40 20
15 40 20
15 40 20
15 40 20
15 40 20
15 41 20
15 41 20
15 41 20
15 41 20
15 42 21
15 42 21
15 42 21
16 42 21
16 43 21
16 43 21
16 43 21
16 43 21
16 44 22
16 44 22
16 44 22
16 45 22
17 45 22
17 45 22
17 45 22
17 46 23
17 46 23
17 46 23
17 47 23
17 47 23
0 0 0
0 0 0
0 0 0
0 0 0
0 0 0
0 0 0
0 0 0
0 0 0
0 0 0
0 0 0
0 0 0
19 51 25
19 52 26
19 52 26
19 52 26
19 53 26
20 53 26
20 54 27
20 54 27
20 54 27
20 55 27
20 55 27
21 56 28
21 56 28
21 56 28
21 57 28
21 57 28
21 58 29
22 58 29
22 59 29
22 59 29
22 60 30
22 60 30
22 61 30
23 61 30
23 62 31
23 62 31
23 63 31
23 63 31
24 64 32
24 64 32
24 65 32
24 65 32
24 66 33
24 66 33
25 67 33
25 67 33
25 68 34
25 68 34
25 69 34
26 69 34
26 70 35
26 70 35
0 0 0
0 0 0
0 0 0
0 0 0
0 0 0
0 0 0
0 0 0
0 0 0
28 74 37
28 75 37
28 75 37
28 75 37
28 76 38
28 76 38
28 77 38
29 77 38
0 0 0
0 0 0
0 0 0
0 0 0
0 0 0
0 0 0
0 0 0
0 0 0
0 0 0
29 79 39
29 79 39
29 79 39
29 79 39
29 79 39
29 79 39
0 0 0
0 0 0
0 0 0
0 0 0
0 0 0
0 0 0
29 78 39
29 78 39
29 78 39
29 78 39
29 77 38
29 77 38
29 77 38
28 77 38
28 76 38
28 76 38
28 75 37
28 75 37
0 0 0
0 0 0
0 0 0
0 0 0
0 0 0
0 0 0
0 0 0
0 0 0
0 0 0
26 71 35
26 70 35
26 70 35
26 69 34
25 69 34
25 68 34
25 68 34
25 67 33
25 67 33
24 66 33
24 66 33
24 65 32
24 65 32
24 64 32
24 64 32
23 63 31
23 63 31
23 62 31
23 62 31
23 61 30
22 61 30
22 60 30
22 60 30
22 59 29
22 59 29
22 58 29
21 58 29
21 57 28
21 57 28
21 57 28
21 56 28
21 56 28
20 55 27
20 55 27
20 54 27
20 54 27
20 54 27
20 53 26
19 53 26
19 52 26
19 52 26
19 52 26
19 51 25
19 51 25
19 50 25
18 50 25
18 50 25
18 49 24
18 49 24
18 49 24
18 48 24
18 48 24
18 48 24
17 47 23
17 47 23
17 47 23
17 46 23
17 46 23
17 46 23
17 45 22
17 45 22
17 45 22
16 45 22
16 44 22
16 44 22
16 44 22
16 43 21
16 43 21
16 43 21
16 43 21
16 42 21
16 42 21
15 42 21
15 42 21
15 41 20
15 41 20
15 41 20
15 41 20
15 40 20
15 40 20
15 40 20
15 40 20
15 40 20
14 39 19
14 39 19
14 39 19
14 39 19
14 39 19
14 38 19
14 38 19
14 38 19
14 38 19
14 38 19
14 37 18
14 37 18
14 37 18
13 37 18
13 37 18
13 36 18
13 36 18
13 36 18
13 36 18
13 36 18
13 36 18
13 35 17
13 35 17
13 35 17
13 35 17
13 35 17
13 35 17
13 34 17
13 34 17
12 34 17
12 34 17
12 34 17
12 34 17
12 34 17
12 33 16
12 33 16
12 33 16
13 34 17
13 34 17
13 35 17
13 35 17
13 35 17
13 35 17
13 35 17
13 35 17
13 35 17
13 36 18
13 36 18
13 36 18
13 36 18
13 36 18
13 36 18
13 37 18
13 37 18
14 37 18
14 37 18
14 37 18
14 38 19
14 38 19
14 38 19
14 38 19
14 38 19
14 39 19
14 39 19
14 39 19
14 39 19
14 39 19
15 40 20
15 40 20
15 40 20
15 40 20
15 40 20
15 41 20
15 41 20
15 41 20
15 41 20
15 42 21
15 42 21
15 42 21
16 42 21
16 43 21
16 43 21
16 43 21
16 43 21
16 44 22
16 44 22
16 44 22
16 44 22
16 45 22
17 45 22
17 45 22
17 46 23
17 46 23
17 46 23
17 47 23
17 47 23
17 47 23
17 47 23
18 48 24
18 48 24
18 48 24
18 49 24
18 49 24
18 50 25
0 0 0
0 0 0
0 0 0
0 0 0
0 0 0
0 0 0
0 0 0
0 0 0
0 0 0
0 0 0
0 0 0
0 0 0
0 0 0
0 0 0
0 0 0
21 56 28
21 56 28
21 57 28
21 57 28
21 58 29
22 58 29
22 59 29
22 59 29
22 60 30
22 60 30
23 61 30
23 61 30
23 62 31
23 63 31
23 63 31
24 64 32
24 64 32
24 65 32
24 65 32
24 66 33
25 67 33
25 67 33
25 68 34
25 68 34
26 69 34
26 70 35
26 70 35
26 71 35
27 72 36
27 72 36
27 73 36
27 74 37
28 74 37
28 75 37
28 76 38
28 76 38
29 77 38
29 78 39
29 78 39
29 79 39
0 0 0
0 0 0
0 0 0
0 0 0
0 0 0
0 0 0
0 0 0
0 0 0
31 85 42
32 85 42
32 86 43
32 86 43
32 87 43
32 87 43
33 88 44
0 0 0
0 0 0
0 0 0
0 0 0
0 0 0
0 0 0
0 0 0
0 0 0
0 0 0
0 0 0
34 91 45
34 92 46
34 92 46
34 92 46
34 92 46
34 92 46
34 92 46
34 92 46
0 0 0
0 0 0
0 0 0
34 91 45
34 91 45
34 90 45
33 90 45
33 90 45
33 89 44
33 89 44
33 88 44
33 88 44
32 87 43
32 87 43
32 86 43
32 86 43
0 0 0
0 0 0
0 0 0
0 0 0
0 0 0
0 0 0
0 0 0
0 0 0
0 0 0
30 80 40
29 79 39
29 78 39
29 78 39
29 77 38
28 76 38
28 76 38
28 75 37
28 74 37
27 74 37
27 73 36
27 72 36
27 72 36
26 71 35
26 70 35
26 70 35
26 69 34
25 69 34
25 68 34
25 67 33
25 67 33
24 66 33
24 66 33
24 65 32
24 64 32
24 64 32
23 63 31
23 63 31
23 62 31
23 62 31
23 61 30
22 61 30
22 60 30
22 60 30
22 59 29
22 59 29
21 58 29
21 58 29
21 57 28
21 57 28
21 56 28
21 56 28
20 55 27
20 55 27
20 54 27
20 54 27
20 54 27
20 53 26
19 53 26
19 52 26
19 52 26
19 52 26
19 51 25
19 51 25
19 50 25
18 50 25
18 50 25
18 49 24
18 49 24
18 49 24
18 48 24
18 48 24
18 48 24
17 47 23
17 47 23
17 47 23
17 46 23
17 46 23
17 46 23
17 45 22
17 45 22
16 45 22
16 45 22
16 44 22
16 44 22
16 44 22
16 43 21
16 43 21
16 43 21
16 43 21
16 42 21
15 42 21
15 42 21
15 42 21
15 41 20
15 41 20
15 41 20
15 41 20
15 40 20
15 40 20
15 40 20
15 40 20
15 40 20
14 39 19
14 39 19
14 39 19
14 39 19
14 39 19
14 38 19
14 38 19
14 38 19
14 38 19
14 38 19
14 37 18
14 37 18
14 37 18
14 37 18
13 37 18
13 36 18
13 36 18
13 36 18
13 36 18
13 36 18
13 36 18
13 35 17
13 35 17
13 35 17
13 35 17
13 35 17
13 35 17
13 36 18
13 36 18
13 36 18
13 36 18
13 36 18
13 36 18
13 37 18
13 37 18
14 37 18
14 37 18
14 37 18
14 38 19
14 38 19
14 38 19
14 38 19
14 38 19
14 38 19
14 39 19
14 39 19
14 39 19
14 39 19
14 39 19
15 40 20
15 40 20
15 40 20
15 40 20
15 41 20
15 41 20
15 41 20
15 41 20
15 41 20
15 42 21
15 42 21
15 42 21
16 42 21
16 43 21
16 43 21
16 43 21
16 43 21
16 44 22
16 44 22
16 44 22
16 44 22
16 45 22
17 45 22
17 45 22
17 46 23
17 46 23
17 46 23
17 46 23
17 47 23
17 47 23
17 47 23
18 48 24
18 48 24
18 48 24
18 49 24
18 49 24
18 49 24
18 50 25
18 50 25
19 50 25
19 51 25
19 51 25
19 52 26
19 52 26
0 0 0
0 0 0
0 0 0
0 0 0
0 0 0
0 0 0
0 0 0
0 0 0
0 0 0
0 0 0
0 0 0
0 0 0
0 0 0
0 0 0
0 0 0
0 0 0
0 0 0
22 60 30
22 61 30
23 61 30
23 62 31
23 62 31
23 63 31
23 63 31
24 64 32
24 65 32
24 65 32
24 66 33
25 66 33
25 67 33
25 68 34
25 68 34
26 69 34
26 70 35
26 70 35
26 71 35
27 72 36
27 72 36
27 73 36
27 74 37
28 75 37
28 75 37
28 76 38
29 77 38
29 78 39
29 78 39
29 79 39
30 80 40
30 81 40
30 82 41
31 82 41
31 83 41
31 84 42
32 85 42
32 86 43
32 87 43
32 87 43
33 88 44
0 0 0
0 0 0
0 0 0
0 0 0
0 0 0
35 93 46
35 94 47
35 94 47
35 95 47
36 96 48
36 97 48
36 97 48
36 98 49
0 0 0
0 0 0
0 0 0
0 0 0
0 0 0
0 0 0
0 0 0
0 0 0
0 0 0
0 0 0
3 10 5
3 10 5
3 10 5
3 10 5
3 10 5
3 10 5
3 10 5
3 10 5
3 10 5
3 10 5
3 10 5
3 10 5
3 10 5
3 10 5
3 10 5
3 10 5
3 10 5
3 10 5
3 10 5
3 10 5
3 10 5
3 10 5
36 96 48
36 96 48
0 0 0
0 0 0
0 0 0
0 0 0
0 0 0
0 0 0
0 0 0
0 0 0
0 0 0
33 88 44
32 87 43
32 86 43
32 85 42
31 84 42
31 84 42
31 83 41
30 82 41
30 81 40
30 80 40
30 80 40
29 79 39
29 78 39
29 77 38
28 77 38
28 76 38
28 75 37
28 74 37
27 74 37
27 73 36
27 72 36
26 71 35
26 71 35
26 70 35
26 69 34
25 69 34
25 68 34
25 67 33
25 67 33
24 66 33
24 66 33
24 65 32
24 64 32
24 64 32
23 63 31
23 63 31
23 62 31
23 61 30
23 61 30
22 60 30
22 60 30
22 59 29
22 59 29
22 58 29
21 58 29
21 57 28
21 57 28
21 56 28
21 56 28
21 56 28
20 55 27
20 55 27
20 54 27
20 54 27
20 53 26
20 53 26
19 53 26
19 52 26
19 52 26
19 51 25
19 51 25
19 51 25
19 50 25
18 50 25
18 50 25
18 49 24
18 49 24
18 49 24
18 48 24
18 48 24
18 48 24
17 47 23
17 47 23
17 47 23
17 46 23
17 46 23
17 46 23
17 45 22
17 45 22
17 45 22
16 45 22
16 44 22
16 44 22
16 44 22
16 43 21
16 43 21
16 43 21
16 43 21
16 42 21
16 42 21
15 42 21
15 42 21
15 42 21
15 41 20
15 41 20
15 41 20
15 41 20
15 40 20
15 40 20
15 40 20
15 40 20
15 40 20
14 39 19
14 39 19
14 39 19
14 39 19
14 39 19
14 38 19
14 38 19
14 38 19
14 38 19
14 38 19
14 37 18
14 37 18
14 37 18
14 37 18
13 37 18
13 37 18
13 36 18
13 36 18
14 37 18
14 37 18
14 37 18
14 38 19
14 38 19
14 38 19
14 38 19
14 38 19
14 38 19
14 39 19
14 39 19
14 39 19
14 39 19
14 39 19
15 40 20
15 40 20
15 40 20
15 40 20
15 40 20
15 41 20
15 41 20
15 41 20
15 41 20
15 41 20
15 42 21
15 42 21
15 42 21
16 42 21
16 43 21
16 43 21
16 43 21
16 43 21
16 44 22
16 44 22
16 44 22
16 44 22
16 45 22
17 45 22
17 45 22
17 45 22
17 46 23
17 46 23
17 46 23
17 47 23
17 47 23
17 47 23
18 48 24
18 48 24
18 48 24
18 48 24
18 49 24
18 49 24
18 49 24
18 50 25
18 50 25
19 50 25
19 51 25
19 51 25
19 52 26
19 52 26
19 52 26
19 53 26
20 53 26
20 53 26
20 54 27
0 0 0
0 0 0
0 0 0
0 0 0
0 0 0
0 0 0
0 0 0
0 0 0
0 0 0
0 0 0
0 0 0
0 0 0
0 0 0
0 0 0
0 0 0
0 0 0
0 0 0
0 0 0
0 0 0
24 64 32
24 64 32
24 65 32
24 65 32
24 66 33
25 67 33
25 67 33
25 68 34
25 68 34
26 69 34
26 70 35
26 70 35
26 71 35
27 72 36
27 73 36
27 73 36
27 74 37
28 75 37
28 76 38
28 76 38
29 77 38
29 78 39
29 79 39
29 79 39
30 80 40
30 81 40
30 82 41
31 83 41
31 84 42
31 85 42
32 85 42
32 86 43
32 87 43
33 88 44
33 89 44
33 90 45
3 10 5
3 10 5
3 10 5
3 10 5
3 10 5
3 10 5
3 10 5
3 10 5
3 10 5
3 10 5
3 10 5
3 10 5
3 10 5
3 10 5
3 10 5
3 10 5
3 10 5
0 0 0
0 0 0
0 0 0
0 0 0
0 0 0
0 0 0
0 0 0
0 0 0
0 0 0
0 0 0
3 10 5
3 10 5
3 10 5
3 10 5
3 10 5
3 10 5
3 10 5
3 10 5
3 10 5
3 10 5
3 10 5
3 10 5
3 10 5
3 10 5
3 10 5
3 10 5
3 10 5
3 10 5
3 10 5
3 10 5
3 10 5
3 10 5
3 10 5
3 10 5
3 10 5
0 0 0
0 0 0
0 0 0
0 0 0
0 0 0
0 0 0
0 0 0
35 94 47
35 93 46
34 92 46
34 91 45
34 91 45
33 90 45
33 89 44
33 88 44
32 87 43
32 86 43
32 85 42
31 84 42
31 83 41
31 83 41
30 82 41
30 81 40
30 80 40
29 79 39
29 78 39
29 78 39
29 77 38
28 76 38
28 75 37
28 75 37
27 74 37
27 73 36
27 72 36
27 72 36
26 71 35
26 70 35
26 70 35
26 69 34
25 68 34
25 68 34
25 67 33
25 66 33
24 66 33
24 65 32
24 65 32
24 64 32
23 63 31
23 63 31
23 62 31
23 62 31
23 61 30
22 61 30
22 60 30
22 60 30
22 59 29
22 59 29
22 58 29
21 58 29
21 57 28
21 57 28
21 56 28
21 56 28
20 55 27
20 55 27
20 55 27
20 54 27
20 54 27
20 53 26
20 53 26
19 53 26
19 52 26
19 52 26
19 51 25
19 51 25
19 51 25
19 50 25
18 50 25
18 50 25
18 49 24
18 49 24
18 49 24
18 48 24
18 48 24
18 48 24
17 47 23
17 47 23
17 47 23
17 46 23
17 46 23
17 46 23
17 46 23
17 45 22
17 45 22
16 45 22
16 45 22
16 44 22
16 44 22
16 44 22
16 44 22
16 43 21
16 43 21
16 43 21
16 43 21
16 42 21
15 42 21
15 42 21
15 42 21
15 41 20
15 41 20
15 41 20
15 41 20
15 41 20
15 40 20
15 40 20
15 40 20
15 40 20
15 40 20
14 39 19
14 39 19
14 39 19
14 39 19
14 39 19
14 38 19
14 38 19
14 38 19
14 38 19
14 38 19
14 38 19
14 38 19
14 39 19
14 39 19
14 39 19
14 39 19
14 39 19
15 40 20
15 40 20
15 40 20
15 40 20
15 40 20
15 40 20
15 41 20
15 41 20
15 41 20
15 41 20
15 42 21
15 42 21
15 42 21
16 42 21
16 42 21
16 43 21
16 43 21
16 43 21
16 43 21
16 44 22
16 44 22
16 44 22
16 44 22
16 45 22
16 45 22
17 45 22
17 45 22
17 46 23
17 46 23
17 46 23
17 46 23
17 47 23
17 47 23
17 47 23
18 48 24
18 48 24
18 48 24
18 48 24
18 49 24
18 49 24
18 49 24
18 50 25
18 50 25
19 50 25
19 51 25
19 51 25
19 51 25
19 52 26
19 52 26
19 53 26
20 53 26
20 53 26
20 54 27
20 54 27
20 54 27
20 55 27
20 55 27
0 0 0
0 0 0
0 0 0
0 0 0
0 0 0
0 0 0
0 0 0
0 0 0
0 0 0
0 0 0
0 0 0
0 0 0
0 0 0
0 0 0
0 0 0
0 0 0
0 0 0
0 0 0
0 0 0
0 0 0
24 66 33
24 66 33
25 67 33
25 67 33
25 68 34
25 69 34
26 69 34
26 70 35
26 70 35
26 71 35
27 72 36
27 72 36
27 73 36
27 74 37
28 75 37
3 10 5
3 10 5
3 10 5
3 10 5
3 10 5
3 10 5
3 10 5
3 10 5
3 10 5
3 10 5
3 10 5
3 10 5
3 10 5
3 10 5
3 10 5
3 10 5
3 10 5
3 10 5
3 10 5
3 10 5
3 10 5
3 10 5
3 10 5
3 10 5
3 10 5
3 10 5
3 10 5
3 10 5
3 10 5
3 10 5
3 10 5
3 10 5
3 10 5
3 10 5
3 10 5
3 10 5
3 10 5
3 10 5
3 10 5
0 0 0
0 0 0
0 0 0
0 0 0
0 0 0
0 0 0
0 0 0
0 0 0
0 0 0
3 10 5
3 10 5
3 10 5
3 10 5
3 10 5
3 10 5
3 10 5
3 10 5
3 10 5
3 10 5
3 10 5
3 10 5
3 10 5
3 10 5
3 10 5
3 10 5
3 10 5
3 10 5
3 10 5
3 10 5
3 10 5
3 10 5
3 10 5
3 10 5
3 10 5
3 10 5
3 10 5
3 10 5
3 10 5
3 10 5
3 10 5
3 10 5
3 10 5
3 10 5
3 10 5
3 10 5
3 10 5
34 92 46
34 91 45
33 90 45
33 89 44
33 88 44
32 87 43
32 86 43
32 86 43
31 85 42
31 84 42
31 83 41
31 82 41
30 81 40
30 81 40
30 80 40
29 79 39
29 78 39
29 77 38
28 77 38
28 76 38
28 75 37
28 75 37
27 74 37
27 73 36
27 72 36
27 72 36
26 71 35
26 70 35
26 70 35
26 69 34
25 68 34
25 68 34
25 67 33
25 67 33
24 66 33
24 65 32
24 65 32
24 64 32
24 64 32
23 63 31
23 63 31
23 62 31
23 62 31
23 61 30
22 61 30
22 60 30
22 60 30
22 59 29
22 59 29
22 58 29
21 58 29
21 57 28
21 57 28
21 56 28
21 56 28
21 56 28
20 55 27
20 55 27
20 54 27
20 54 27
20 54 27
20 53 26
19 53 26
19 52 26
19 52 26
19 52 26
19 51 25
19 51 25
19 51 25
19 50 25
18 50 25
18 50 25
18 49 24
18 49 24
18 49 24
18 48 24
18 48 24
18 48 24
18 48 24
17 47 23
17 47 23
17 47 23
17 46 23
17 46 23
17 46 23
17 46 23
17 45 22
17 45 22
16 45 22
16 45 22
16 44 22
16 44 22
16 44 22
16 44 22
16 43 21
16 43 21
16 43 21
16 43 21
16 42 21
15 42 21
15 42 21
15 42 21
15 41 20
15 41 20
15 41 20
15 41 20
15 41 20
15 40 20
15 40 20
15 40 20
15 40 20
15 40 20
14 39 19
14 39 19
14 39 19
14 39 19
14 39 19
15 40 20
15 40 20
15 40 20
15 40 20
15 40 20
15 40 20
15 41 20
15 41 20
15 41 20
15 41 20
15 41 20
15 42 21
15 42 21
15 42 21
16 42 21
16 42 21
16 43 21
16 43 21
16 43 21
16 43 21
16 44 22
16 44 22
16 44 22
16 44 22
16 44 22
16 45 22
17 45 22
17 45 22
17 45 22
17 46 23
17 46 23
17 46 23
17 47 23
17 47 23
17 47 23
17 47 23
18 48 24
18 48 24
18 48 24
18 48 24
18 49 24
18 49 24
18 49 24
18 50 25
18 50 25
19 50 25
19 51 25
19 51 25
19 51 25
19 52 26
19 52 26
19 52 26
19 53 26
20 53 26
20 53 26
20 54 27
20 54 27
20 54 27
20 55 27
20 55 27
21 56 28
21 56 28
21 56 28
0 0 0
0 0 0
0 0 0
0 0 0
0 0 0
0 0 0
0 0 0
0 0 0
0 0 0
0 0 0
0 0 0
0 0 0
0 0 0
0 0 0
0 0 0
0 0 0
0 0 0
0 0 0
0 0 0
0 0 0
0 0 0
3 10 5
3 10 5
3 10 5
3 10 5
3 10 5
3 10 5
3 10 5
3 10 5
3 10 5
3 10 5
3 10 5
3 10 5
3 10 5
3 10 5
3 10 5
3 10 5
3 10 5
3 10 5
3 10 5
3 10 5
3 10 5
3 10 5
3 10 5
3 10 5
3 10 5
3 10 5
3 10 5
3 10 5
3 10 5
3 10 5
3 10 5
3 10 5
3 10 5
3 10 5
3 10 5
3 10 5
3 10 5
3 10 5
3 10 5
3 10 5
3 10 5
3 10 5
3 10 5
3 10 5
3 10 5
3 10 5
3 10 5
3 10 5
3 10 5
3 10 5
3 10 5
3 10 5
3 10 5
3 10 5
0 0 0
0 0 0
0 0 0
0 0 0
0 0 0
0 0 0
3 10 5
3 10 5
3 10 5
3 10 5
3 10 5
3 10 5
3 10 5
3 10 5
3 10 5
3 10 5
3 10 5
3 10 5
3 10 5
3 10 5
3 10 5
3 10 5
3 10 5
3 10 5
3 10 5
3 10 5
3 10 5
3 10 5
3 10 5
3 10 5
3 10 5
3 10 5
3 10 5
3 10 5
3 10 5
3 10 5
3 10 5
3 10 5
3 10 5
3 10 5
3 10 5
3 10 5
3 10 5
3 10 5
3 10 5
3 10 5
3 10 5
3 10 5
3 10 5
3 10 5
3 10 5
3 10 5
3 10 5
31 84 42
31 84 42
31 83 41
31 82 41
30 81 40
30 81 40
30 80 40
29 79 39
29 79 39
29 78 39
29 77 38
28 76 38
28 76 38
28 75 37
28 74 37
27 74 37
27 73 36
27 72 36
27 72 36
26 71 35
26 71 35
26 70 35
26 69 34
25 69 34
25 68 34
25 68 34
25 67 33
25 66 33
24 66 33
24 65 32
24 65 32
24 64 32
24 64 32
23 63 31
23 63 31
23 62 31
23 62 31
23 61 30
23 61 30
22 60 30
22 60 30
22 59 29
22 59 29
22 59 29
21 58 29
21 58 29
21 57 28
21 57 28
21 56 28
21 56 28
21 56 28
20 55 27
20 55 27
20 54 27
20 54 27
20 54 27
20 53 26
20 53 26
19 53 26
19 52 26
19 52 26
19 52 26
19 51 25
19 51 25
19 51 25
19 50 25
18 50 25
18 50 25
18 49 24
18 49 24
18 49 24
18 48 24
18 48 24
18 48 24
18 48 24
17 47 23
17 47 23
17 47 23
17 47 23
17 46 23
17 46 23
17 46 23
17 45 22
17 45 22
17 45 22
16 45 22
16 45 22
16 44 22
16 44 22
16 44 22
16 44 22
16 43 21
16 43 21
16 43 21
16 43 21
16 42 21
16 42 21
15 42 21
15 42 21
15 42 21
15 41 20
15 41 20
15 41 20
15 41 20
15 41 20
15 40 20
15 40 20
15 40 20
15 40 20
15 40 20
15 41 20
15 41 20
15 41 20
15 41 20
15 41 20
15 42 21
15 42 21
15 42 21
15 42 21
16 42 21
16 43 21
16 43 21
16 43 21
16 43 21
16 43 21
16 44 22
16 44 22
16 44 22
16 44 22
16 45 22
16 45 22
17 45 22
17 45 22
17 45 22
17 46 23
17 46 23
17 46 23
17 46 23
17 47 23
17 47 23
17 47 23
17 47 23
18 48 24
18 48 24
18 48 24
18 49 24
18 49 24
18 49 24
18 49 24
18 50 25
18 50 25
19 50 25
19 51 25
19 51 25
19 51 25
19 51 25
19 52 26
19 52 26
19 52 26
19 53 26
20 53 26
20 53 26
20 54 27
20 54 27
20 54 27
20 55 27
20 55 27
21 56 28
21 56 28
21 56 28
21 57 28
21 57 28
0 0 0
0 0 0
0 0 0
0 0 0
0 0 0
0 0 0
0 0 0
0 0 0
0 0 0
0 0 0
0 0 0
0 0 0
0 0 0
0 0 0
0 0 0
0 0 0
0 0 0
0 0 0
0 0 0
0 0 0
0 0 0
3 10 5
3 10 5
3 10 5
3 10 5
3 10 5
3 10 5
3 10 5
3 10 5
3 10 5
3 10 5
3 10 5
3 10 5
3 10 5
3 10 5
3 10 5
3 10 5
3 10 5
3 10 5
3 10 5
3 10 5
3 10 5
3 10 5
3 10 5
3 10 5
3 10 5
3 10 5
3 10 5
3 10 5
3 10 5
3 10 5
3 10 5
3 10 5
3 10 5
3 10 5
3 10 5
3 10 5
3 10 5
3 10 5
3 10 5
3 10 5
3 10 5
3 10 5
3 10 5
3 10 5
3 10 5
3 10 5
3 10 5
3 10 5
3 10 5
3 10 5
3 10 5
3 10 5
3 10 5
3 10 5
3 10 5
3 10 5
3 10 5
3 10 5
3 10 5
3 10 5
3 10 5
3 10 5
3 10 5
3 10 5
3 10 5
3 10 5
3 10 5
3 10 5
3 10 5
3 10 5
3 10 5
3 10 5
3 10 5
3 10 5
3 10 5
3 10 5
3 10 5
3 10 5
3 10 5
3 10 5
3 10 5
3 10 5
3 10 5
3 10 5
3 10 5
3 10 5
3 10 5
3 10 5
3 10 5
3 10 5
3 10 5
3 10 5
3 10 5
3 10 5
3 10 5
3 10 5
3 10 5
3 10 5
3 10 5
3 10 5
3 10 5
3 10 5
3 10 5
3 10 5
3 10 5
3 10 5
3 10 5
3 10 5
3 10 5
3 10 5
3 10 5
3 10 5
3 10 5
3 10 5
29 78 39
29 77 38
29 77 38
28 76 38
28 76 38
28 75 37
28 74 37
27 74 37
27 73 36
27 73 36
27 72 36
26 71 35
26 71 35
26 70 35
26 70 35
26 69 34
25 69 34
25 68 34
25 68 34
25 67 33
25 67 33
24 66 33
24 66 33
24 65 32
24 65 32
24 64 32
24 64 32
23 63 31
23 63 31
23 62 31
23 62 31
23 61 30
23 61 30
22 60 30
22 60 30
22 60 30
22 59 29
22 59 29
22 58 29
21 58 29
21 58 29
21 57 28
21 57 28
21 56 28
21 56 28
21 56 28
20 55 27
20 55 27
20 55 27
20 54 27
20 54 27
20 54 27
20 53 26
20 53 26
19 53 26
19 52 26
19 52 26
19 52 26
19 51 25
19 51 25
19 51 25
19 50 25
18 50 25
18 50 25
18 49 24
18 49 24
18 49 24
18 49 24
18 48 24
18 48 24
18 48 24
17 47 23
17 47 23
17 47 23
17 47 23
17 46 23
17 46 23
17 46 23
17 46 23
17 45 22
17 45 22
17 45 22
16 45 22
16 45 22
16 44 22
16 44 22
16 44 22
16 44 22
16 43 21
16 43 21
16 43 21
16 43 21
16 43 21
16 42 21
16 42 21
15 42 21
15 42 21
15 42 21
15 41 20
15 41 20
15 41 20
15 41 20
15 41 20
15 41 20
15 42 21
15 42 21
15 42 21
15 42 21
16 42 21
16 43 21
16 43 21
16 43 21
16 43 21
16 43 21
16 44 22
16 44 22
16 44 22
16 44 22
16 44 22
16 45 22
16 45 22
17 45 22
17 45 22
17 45 22
17 46 23
17 46 23
17 46 23
17 46 23
17 47 23
17 47 23
17 47 23
17 47 23
18 48 24
18 48 24
18 48 24
18 48 24
18 49 24
18 49 24
18 49 24
18 49 24
18 50 25
18 50 25
19 50 25
19 50 25
19 51 25
19 51 25
19 51 25
19 52 26
19 52 26
19 52 26
19 53 26
20 53 26
20 53 26
20 54 27
20 54 27
20 54 27
20 54 27
20 55 27
20 55 27
20 55 27
21 56 28
21 56 28
21 57 28
21 57 28
0 0 0
0 0 0
0 0 0
0 0 0
0 0 0
0 0 0
0 0 0
0 0 0
0 0 0
0 0 0
0 0 0
0 0 0
0 0 0
0 0 0
0 0 0
0 0 0
0 0 0
0 0 0
0 0 0
0 0 0
0 0 0
0 0 0
3 10 5
3 10 5
3 10 5
3 10 5
3 10 5
3 10 5
3 10 5
3 10 5
3 10 5
3 10 5
3 10 5
3 10 5
3 10 5
3 10 5
3 10 5
3 10 5
3 10 5
3 10 5
3 10 5
3 10 5
3 10 5
3 10 5
3 10 5
3 10 5
3 10 5
3 10 5
3 10 5
3 10 5
3 10 5
3 10 5
3 10 5
3 10 5
3 10 5
3 10 5
3 10 5
3 10 5
3 10 5
3 10 5
3 10 5
3 10 5
3 10 5
3 10 5
3 10 5
3 10 5
3 10 5
3 10 5
3 10 5
3 10 5
3 10 5
3 10 5
3 10 5
3 10 5
3 10 5
3 10 5
3 10 5
3 10 5
3 10 5
3 10 5
3 10 5
3 10 5
3 10 5
3 10 5
3 10 5
3 10 5
3 10 5
3 10 5
3 10 5
3 10 5
3 10 5
3 10 5
3 10 5
3 10 5
3 10 5
3 10 5
3 10 5
3 10 5
3 10 5
3 10 5
3 10 5
3 10 5
3 10 5
3 10 5
3 10 5
3 10 5
3 10 5
3 10 5
3 10 5
3 10 5
3 10 5
3 10 5
3 10 5
3 10 5
3 10 5
3 10 5
3 10 5
3 10 5
3 10 5
3 10 5
3 10 5
3 10 5
3 10 5
3 10 5
3 10 5
3 10 5
3 10 5
3 10 5
3 10 5
3 10 5
3 10 5
3 10 5
3 10 5
3 10 5
3 10 5
3 10 5
3 10 5
3 10 5
3 10 5
3 10 5
3 10 5
3 10 5
3 10 5
27 72 36
27 72 36
26 71 35
26 71 35
26 70 35
26 70 35
26 69 34
25 69 34
25 68 34
25 68 34
25 67 33
25 67 33
25 66 33
24 66 33
24 66 33
24 65 32
24 65 32
24 64 32
24 64 32
23 63 31
23 63 31
23 62 31
23 62 31
23 62 31
23 61 30
23 61 30
22 60 30
22 60 30
22 60 30
22 59 29
22 59 29
22 59 29
21 58 29
21 58 29
21 57 28
21 57 28
21 57 28
21 56 28
21 56 28
21 56 28
20 55 27
20 55 27
20 55 27
20 54 27
20 54 27
20 54 27
20 53 26
20 53 26
19 53 26
19 52 26
19 52 26
19 52 26
19 51 25
19 51 25
19 51 25
19 51 25
19 50 25
18 50 25
18 50 25
18 49 24
18 49 24
18 49 24
18 49 24
18 48 24
18 48 24
18 48 24
18 48 24
17 47 23
17 47 23
17 47 23
17 47 23
17 46 23
17 46 23
17 46 23
17 46 23
17 46 23
17 45 22
17 45 22
17 45 22
16 45 22
16 44 22
16 44 22
16 44 22
16 44 22
16 44 22
16 43 21
16 43 21
16 43 21
16 43 21
16 43 21
16 42 21
16 42 21
15 42 21
15 42 21
15 42 21
15 42 21
15 42 21
16 42 21
16 42 21
16 43 21
16 43 21
16 43 21
16 43 21
16 43 21
16 43 21
16 44 22
16 44 22
16 44 22
16 44 22
16 44 22
16 45 22
17 45 22
17 45 22
17 45 22
17 46 23
17 46 23
17 46 23
17 46 23
17 46 23
17 47 23
17 47 23
17 47 23
17 47 23
18 48 24
18 48 24
18 48 24
18 48 24
18 48 24
18 49 24
18 49 24
18 49 24
18 49 24
18 50 25
18 50 25
19 50 25
19 51 25
19 51 25
19 51 25
19 51 25
19 52 26
19 52 26
19 52 26
19 52 26
19 53 26
20 53 26
20 53 26
20 54 27
20 54 27
20 54 27
20 54 27
20 55 27
20 55 27
20 55 27
21 56 28
21 56 28
21 56 28
21 57 28
0 0 0
0 0 0
0 0 0
0 0 0
0 0 0
0 0 0
0 0 0
0 0 0
0 0 0
0 0 0
0 0 0
0 0 0
0 0 0
0 0 0
0 0 0
0 0 0
0 0 0
0 0 0
0 0 0
0 0 0
0 0 0
0 0 0
3 10 5
3 10 5
3 10 5
3 10 5
3 10 5
3 10 5
3 10 5
3 10 5
3 10 5
3 10 5
3 10 5
3 10 5
3 10 5
3 10 5
3 10 5
3 10 5
3 10 5
3 10 5
3 10 5
3 10 5
3 10 5
3 10 5
3 10 5
3 10 5
3 10 5
3 10 5
3 10 5
3 10 5
3 10 5
3 10 5
3 10 5
3 10 5
3 10 5
3 10 5
3 10 5
3 10 5
3 10 5
3 10 5
3 10 5
3 10 5
3 10 5
3 10 5
3 10 5
3 10 5
3 10 5
3 10 5
3 10 5
3 10 5
3 10 5
3 10 5
3 10 5
3 10 5
3 10 5
3 10 5
3 10 5
3 10 5
3 10 5
3 10 5
3 10 5
3 10 5
3 10 5
3 10 5
3 10 5
3 10 5
3 10 5
3 10 5
3 10 5
3 10 5
3 10 5
3 10 5
3 10 5
3 10 5
3 10 5
3 10 5
3 10 5
3 10 5
3 10 5
3 10 5
3 10 5
3 10 5
3 10 5
3 10 5
3 10 5
3 10 5
3 10 5
3 10 5
3 10 5
3 10 5
3 10 5
3 10 5
3 10 5
3 10 5
3 10 5
3 10 5
3 10 5
3 10 5
3 10 5
3 10 5
3 10 5
3 10 5
3 10 5
3 10 5
3 10 5
3 10 5
3 10 5
3 10 5
3 10 5
3 10 5
3 10 5
3 10 5
3 10 5
3 10 5
3 10 5
3 10 5
3 10 5
3 10 5
3 10 5
3 10 5
3 10 5
3 10 5
3 10 5
3 10 5
3 10 5
3 10 5
3 10 5
3 10 5
3 10 5
3 10 5
3 10 5
25 67 33
25 67 33
24 66 33
24 66 33
24 65 32
24 65 32
24 65 32
24 64 32
24 64 32
23 63 31
23 63 31
23 63 31
23 62 31
23 62 31
23 61 30
23 61 30
22 61 30
22 60 30
22 60 30
22 60 30
22 59 29
22 59 29
22 59 29
22 58 29
21 58 29
21 58 29
21 57 28
21 57 28
21 57 28
21 56 28
21 56 28
21 56 28
20 55 27
20 55 27
20 55 27
20 54 27
20 54 27
20 54 27
20 53 26
20 53 26
20 53 26
19 53 26
19 52 26
19 52 26
19 52 26
19 51 25
19 51 25
19 51 25
19 51 25
19 50 25
18 50 25
18 50 25
18 50 25
18 49 24
18 49 24
18 49 24
18 49 24
18 48 24
18 48 24
18 48 24
18 48 24
17 47 23
17 47 23
17 47 23
17 47 23
17 47 23
17 46 23
17 46 23
17 46 23
17 46 23
17 45 22
17 45 22
17 45 22
16 45 22
16 45 22
16 44 22
16 44 22
16 44 22
16 44 22
16 44 22
16 43 21
16 43 21
16 43 21
16 43 21
16 43 21
16 42 21
15 42 21
16 42 21
16 42 21
16 43 21
16 43 21
16 43 21
16 43 21
16 43 21
16 44 22
16 44 22
16 44 22
16 44 22
16 44 22
16 44 22
16 45 22
17 45 22
17 45 22
17 45 22
17 45 22
17 46 23
17 46 23
17 46 23
17 46 23
17 46 23
17 47 23
17 47 23
17 47 23
17 47 23
18 48 24
18 48 24
18 48 24
18 48 24
18 48 24
18 49 24
18 49 24
18 49 24
18 49 24
18 50 25
18 50 25
18 50 25
19 50 25
19 51 25
19 51 25
19 51 25
19 51 25
19 52 26
19 52 26
19 52 26
19 52 26
19 53 26
20 53 26
20 53 26
20 53 26
20 54 27
20 54 27
20 54 27
20 54 27
20 55 27
20 55 27
20 55 27
21 56 28
21 56 28
21 56 28
0 0 0
0 0 0
0 0 0
0 0 0
0 0 0
0 0 0
0 0 0
0 0 0
0 0 0
0 0 0
0 0 0
0 0 0
0 0 0
0 0 0
0 0 0
0 0 0
0 0 0
0 0 0
0 0 0
0 0 0
0 0 0
0 0 0
3 10 5
3 10 5
3 10 5
3 10 5
3 10 5
3 10 5
3 10 5
3 10 5
3 10 5
3 10 5
3 10 5
3 10 5
3 10 5
3 10 5
3 10 5
3 10 5
3 10 5
3 10 5
3 10 5
3 10 5
3 10 5
3 10 5
3 10 5
3 10 5
3 10 5
3 10 5
3 10 5
3 10 5
3 10 5
3 10 5
3 10 5
3 10 5
3 10 5
3 10 5
3 10 5
3 10 5
3 10 5
3 10 5
3 10 5
3 10 5
3 10 5
3 10 5
3 10 5
3 10 5
3 10 5
3 10 5
3 10 5
3 10 5
3 10 5
3 10 5
3 10 5
3 10 5
3 10 5
3 10 5
3 10 5
3 10 5
3 10 5
3 10 5
3 10 5
3 10 5
3 10 5
3 10 5
3 10 5
3 10 5
3 10 5
3 10 5
3 10 5
3 10 5
3 10 5
3 10 5
3 10 5
3 10 5
3 10 5
3 10 5
3 10 5
3 10 5
3 10 5
3 10 5
3 10 5
3 10 5
3 10 5
3 10 5
3 10 5
3 10 5
3 10 5
3 10 5
3 10 5
3 10 5
3 10 5
3 10 5
3 10 5
3 10 5
3 10 5
3 10 5
3 10 5
3 10 5
3 10 5
3 10 5
3 10 5
3 10 5
3 10 5
3 10 5
3 10 5
3 10 5
3 10 5
3 10 5
3 10 5
3 10 5
3 10 5
3 10 5
3 10 5
3 10 5
3 10 5
3 10 5
3 10 5
3 10 5
3 10 5
3 10 5
3 10 5
3 10 5
3 10 5
3 10 5
3 10 5
3 10 5
3 10 5
3 10 5
3 10 5
3 10 5
3 10 5
3 10 5
3 10 5
3 10 5
3 10 5
3 10 5
3 10 5
3 10 5
23 63 31
23 62 31
23 62 31
23 62 31
23 61 30
23 61 30
22 61 30
22 60 30
22 60 30
22 60 30
22 60 30
22 59 29
22 59 29
22 59 29
22 58 29
21 58 29
21 58 29
21 57 28
21 57 28
21 57 28
21 56 28
21 56 28
21 56 28
21 56 28
20 55 27
20 55 27
20 55 27
20 54 27
20 54 27
20 54 27
20 54 27
20 53 26
20 53 26
19 53 26
19 53 26
19 52 26
19 52 26
19 52 26
19 51 25
19 51 25
19 51 25
19 51 25
19 50 25
19 50 25
18 50 25
18 50 25
18 50 25
18 49 24
18 49 24
18 49 24
18 49 24
18 48 24
18 48 24
18 48 24
18 48 24
17 47 23
17 47 23
17 47 23
17 47 23
17 47 23
17 46 23
17 46 23
17 46 23
17 46 23
17 46 23
17 45 22
17 45 22
17 45 22
16 45 22
16 45 22
16 44 22
16 44 22
16 44 22
16 44 22
16 44 22
16 44 22
16 43 21
16 43 21
16 43 21
16 43 21
16 43 21
16 43 21
16 43 21
16 43 21
16 43 21
16 44 22
16 44 22
16 44 22
16 44 22
16 44 22
16 44 22
16 45 22
16 45 22
17 45 22
17 45 22
17 45 22
17 45 22
17 46 23
17 46 23
17 46 23
17 46 23
17 46 23
17 47 23
17 47 23
17 47 23
17 47 23
17 47 23
18 48 24
18 48 24
18 48 24
18 48 24
18 48 24
18 49 24
18 49 24
18 49 24
18 49 24
18 50 25
18 50 25
18 50 25
19 50 25
19 50 25
19 51 25
19 51 25
19 51 25
19 51 25
19 52 26
19 52 26
19 52 26
19 52 26
19 53 26
19 53 26
20 53 26
20 53 26
20 53 26
20 54 27
20 54 27
20 54 27
20 55 27
20 55 27
20 55 27
20 55 27
21 56 28
21 56 28
0 0 0
0 0 0
0 0 0
0 0 0
0 0 0
0 0 0
0 0 0
0 0 0
0 0 0
0 0 0
0 0 0
0 0 0
0 0 0
0 0 0
0 0 0
0 0 0
0 0 0
0 0 0
0 0 0
0 0 0
0 0 0
3 10 5
3 10 5
3 10 5
3 10 5
3 10 5
3 10 5
3 10 5
3 10 5
3 10 5
3 10 5
3 10 5
3 10 5
3 10 5
3 10 5
3 10 5
3 10 5
3 10 5
3 10 5
3 10 5
3 10 5
3 10 5
3 10 5
3 10 5
3 10 5
3 10 5
3 10 5
3 10 5
3 10 5
3 10 5
3 10 5
3 10 5
3 10 5
3 10 5
3 10 5
3 10 5
3 10 5
3 10 5
3 10 5
3 10 5
3 10 5
3 10 5
3 10 5
3 10 5
3 10 5
3 10 5
3 10 5
3 10 5
3 10 5
3 10 5
3 10 5
3 10 5
3 10 5
3 10 5
3 10 5
3 10 5
3 10 5
3 10 5
3 10 5
3 10 5
3 10 5
3 10 5
3 10 5
3 10 5
3 10 5
3 10 5
3 10 5
3 10 5
3 10 5
3 10 5
3 10 5
3 10 5
3 10 5
3 10 5
3 10 5
3 10 5
3 10 5
3 10 5
3 10 5
3 10 5
3 10 5
3 10 5
3 10 5
3 10 5
3 10 5
3 10 5
3 10 5
3 10 5
3 10 5
3 10 5
3 10 5
3 10 5
3 10 5
3 10 5
3 10 5
3 10 5
3 10 5
3 10 5
3 10 5
3 10 5
3 10 5
3 10 5
3 10 5
3 10 5
3 10 5
3 10 5
3 10 5
3 10 5
3 10 5
3 10 5
3 10 5
3 10 5
3 10 5
3 10 5
3 10 5
3 10 5
3 10 5
3 10 5
3 10 5
3 10 5
3 10 5
3 10 5
3 10 5
3 10 5
3 10 5
3 10 5
3 10 5
3 10 5
3 10 5
3 10 5
3 10 5
3 10 5
3 10 5
3 10 5
3 10 5
3 10 5
3 10 5
3 10 5
3 10 5
3 10 5
3 10 5
3 10 5
3 10 5
3 10 5
22 59 29
22 59 29
22 59 29
22 59 29
22 58 29
21 58 29
21 58 29
21 57 28
21 57 28
21 57 28
21 57 28
21 56 28
21 56 28
21 56 28
21 56 28
20 55 27
20 55 27
20 55 27
20 54 27
20 54 27
20 54 27
20 54 27
20 53 26
20 53 26
20 53 26
19 53 26
19 53 26
19 52 26
19 52 26
19 52 26
19 52 26
19 51 25
19 51 25
19 51 25
19 51 25
19 50 25
19 50 25
18 50 25
18 50 25
18 50 25
18 49 24
18 49 24
18 49 24
18 49 24
18 48 24
18 48 24
18 48 24
18 48 24
18 48 24
17 47 23
17 47 23
17 47 23
17 47 23
17 47 23
17 46 23
17 46 23
17 46 23
17 46 23
17 46 23
17 45 22
17 45 22
17 45 22
17 45 22
16 45 22
16 45 22
16 44 22
16 44 22
16 44 22
16 44 22
16 44 22
16 43 21
16 43 21
16 43 21
16 43 21
16 43 21
16 43 21
16 43 21
16 44 22
16 44 22
16 44 22
16 44 22
16 44 22
16 44 22
16 45 22
16 45 22
17 45 22
17 45 22
17 45 22
17 45 22
17 46 23
17 46 23
17 46 23
17 46 23
17 46 23
17 46 23
17 47 23
17 47 23
17 47 23
17 47 23
17 47 23
18 48 24
18 48 24
18 48 24
18 48 24
18 48 24
18 49 24
18 49 24
18 49 24
18 49 24
18 49 24
18 50 25
18 50 25
18 50 25
18 50 25
19 50 25
19 51 25
19 51 25
19 51 25
19 51 25
19 51 25
19 52 26
19 52 26
19 52 26
19 52 26
19 52 26
19 53 26
20 53 26
20 53 26
20 53 26
20 54 27
20 54 27
20 54 27
20 54 27
20 54 27
20 55 27
20 55 27
0 0 0
0 0 0
0 0 0
0 0 0
0 0 0
0 0 0
0 0 0
0 0 0
0 0 0
0 0 0
0 0 0
0 0 0
0 0 0
0 0 0
0 0 0
0 0 0
0 0 0
0 0 0
0 0 0
0 0 0
3 10 5
3 10 5
3 10 5
3 10 5
3 10 5
3 10 5
3 10 5
3 10 5
3 10 5
3 10 5
3 10 5
3 10 5
3 10 5
3 10 5
3 10 5
3 10 5
3 10 5
3 10 5
3 10 5
3 10 5
3 10 5
3 10 5
3 10 5
3 10 5
3 10 5
3 10 5
3 10 5
3 10 5
3 10 5
3 10 5
3 10 5
3 10 5
3 10 5
3 10 5
3 10 5
3 10 5
3 10 5
3 10 5
3 10 5
3 10 5
3 10 5
3 10 5
3 10 5
3 10 5
3 10 5
3 10 5
3 10 5
3 10 5
3 10 5
3 10 5
3 10 5
3 10 5
3 10 5
3 10 5
3 10 5
3 10 5
3 10 5
3 10 5
3 10 5
3 10 5
3 10 5
3 10 5
3 10 5
3 10 5
3 10 5
3 10 5
3 10 5
3 10 5
3 10 5
3 10 5
3 10 5
3 10 5
3 10 5
3 10 5
3 10 5
3 10 5
3 10 5
3 10 5
3 10 5
3 10 5
3 10 5
3 10 5
3 10 5
3 10 5
3 10 5
3 10 5
3 10 5
3 10 5
3 10 5
3 10 5
3 10 5
3 10 5
3 10 5
3 10 5
3 10 5
3 10 5
3 10 5
3 10 5
3 10 5
3 10 5
3 10 5
3 10 5
3 10 5
3 10 5
3 10 5
3 10 5
3 10 5
3 10 5
3 10 5
3 10 5
3 10 5
3 10 5
3 10 5
3 10 5
3 10 5
3 10 5
3 10 5
3 10 5
3 10 5
3 10 5
3 10 5
3 10 5
3 10 5
3 10 5
3 10 5
3 10 5
3 10 5
3 10 5
3 10 5
3 10 5
3 10 5
3 10 5
3 10 5
3 10 5
3 10 5
3 10 5
3 10 5
3 10 5
3 10 5
3 10 5
3 10 5
3 10 5
3 10 5
3 10 5
21 58 29
21 58 29
21 58 29
21 57 28
21 57 28
21 57 28
21 57 28
21 56 28
21 56 28
21 56 28
21 56 28
20 55 27
20 55 27
20 55 27
20 55 27
20 55 27
20 54 27
20 54 27
20 54 27
20 54 27
20 53 26
20 53 26
20 53 26
19 53 26
19 52 26
19 52 26
19 52 26
19 52 26
19 52 26
19 51 25
19 51 25
19 51 25
19 51 25
19 51 25
19 50 25
18 50 25
18 50 25
18 50 25
18 50 25
18 49 24
18 49 24
18 49 24
18 49 24
18 49 24
18 48 24
18 48 24
18 48 24
18 48 24
18 48 24
17 47 23
17 47 23
17 47 23
17 47 23
17 47 23
17 46 23
17 46 23
17 46 23
17 46 23
17 46 23
17 46 23
17 45 22
17 45 22
17 45 22
17 45 22
16 45 22
16 45 22
16 44 22
16 44 22
16 44 22
16 44 22
16 44 22
16 44 22
16 43 21
16 43 21
16 43 21
16 43 21
16 43 21
16 44 22
16 44 22
16 44 22
16 44 22
16 44 22
16 44 22
16 45 22
16 45 22
17 45 22
17 45 22
17 45 22
17 45 22
17 46 23
17 46 23
17 46 23
17 46 23
17 46 23
17 46 23
17 47 23
17 47 23
17 47 23
17 47 23
17 47 23
17 47 23
18 48 24
18 48 24
18 48 24
18 48 24
18 48 24
18 48 24
18 49 24
18 49 24
18 49 24
18 49 24
18 49 24
18 50 25
18 50 25
18 50 25
18 50 25
19 50 25
19 50 25
19 51 25
19 51 25
19 51 25
19 51 25
19 51 25
19 52 26
19 52 26
19 52 26
19 52 26
19 52 26
19 53 26
19 53 26
20 53 26
20 53 26
20 53 26
20 54 27
20 54 27
20 54 27
20 54 27
0 0 0
0 0 0
0 0 0
0 0 0
0 0 0
0 0 0
0 0 0
0 0 0
0 0 0
0 0 0
0 0 0
0 0 0
0 0 0
0 0 0
0 0 0
0 0 0
0 0 0
0 0 0
0 0 0
3 10 5
3 10 5
3 10 5
3 10 5
3 10 5
3 10 5
3 10 5
3 10 5
3 10 5
3 10 5
3 10 5
3 10 5
3 10 5
3 10 5
3 10 5
3 10 5
3 10 5
3 10 5
3 10 5
3 10 5
3 10 5
3 10 5
3 10 5
3 10 5
3 10 5
3 10 5
3 10 5
3 10 5
3 10 5
3 10 5
3 10 5
3 10 5
3 10 5
3 10 5
3 10 5
3 10 5
3 10 5
3 10 5
3 10 5
3 10 5
3 10 5
3 10 5
3 10 5
3 10 5
3 10 5
3 10 5
3 10 5
3 10 5
3 10 5
3 10 5
3 10 5
3 10 5
3 10 5
3 10 5
3 10 5
3 10 5
3 10 5
3 10 5
3 10 5
3 10 5
3 10 5
3 10 5
3 10 5
3 10 5
3 10 5
3 10 5
3 10 5
3 10 5
3 10 5
3 10 5
3 10 5
3 10 5
3 10 5
3 10 5
3 10 5
3 10 5
3 10 5
3 10 5
3 10 5
3 10 5
3 10 5
3 10 5
3 10 5
3 10 5
3 10 5
3 10 5
3 10 5
3 10 5
3 10 5
3 10 5
3 10 5
3 10 5
3 10 5
3 10 5
3 10 5
3 10 5
3 10 5
3 10 5
3 10 5
3 10 5
3 10 5
3 10 5
3 10 5
3 10 5
3 10 5
3 10 5
3 10 5
3 10 5
3 10 5
3 10 5
3 10 5
3 10 5
3 10 5
3 10 5
3 10 5
3 10 5
3 10 5
3 10 5
3 10 5
3 10 5
3 10 5
3 10 5
3 10 5
3 10 5
3 10 5
3 10 5
3 10 5
3 10 5
3 10 5
3 10 5
3 10 5
3 10 5
3 10 5
22 59 29
22 59 29
22 59 29
22 58 29
22 58 29
21 58 29
21 58 29
21 58 29
21 57 28
21 57 28
21 57 28
21 57 28
21 57 28
21 56 28
21 56 28
21 56 28
21 56 28
21 56 28
20 55 27
20 55 27
20 55 27
20 55 27
20 55 27
20 54 27
20 54 27
20 54 27
20 54 27
20 54 27
20 53 26
20 53 26
20 53 26
19 53 26
19 52 26
19 52 26
19 52 26
19 52 26
19 52 26
19 52 26
19 51 25
19 51 25
19 51 25
19 51 25
19 51 25
19 50 25
18 50 25
18 50 25
18 50 25
18 50 25
18 49 24
18 49 24
18 49 24
18 49 24
18 49 24
18 48 24
18 48 24
18 48 24
18 48 24
18 48 24
18 48 24
17 47 23
17 47 23
17 47 23
17 47 23
17 47 23
17 47 23
17 46 23
17 46 23
17 46 23
17 46 23
17 46 23
17 46 23
17 45 22
17 45 22
17 45 22
17 45 22
16 45 22
16 45 22
16 44 22
16 44 22
16 44 22
16 44 22
16 44 22
16 44 22
16 43 21
16 43 21
16 43 21
16 43 21
16 43 21
16 44 22
16 44 22
16 44 22
16 44 22
16 44 22
16 44 22
16 45 22
16 45 22
16 45 22
17 45 22
17 45 22
17 45 22
17 45 22
17 46 23
17 46 23
17 46 23
17 46 23
17 46 23
17 46 23
17 46 23
17 47 23
17 47 23
17 47 23
17 47 23
17 47 23
17 47 23
18 48 24
18 48 24
18 48 24
18 48 24
18 48 24
18 48 24
18 49 24
18 49 24
18 49 24
18 49 24
18 49 24
18 49 24
18 50 25
18 50 25
18 50 25
18 50 25
19 50 25
19 50 25
19 51 25
19 51 25
19 51 25
19 51 25
19 51 25
19 51 25
19 52 26
19 52 26
19 52 26
19 52 26
19 52 26
19 53 26
19 53 26
20 53 26
20 53 26
20 53 26
20 53 26
0 0 0
0 0 0
0 0 0
0 0 0
0 0 0
0 0 0
0 0 0
0 0 0
0 0 0
0 0 0
0 0 0
0 0 0
0 0 0
0 0 0
0 0 0
0 0 0
0 0 0
3 10 5
3 10 5
3 10 5
3 10 5
3 10 5
3 10 5
3 10 5
3 10 5
3 10 5
3 10 5
3 10 5
3 10 5
3 10 5
3 10 5
3 10 5
3 10 5
3 10 5
3 10 5
3 10 5
3 10 5
3 10 5
3 10 5
3 10 5
3 10 5
3 10 5
3 10 5
3 10 5
3 10 5
3 10 5
3 10 5
3 10 5
3 10 5
3 10 5
3 10 5
3 10 5
3 10 5
3 10 5
3 10 5
3 10 5
3 10 5
3 10 5
3 10 5
3 10 5
3 10 5
3 10 5
3 10 5
3 10 5
3 10 5
3 10 5
3 10 5
3 10 5
3 10 5
3 10 5
3 10 5
3 10 5
3 10 5
3 10 5
3 10 5
3 10 5
3 10 5
3 10 5
3 10 5
3 10 5
3 10 5
3 10 5
3 10 5
3 10 5
3 10 5
3 10 5
3 10 5
3 10 5
3 10 5
3 10 5
3 10 5
3 10 5
3 10 5
3 10 5
3 10 5
3 10 5
3 10 5
3 10 5
3 10 5
3 10 5
3 10 5
3 10 5
3 10 5
3 10 5
3 10 5
3 10 5
3 10 5
3 10 5
3 10 5
3 10 5
3 10 5
3 10 5
3 10 5
3 10 5
3 10 5
3 10 5
3 10 5
3 10 5
3 10 5
3 10 5
3 10 5
3 10 5
3 10 5
3 10 5
3 10 5
3 10 5
3 10 5
3 10 5
3 10 5
3 10 5
3 10 5
3 10 5
3 10 5
3 10 5
3 10 5
3 10 5
3 10 5
3 10 5
3 10 5
3 10 5
3 10 5
22 59 29
22 59 29
22 59 29
22 59 29
22 59 29
22 58 29
22 58 29
21 58 29
21 58 29
21 58 29
21 57 28
21 57 28
21 57 28
21 57 28
21 57 28
21 57 28
21 56 28
21 56 28
21 56 28
21 56 28
21 56 28
21 56 28
20 55 27
20 55 27
20 55 27
20 55 27
20 55 27
20 54 27
20 54 27
20 54 27
20 54 27
20 54 27
20 54 27
20 53 26
20 53 26
20 53 26
20 53 26
19 53 26
19 52 26
19 52 26
19 52 26
19 52 26
19 52 26
19 52 26
19 51 25
19 51 25
19 51 25
19 51 25
19 51 25
19 51 25
19 50 25
19 50 25
18 50 25
18 50 25
18 50 25
18 50 25
18 49 24
18 49 24
18 49 24
18 49 24
18 49 24
18 48 24
18 48 24
18 48 24
18 48 24
18 48 24
18 48 24
18 48 24
17 47 23
17 47 23
17 47 23
17 47 23
17 47 23
17 47 23
17 46 23
17 46 23
17 46 23
17 46 23
17 46 23
17 46 23
17 45 22
17 45 22
17 45 22
17 45 22
17 45 22
16 45 22
16 45 22
16 44 22
16 44 22
16 44 22
16 44 22
16 44 22
16 44 22
16 43 21
16 43 21
16 43 21
16 43 21
16 43 21
16 44 22
16 44 22
16 44 22
16 44 22
16 44 22
16 44 22
16 44 22
16 45 22
16 45 22
16 45 22
17 45 22
17 45 22
17 45 22
17 45 22
17 45 22
17 46 23
17 46 23
17 46 23
17 46 23
17 46 23
17 46 23
17 46 23
17 47 23
17 47 23
17 47 23
17 47 23
17 47 23
17 47 23
18 48 24
18 48 24
18 48 24
18 48 24
18 48 24
18 48 24
18 48 24
18 49 24
18 49 24
18 49 24
18 49 24
18 49 24
18 49 24
18 49 24
18 50 25
0 0 0
0 0 0
0 0 0
0 0 0
0 0 0
0 0 0
0 0 0
0 0 0
0 0 0
0 0 0
19 51 25
19 52 26
19 52 26
19 52 26
19 52 26
19 52 26
19 52 26
19 52 26
19 53 26
0 0 0
0 0 0
0 0 0
0 0 0
0 0 0
0 0 0
0 0 0
0 0 0
0 0 0
0 0 0
0 0 0
0 0 0
0 0 0
0 0 0
0 0 0
20 55 27
3 10 5
3 10 5
3 10 5
3 10 5
3 10 5
3 10 5
3 10 5
3 10 5
3 10 5
3 10 5
3 10 5
3 10 5
3 10 5
3 10 5
3 10 5
3 10 5
3 10 5
3 10 5
3 10 5
3 10 5
3 10 5
3 10 5
3 10 5
3 10 5
3 10 5
3 10 5
3 10 5
3 10 5
3 10 5
3 10 5
3 10 5
3 10 5
3 10 5
3 10 5
3 10 5
3 10 5
3 10 5
3 10 5
3 10 5
3 10 5
3 10 5
3 10 5
3 10 5
3 10 5
3 10 5
3 10 5
3 10 5
3 10 5
3 10 5
3 10 5
3 10 5
3 10 5
3 10 5
3 10 5
3 10 5
3 10 5
3 10 5
3 10 5
3 10 5
3 10 5
3 10 5
3 10 5
3 10 5
3 10 5
3 10 5
3 10 5
3 10 5
3 10 5
3 10 5
3 10 5
3 10 5
3 10 5
3 10 5
3 10 5
3 10 5
3 10 5
3 10 5
3 10 5
3 10 5
3 10 5
3 10 5
3 10 5
3 10 5
3 10 5
3 10 5
3 10 5
3 10 5
3 10 5
3 10 5
3 10 5
3 10 5
3 10 5
3 10 5
3 10 5
3 10 5
3 10 5
3 10 5
3 10 5
3 10 5
3 10 5
3 10 5
3 10 5
3 10 5
3 10 5
3 10 5
3 10 5
3 10 5
3 10 5
3 10 5
3 10 5
3 10 5
3 10 5
3 10 5
22 59 29
22 59 29
22 59 29
22 58 29
22 58 29
22 58 29
21 58 29
21 58 29
21 58 29
21 58 29
21 58 29
21 57 28
21 57 28
21 57 28
21 57 28
21 57 28
21 57 28
21 57 28
21 56 28
21 56 28
21 56 28
21 56 28
21 56 28
21 56 28
21 56 28
20 55 27
20 55 27
20 55 27
20 55 27
20 55 27
20 55 27
20 54 27
20 54 27
20 54 27
20 54 27
20 54 27
20 54 27
20 54 27
20 53 26
20 53 26
20 53 26
20 53 26
19 53 26
19 53 26
19 52 26
19 52 26
19 52 26
19 52 26
19 52 26
19 52 26
19 51 25
19 51 25
19 51 25
19 51 25
19 51 25
19 51 25
19 51 25
19 50 25
19 50 25
18 50 25
18 50 25
18 50 25
18 50 25
18 49 24
18 49 24
18 49 24
18 49 24
18 49 24
18 49 24
18 49 24
18 48 24
18 48 24
18 48 24
18 48 24
18 48 24
18 48 24
17 47 23
17 47 23
17 47 23
17 47 23
17 47 23
17 47 23
17 47 23
17 46 23
17 46 23
17 46 23
17 46 23
17 46 23
17 46 23
17 46 23
17 45 22
17 45 22
17 45 22
17 45 22
17 45 22
16 45 22
16 45 22
16 44 22
16 44 22
16 44 22
16 44 22
16 44 22
16 44 22
16 44 22
16 43 21
16 43 21
16 43 21
16 43 21
16 43 21
16 43 21
16 44 22
16 44 22
16 44 22
16 44 22
16 44 22
16 44 22
16 44 22
16 44 22
16 45 22
16 45 22
17 45 22
17 45 22
17 45 22
17 45 22
17 45 22
17 45 22
17 46 23
17 46 23
17 46 23
17 46 23
17 46 23
17 46 23
17 46 23
17 47 23
17 47 23
17 47 23
17 47 23
17 47 23
17 47 23
17 47 23
17 47 23
18 48 24
18 48 24
18 48 24
18 48 24
18 48 24
18 48 24
18 48 24
0 0 0
0 0 0
0 0 0
0 0 0
0 0 0
0 0 0
0 0 0
0 0 0
0 0 0
0 0 0
0 0 0
0 0 0
0 0 0
0 0 0
0 0 0
0 0 0
0 0 0
0 0 0
19 51 25
19 51 25
19 51 25
19 52 26
19 52 26
19 52 26
0 0 0
0 0 0
0 0 0
0 0 0
0 0 0
0 0 0
0 0 0
0 0 0
0 0 0
0 0 0
0 0 0
0 0 0
20 54 27
20 54 27
20 54 27
20 54 27
20 54 27
3 10 5
3 10 5
3 10 5
3 10 5
3 10 5
3 10 5
3 10 5
3 10 5
3 10 5
3 10 5
3 10 5
3 10 5
3 10 5
3 10 5
3 10 5
3 10 5
3 10 5
3 10 5
3 10 5
3 10 5
3 10 5
3 10 5
3 10 5
3 10 5
3 10 5
3 10 5
3 10 5
3 10 5
3 10 5
3 10 5
3 10 5
3 10 5
3 10 5
3 10 5
3 10 5
3 10 5
3 10 5
3 10 5
3 10 5
3 10 5
3 10 5
3 10 5
3 10 5
3 10 5
3 10 5
3 10 5
3 10 5
3 10 5
3 10 5
3 10 5
3 10 5
3 10 5
3 10 5
3 10 5
3 10 5
3 10 5
3 10 5
3 10 5
3 10 5
3 10 5
3 10 5
3 10 5
3 10 5
3 10 5
3 10 5
3 10 5
3 10 5
3 10 5
3 10 5
3 10 5
3 10 5
3 10 5
3 10 5
3 10 5
3 10 5
3 10 5
3 10 5
3 10 5
3 10 5
3 10 5
3 10 5
3 10 5
3 10 5
3 10 5
3 10 5
3 10 5
3 10 5
3 10 5
3 10 5
3 10 5
3 10 5
3 10 5
3 10 5
3 10 5
3 10 5
3 10 5
3 10 5
3 10 5
3 10 5
3 10 5
3 10 5
21 58 29
21 58 29
21 58 29
21 58 29
21 58 29
21 57 28
21 57 28
21 57 28
21 57 28
21 57 28
21 57 28
21 57 28
21 57 28
21 57 28
21 57 28
21 56 28
21 56 28
21 56 28
21 56 28
21 56 28
21 56 28
21 56 28
21 56 28
21 56 28
20 55 27
20 55 27
20 55 27
20 55 27
20 55 27
20 55 27
20 55 27
20 55 27
20 54 27
20 54 27
20 54 27
20 54 27
20 54 27
20 54 27
20 54 27
20 54 27
20 53 26
20 53 26
20 53 26
20 53 26
20 53 26
19 53 26
19 53 26
19 52 26
19 52 26
19 52 26
19 52 26
19 52 26
19 52 26
19 52 26
19 51 25
19 51 25
19 51 25
19 51 25
19 51 25
19 51 25
19 51 25
19 51 25
19 50 25
19 50 25
18 50 25
18 50 25
18 50 25
18 50 25
18 50 25
18 49 24
18 49 24
18 49 24
18 49 24
18 49 24
18 49 24
18 49 24
18 48 24
18 48 24
18 48 24
18 48 24
18 48 24
18 48 24
18 48 24
17 47 23
17 47 23
17 47 23
17 47 23
17 47 23
17 47 23
17 47 23
17 47 23
17 46 23
17 46 23
17 46 23
17 46 23
17 46 23
17 46 23
17 46 23
17 45 22
17 45 22
17 45 22
17 45 22
17 45 22
16 45 22
16 45 22
16 45 22
16 44 22
16 44 22
16 44 22
16 44 22
16 44 22
16 44 22
16 44 22
16 44 22
16 43 21
16 43 21
16 43 21
16 43 21
16 43 21
16 43 21
16 43 21
16 44 22
16 44 22
16 44 22
16 44 22
16 44 22
16 44 22
16 44 22
16 44 22
16 44 22
16 45 22
16 45 22
16 45 22
17 45 22
17 45 22
17 45 22
17 45 22
17 45 22
17 46 23
17 46 23
17 46 23
17 46 23
17 46 23
17 46 23
17 46 23
17 46 23
17 46 23
17 47 23
17 47 23
17 47 23
17 47 23
17 47 23
17 47 23
17 47 23
17 47 23
18 48 24
0 0 0
0 0 0
0 0 0
0 0 0
0 0 0
0 0 0
0 0 0
0 0 0
0 0 0
0 0 0
0 0 0
0 0 0
0 0 0
0 0 0
0 0 0
0 0 0
0 0 0
0 0 0
0 0 0
0 0 0
0 0 0
0 0 0
19 50 25
19 51 25
19 51 25
19 51 25
19 51 25
19 51 25
19 51 25
19 51 25
0 0 0
0 0 0
0 0 0
0 0 0
0 0 0
19 52 26
19 52 26
19 52 26
19 52 26
19 52 26
19 53 26
19 53 26
19 53 26
20 53 26
20 53 26
20 53 26
3 10 5
3 10 5
3 10 5
3 10 5
3 10 5
3 10 5
3 10 5
3 10 5
3 10 5
3 10 5
3 10 5
3 10 5
3 10 5
3 10 5
3 10 5
3 10 5
3 10 5
3 10 5
3 10 5
3 10 5
3 10 5
3 10 5
3 10 5
3 10 5
3 10 5
3 10 5
3 10 5
3 10 5
3 10 5
3 10 5
3 10 5
3 10 5
3 10 5
3 10 5
3 10 5
3 10 5
3 10 5
3 10 5
3 10 5
3 10 5
3 10 5
3 10 5
3 10 5
3 10 5
3 10 5
3 10 5
3 10 5
3 10 5
3 10 5
3 10 5
3 10 5
3 10 5
3 10 5
3 10 5
3 10 5
3 10 5
3 10 5
3 10 5
3 10 5
3 10 5
3 10 5
3 10 5
3 10 5
3 10 5
3 10 5
3 10 5
3 10 5
3 10 5
3 10 5
3 10 5
3 10 5
3 10 5
3 10 5
3 10 5
3 10 5
3 10 5
3 10 5
3 10 5
3 10 5
3 10 5
3 10 5
3 10 5
3 10 5
3 10 5
3 10 5
3 10 5
3 10 5
21 57 28
21 57 28
21 57 28
21 57 28
21 57 28
21 56 28
21 56 28
21 56 28
21 56 28
21 56 28
21 56 28
21 56 28
21 56 28
21 56 28
21 56 28
21 56 28
21 56 28
21 56 28
21 56 28
20 55 27
20 55 27
20 55 27
20 55 27
20 55 27
20 55 27
20 55 27
20 55 27
20 55 27
20 55 27
20 55 27
20 55 27
20 54 27
20 54 27
20 54 27
20 54 27
20 54 27
20 54 27
20 54 27
20 54 27
20 54 27
20 53 26
20 53 26
20 53 26
20 53 26
20 53 26
20 53 26
19 53 26
19 53 26
19 53 26
19 52 26
19 52 26
19 52 26
19 52 26
19 52 26
19 52 26
19 52 26
19 52 26
19 52 26
19 51 25
19 51 25
19 51 25
19 51 25
19 51 25
19 51 25
19 51 25
19 51 25
19 50 25
19 50 25
19 50 25
18 50 25
18 50 25
18 50 25
18 50 25
18 50 25
18 49 24
18 49 24
18 49 24
18 49 24
18 49 24
18 49 24
18 49 24
18 49 24
18 48 24
18 48 24
18 48 24
18 48 24
18 48 24
18 48 24
18 48 24
18 48 24
17 47 23
17 47 23
17 47 23
17 47 23
17 47 23
17 47 23
17 47 23
17 47 23
17 47 23
17 46 23
17 46 23
17 46 23
17 46 23
17 46 23
17 46 23
17 46 23
17 46 23
17 45 22
17 45 22
17 45 22
17 45 22
17 45 22
16 45 22
16 45 22
16 45 22
16 44 22
16 44 22
16 44 22
16 44 22
16 44 22
16 44 22
16 44 22
16 44 22
16 44 22
16 43 21
16 43 21
16 43 21
16 43 21
16 43 21
16 43 21
16 43 21
16 43 21
16 43 21
16 43 21
16 44 22
16 44 22
16 44 22
16 44 22
16 44 22
16 44 22
16 44 22
16 44 22
16 44 22
16 44 22
16 45 22
16 45 22
16 45 22
17 45 22
17 45 22
17 45 22
17 45 22
17 45 22
17 45 22
17 46 23
17 46 23
17 46 23
17 46 23
17 46 23
17 46 23
17 46 23
17 46 23
17 46 23
17 47 23
17 47 23
17 47 23
0 0 0
0 0 0
0 0 0
0 0 0
0 0 0
0 0 0
0 0 0
0 0 0
0 0 0
0 0 0
0 0 0
0 0 0
0 0 0
0 0 0
0 0 0
0 0 0
0 0 0
0 0 0
0 0 0
0 0 0
0 0 0
0 0 0
0 0 0
0 0 0
0 0 0
0 0 0
18 50 25
18 50 25
18 50 25
18 50 25
19 50 25
19 50 25
19 50 25
19 51 25
19 51 25
19 51 25
19 51 25
19 51 25
19 51 25
19 51 25
19 51 25
19 51 25
19 51 25
19 52 26
19 52 26
19 52 26
19 52 26
19 52 26
19 52 26
19 52 26
3 10 5
3 10 5
3 10 5
3 10 5
3 10 5
3 10 5
3 10 5
3 10 5
3 10 5
3 10 5
3 10 5
3 10 5
3 10 5
3 10 5
3 10 5
3 10 5
3 10 5
3 10 5
3 10 5
3 10 5
3 10 5
3 10 5
3 10 5
3 10 5
3 10 5
3 10 5
3 10 5
3 10 5
3 10 5
3 10 5
3 10 5
3 10 5
3 10 5
3 10 5
3 10 5
3 10 5
3 10 5
3 10 5
3 10 5
3 10 5
3 10 5
3 10 5
3 10 5
3 10 5
3 10 5
3 10 5
3 10 5
3 10 5
3 10 5
3 10 5
3 10 5
3 10 5
3 10 5
3 10 5
3 10 5
3 10 5
3 10 5
3 10 5
3 10 5
3 10 5
3 10 5
3 10 5
3 10 5
3 10 5
3 10 5
3 10 5
3 10 5
3 10 5
3 10 5
3 10 5
3 10 5
3 10 5
3 10 5
3 10 5
3 10 5
20 55 27
20 55 27
20 55 27
20 55 27
20 55 27
20 55 27
20 55 27
20 55 27
20 55 27
20 55 27
20 55 27
20 55 27
20 55 27
20 55 27
20 55 27
20 55 27
20 55 27
20 55 27
20 55 27
20 55 27
20 55 27
20 54 27
20 54 27
20 54 27
20 54 27
20 54 27
20 54 27
20 54 27
20 54 27
20 54 27
20 54 27
20 54 27
20 54 27
20 54 27
20 54 27
20 54 27
20 53 26
20 53 26
20 53 26
20 53 26
20 53 26
20 53 26
20 53 26
20 53 26
19 53 26
19 53 26
19 53 26
19 53 26
19 52 26
19 52 26
19 52 26
19 52 26
19 52 26
19 52 26
19 52 26
19 52 26
19 52 26
19 52 26
19 51 25
19 51 25
19 51 25
19 51 25
19 51 25
19 51 25
19 51 25
19 51 25
19 51 25
19 51 25
19 50 25
19 50 25
19 50 25
18 50 25
18 50 25
18 50 25
18 50 25
18 50 25
18 50 25
18 50 25
18 49 24
18 49 24
18 49 24
18 49 24
18 49 24
18 49 24
18 49 24
18 49 24
18 49 24
18 48 24
18 48 24
18 48 24
18 48 24
18 48 24
18 48 24
18 48 24
18 48 24
18 48 24
17 47 23
17 47 23
17 47 23
17 47 23
17 47 23
17 47 23
17 47 23
17 47 23
17 47 23
17 46 23
17 46 23
17 46 23
17 46 23
17 46 23
17 46 23
17 46 23
17 46 23
17 46 23
17 45 22
17 45 22
17 45 22
17 45 22
17 45 22
17 45 22
16 45 22
16 45 22
16 45 22
16 44 22
16 44 22
16 44 22
16 44 22
16 44 22
16 44 22
16 44 22
16 44 22
16 44 22
16 43 21
16 43 21
16 43 21
16 42 21
16 42 21
16 43 21
16 43 21
16 43 21
16 43 21
16 43 21
16 43 21
16 43 21
16 43 21
16 43 21
16 43 21
16 44 22
16 44 22
16 44 22
16 44 22
16 44 22
16 44 22
16 44 22
16 44 22
16 44 22
16 44 22
16 45 22
16 45 22
16 45 22
17 45 22
17 45 22
17 45 22
17 45 22
17 45 22
17 45 22
17 45 22
17 46 23
17 46 23
17 46 23
17 46 23
17 46 23
17 46 23
0 0 0
0 0 0
0 0 0
0 0 0
0 0 0
0 0 0
0 0 0
0 0 0
0 0 0
0 0 0
0 0 0
0 0 0
0 0 0
0 0 0
0 0 0
0 0 0
0 0 0
0 0 0
0 0 0
0 0 0
0 0 0
0 0 0
0 0 0
0 0 0
0 0 0
0 0 0
0 0 0
0 0 0
0 0 0
0 0 0
18 49 24
18 49 24
18 49 24
18 49 24
18 50 25
18 50 25
18 50 25
18 50 25
18 50 25
18 50 25
18 50 25
18 50 25
19 50 25
19 50 25
19 50 25
19 50 25
19 51 25
19 51 25
19 51 25
19 51 25
19 51 25
19 51 25
19 51 25
19 51 25
3 10 5
3 10 5
3 10 5
3 10 5
3 10 5
3 10 5
3 10 5
3 10 5
3 10 5
3 10 5
3 10 5
3 10 5
3 10 5
3 10 5
3 10 5
3 10 5
3 10 5
3 10 5
3 10 5
3 10 5
3 10 5
3 10 5
3 10 5
3 10 5
3 10 5
3 10 5
3 10 5
3 10 5
3 10 5
3 10 5
3 10 5
3 10 5
3 10 5
3 10 5
3 10 5
3 10 5
3 10 5
3 10 5
3 10 5
3 10 5
3 10 5
3 10 5
3 10 5
3 10 5
3 10 5
3 10 5
3 10 5
3 10 5
3 10 5
3 10 5
3 10 5
3 10 5
3 10 5
3 10 5
3 10 5
3 10 5
3 10 5
3 10 5
3 10 5
3 10 5
3 10 5
3 10 5
3 10 5
20 54 27
20 54 27
20 54 27
20 54 27
20 54 27
20 54 27
20 54 27
20 54 27
20 54 27
20 54 27
20 54 27
20 54 27
20 54 27
20 54 27
20 54 27
20 54 27
20 54 27
20 54 27
20 54 27
20 54 27
20 53 26
20 53 26
20 53 26
20 53 26
20 53 26
20 53 26
20 53 26
20 53 26
20 53 26
20 53 26
20 53 26
20 53 26
20 53 26
20 53 26
20 53 26
19 53 26
19 53 26
19 53 26
19 53 26
19 53 26
19 53 26
19 52 26
19 52 26
19 52 26
19 52 26
19 52 26
19 52 26
19 52 26
19 52 26
19 52 26
19 52 26
19 52 26
19 52 26
19 52 26
19 52 26
19 52 26
19 51 25
19 51 25
19 51 25
19 51 25
19 51 25
19 51 25
19 51 25
19 51 25
19 51 25
19 51 25
19 51 25
19 51 25
19 50 25
19 50 25
19 50 25
19 50 25
18 50 25
18 50 25
18 50 25
18 50 25
18 50 25
18 50 25
18 50 25
18 49 24
18 49 24
18 49 24
18 49 24
18 49 24
18 49 24
18 49 24
18 49 24
18 49 24
18 49 24
18 49 24
18 48 24
18 48 24
18 48 24
18 48 24
18 48 24
18 48 24
18 48 24
18 48 24
18 48 24
18 48 24
17 47 23
17 47 23
17 47 23
17 47 23
17 47 23
17 47 23
17 47 23
17 47 23
17 47 23
17 47 23
17 46 23
17 46 23
17 46 23
17 46 23
17 46 23
17 46 23
17 46 23
17 46 23
17 46 23
17 46 23
17 45 22
17 45 22
17 45 22
17 45 22
17 45 22
17 45 22
16 45 22
16 45 22
16 45 22
16 44 22
16 44 22
16 44 22
16 44 22
16 44 22
16 44 22
16 44 22
16 44 22
16 44 22
16 44 22
16 43 21
16 43 21
16 43 21
16 43 21
16 43 21
16 43 21
16 42 21
16 42 21
16 42 21
16 42 21
16 43 21
16 43 21
16 43 21
16 43 21
16 43 21
16 43 21
16 43 21
16 43 21
16 43 21
16 43 21
16 43 21
16 44 22
16 44 22
16 44 22
16 44 22
16 44 22
16 44 22
16 44 22
16 44 22
16 44 22
16 44 22
16 44 22
16 45 22
16 45 22
16 45 22
16 45 22
17 45 22
17 45 22
17 45 22
17 45 22
17 45 22
17 45 22
17 45 22
0 0 0
0 0 0
0 0 0
0 0 0
0 0 0
0 0 0
0 0 0
0 0 0
0 0 0
0 0 0
0 0 0
0 0 0
0 0 0
0 0 0
0 0 0
0 0 0
0 0 0
0 0 0
0 0 0
0 0 0
0 0 0
0 0 0
0 0 0
0 0 0
0 0 0
0 0 0
0 0 0
0 0 0
0 0 0
0 0 0
0 0 0
0 0 0
18 48 24
18 48 24
18 49 24
18 49 24
18 49 24
18 49 24
18 49 24
18 49 24
18 49 24
18 49 24
18 49 24
18 49 24
18 49 24
18 49 24
18 50 25
18 50 25
18 50 25
18 50 25
18 50 25
18 50 25
18 50 25
18 50 25
18 50 25
19 50 25
19 50 25
3 10 5
3 10 5
3 10 5
3 10 5
3 10 5
3 10 5
3 10 5
3 10 5
3 10 5
3 10 5
3 10 5
3 10 5
3 10 5
3 10 5
3 10 5
3 10 5
3 10 5
3 10 5
3 10 5
3 10 5
3 10 5
3 10 5
3 10 5
3 10 5
3 10 5
3 10 5
3 10 5
3 10 5
3 10 5
3 10 5
3 10 5
3 10 5
3 10 5
3 10 5
3 10 5
3 10 5
3 10 5
3 10 5
3 10 5
3 10 5
3 10 5
3 10 5
3 10 5
3 10 5
3 10 5
3 10 5
3 10 5
3 10 5
3 10 5
3 10 5
19 52 26
19 52 26
19 52 26
19 52 26
19 52 26
19 52 26
19 52 26
19 52 26
19 52 26
19 52 26
19 52 26
19 52 26
19 52 26
19 52 26
19 52 26
19 52 26
19 52 26
19 52 26
19 52 26
19 52 26
19 52 26
19 52 26
19 52 26
19 52 26
19 52 26
19 52 26
19 52 26
19 52 26
19 52 26
19 52 26
19 52 26
19 52 26
19 52 26
19 52 26
19 52 26
19 52 26
19 52 26
19 52 26
19 52 26
19 52 26
19 52 26
19 52 26
19 52 26
19 52 26
19 52 26
19 52 26
19 52 26
19 52 26
19 51 25
19 51 25
19 51 25
19 51 25
19 51 25
19 51 25
19 51 25
19 51 25
19 51 25
19 51 25
19 51 25
19 51 25
19 51 25
19 51 25
19 51 25
19 51 25
19 51 25
19 50 25
19 50 25
19 50 25
19 50 25
19 50 25
18 50 25
18 50 25
18 50 25
18 50 25
18 50 25
18 50 25
18 50 25
18 50 25
18 50 25
18 49 24
18 49 24
18 49 24
18 49 24
18 49 24
18 49 24
18 49 24
18 49 24
18 49 24
18 49 24
18 49 24
18 49 24
18 49 24
18 48 24
18 48 24
18 48 24
18 48 24
18 48 24
18 48 24
18 48 24
18 48 24
18 48 24
18 48 24
18 48 24
18 48 24
17 47 23
17 47 23
17 47 23
17 47 23
17 47 23
17 47 23
17 47 23
17 47 23
17 47 23
17 47 23
17 47 23
17 46 23
17 46 23
17 46 23
17 46 23
17 46 23
17 46 23
17 46 23
17 46 23
17 46 23
17 46 23
17 46 23
17 45 22
17 45 22
17 45 22
17 45 22
17 45 22
17 45 22
17 45 22
16 45 22
16 45 22
16 45 22
16 45 22
16 44 22
16 44 22
16 44 22
16 44 22
16 44 22
16 44 22
16 44 22
16 44 22
16 44 22
16 44 22
16 43 21
16 43 21
16 43 21
16 43 21
16 43 21
16 43 21
16 43 21
16 43 21
16 43 21
15 42 21
15 42 21
15 42 21
16 42 21
16 42 21
16 42 21
16 42 21
16 43 21
16 43 21
16 43 21
16 43 21
16 43 21
16 43 21
16 43 21
16 43 21
16 43 21
16 43 21
16 43 21
16 43 21
16 44 22
16 44 22
16 44 22
16 44 22
16 44 22
16 44 22
16 44 22
16 44 22
16 44 22
16 44 22
16 44 22
16 44 22
16 45 22
16 45 22
16 45 22
16 45 22
17 45 22
0 0 0
0 0 0
0 0 0
0 0 0
0 0 0
0 0 0
0 0 0
0 0 0
0 0 0
0 0 0
0 0 0
0 0 0
0 0 0
0 0 0
0 0 0
0 0 0
0 0 0
0 0 0
0 0 0
0 0 0
0 0 0
0 0 0
0 0 0
0 0 0
0 0 0
0 0 0
0 0 0
0 0 0
0 0 0
0 0 0
0 0 0
0 0 0
0 0 0
0 0 0
18 48 24
18 48 24
18 48 24
18 48 24
18 48 24
18 48 24
18 48 24
18 48 24
18 48 24
18 48 24
18 48 24
18 48 24
18 49 24
18 49 24
18 49 24
18 49 24
18 49 24
18 49 24
18 49 24
18 49 24
18 49 24
18 49 24
18 49 24
18 49 24
18 49 24
18 49 24
3 10 5
3 10 5
3 10 5
3 10 5
3 10 5
3 10 5
3 10 5
3 10 5
3 10 5
3 10 5
3 10 5
3 10 5
3 10 5
3 10 5
3 10 5
3 10 5
3 10 5
3 10 5
3 10 5
3 10 5
3 10 5
3 10 5
3 10 5
3 10 5
3 10 5
3 10 5
3 10 5
3 10 5
3 10 5
3 10 5
3 10 5
3 10 5
3 10 5
3 10 5
3 10 5
3 10 5
3 10 5
3 10 5
19 51 25
19 51 25
19 51 25
19 51 25
19 51 25
19 51 25
19 51 25
19 51 25
19 51 25
19 51 25
19 51 25
19 51 25
19 51 25
19 51 25
19 51 25
19 51 25
19 51 25
19 51 25
19 51 25
19 51 25
19 51 25
19 51 25
19 51 25
19 51 25
19 51 25
19 51 25
19 51 25
19 51 25
19 51 25
19 51 25
19 51 25
19 51 25
19 51 25
19 51 25
19 51 25
19 51 25
19 51 25
19 51 25
19 51 25
19 51 25
19 51 25
19 51 25
19 51 25
19 51 25
19 51 25
19 51 25
19 51 25
19 51 25
19 51 25
19 51 25
19 51 25
19 51 25
19 51 25
19 51 25
19 50 25
19 50 25
19 50 25
19 50 25
19 50 25
19 50 25
19 50 25
19 50 25
18 50 25
18 50 25
18 50 25
18 50 25
18 50 25
18 50 25
18 50 25
18 50 25
18 50 25
18 50 25
18 50 25
18 50 25
18 50 25
18 49 24
18 49 24
18 49 24
18 49 24
18 49 24
18 49 24
18 49 24
18 49 24
18 49 24
18 49 24
18 49 24
18 49 24
18 49 24
18 49 24
18 49 24
18 49 24
18 48 24
18 48 24
18 48 24
18 48 24
18 48 24
18 48 24
18 48 24
18 48 24
18 48 24
18 48 24
18 48 24
18 48 24
18 48 24
18 48 24
17 47 23
17 47 23
17 47 23
17 47 23
17 47 23
17 47 23
17 47 23
17 47 23
17 47 23
17 47 23
17 47 23
17 47 23
17 47 23
17 46 23
17 46 23
17 46 23
17 46 23
17 46 23
17 46 23
17 46 23
17 46 23
17 46 23
17 46 23
17 46 23
17 46 23
17 45 22
17 45 22
17 45 22
17 45 22
17 45 22
17 45 22
17 45 22
17 45 22
16 45 22
16 45 22
16 45 22
16 45 22
16 44 22
16 44 22
16 44 22
16 44 22
16 44 22
16 44 22
16 44 22
16 44 22
16 44 22
16 44 22
16 44 22
16 44 22
16 43 21
16 43 21
16 43 21
16 43 21
16 43 21
16 43 21
16 43 21
16 43 21
16 43 21
16 43 21
16 43 21
16 43 21
15 42 21
15 42 21
15 42 21
15 42 21
15 42 21
15 42 21
16 42 21
16 42 21
16 42 21
16 42 21
16 42 21
16 43 21
16 43 21
16 43 21
16 43 21
16 43 21
16 43 21
16 43 21
16 43 21
16 43 21
16 43 21
16 43 21
16 43 21
16 43 21
16 44 22
16 44 22
16 44 22
16 44 22
16 44 22
16 44 22
16 44 22
16 44 22
16 44 22
16 44 22
16 44 22
0 0 0
0 0 0
0 0 0
0 0 0
0 0 0
0 0 0
0 0 0
0 0 0
0 0 0
0 0 0
0 0 0
0 0 0
0 0 0
0 0 0
0 0 0
0 0 0
0 0 0
0 0 0
0 0 0
0 0 0
0 0 0
0 0 0
0 0 0
0 0 0
0 0 0
0 0 0
0 0 0
0 0 0
0 0 0
0 0 0
0 0 0
0 0 0
0 0 0
0 0 0
0 0 0
0 0 0
17 47 23
17 47 23
17 47 23
17 47 23
17 47 23
17 47 23
17 47 23
17 47 23
18 48 24
18 48 24
18 48 24
18 48 24
18 48 24
18 48 24
18 48 24
18 48 24
18 48 24
18 48 24
18 48 24
18 48 24
18 48 24
18 48 24
18 48 24
18 48 24
18 48 24
18 48 24
18 49 24
3 10 5
3 10 5
3 10 5
3 10 5
3 10 5
3 10 5
3 10 5
3 10 5
3 10 5
3 10 5
3 10 5
3 10 5
3 10 5
3 10 5
3 10 5
3 10 5
3 10 5
3 10 5
3 10 5
3 10 5
3 10 5
3 10 5
3 10 5
3 10 5
3 10 5
18 50 25
18 50 25
18 50 25
18 50 25
18 50 25
18 50 25
18 50 25
18 50 25
18 50 25
18 50 25
18 50 25
18 50 25
18 50 25
18 50 25
18 50 25
18 50 25
18 50 25
18 50 25
18 50 25
18 50 25
18 50 25
18 50 25
18 50 25
18 50 25
18 50 25
18 50 25
18 50 25
18 50 25
18 50 25
18 50 25
18 50 25
18 50 25
18 50 25
18 50 25
18 50 25
18 50 25
18 50 25
18 50 25
18 50 25
18 50 25
18 50 25
18 50 25
18 50 25
18 50 25
18 50 25
18 50 25
18 50 25
18 50 25
18 50 25
18 50 25
18 50 25
18 50 25
18 50 25
18 50 25
18 50 25
18 50 25
18 50 25
18 50 25
18 50 25
18 50 25
18 50 25
18 50 25
18 50 25
18 50 25
18 49 24
18 49 24
18 49 24
18 49 24
18 49 24
18 49 24
18 49 24
18 49 24
18 49 24
18 49 24
18 49 24
18 49 24
18 49 24
18 49 24
18 49 24
18 49 24
18 49 24
18 49 24
18 49 24
18 49 24
18 49 24
18 49 24
18 49 24
18 48 24
18 48 24
18 48 24
18 48 24
18 48 24
18 48 24
18 48 24
18 48 24
18 48 24
18 48 24
18 48 24
18 48 24
18 48 24
18 48 24
18 48 24
18 48 24
18 48 24
18 48 24
17 47 23
17 47 23
17 47 23
17 47 23
17 47 23
17 47 23
17 47 23
17 47 23
17 47 23
17 47 23
17 47 23
17 47 23
17 47 23
17 47 23
17 47 23
17 46 23
17 46 23
17 46 23
17 46 23
17 46 23
17 46 23
17 46 23
17 46 23
17 46 23
17 46 23
17 46 23
17 46 23
17 46 23
17 46 23
17 45 22
17 45 22
17 45 22
17 45 22
17 45 22
17 45 22
17 45 22
17 45 22
17 45 22
16 45 22
16 45 22
16 45 22
16 45 22
16 44 22
16 44 22
16 44 22
16 44 22
16 44 22
16 44 22
16 44 22
16 44 22
16 44 22
16 44 22
16 44 22
16 44 22
16 44 22
16 43 21
16 43 21
16 43 21
16 43 21
16 43 21
16 43 21
16 43 21
16 43 21
16 43 21
16 43 21
16 43 21
16 43 21
16 43 21
16 42 21
16 42 21
16 42 21
16 42 21
15 41 20
15 42 21
15 42 21
15 42 21
15 42 21
15 42 21
15 42 21
15 42 21
15 42 21
15 42 21
16 42 21
16 42 21
16 42 21
16 42 21
16 42 21
16 43 21
16 43 21
16 43 21
16 43 21
16 43 21
16 43 21
16 43 21
16 43 21
16 43 21
16 43 21
16 43 21
16 43 21
16 43 21
16 43 21
16 44 22
16 44 22
16 44 22
16 44 22
16 44 22
0 0 0
0 0 0
0 0 0
0 0 0
0 0 0
0 0 0
0 0 0
0 0 0
0 0 0
0 0 0
0 0 0
0 0 0
0 0 0
0 0 0
0 0 0
0 0 0
0 0 0
0 0 0
0 0 0
0 0 0
0 0 0
0 0 0
0 0 0
0 0 0
0 0 0
0 0 0
0 0 0
0 0 0
0 0 0
0 0 0
0 0 0
0 0 0
0 0 0
0 0 0
0 0 0
0 0 0
0 0 0
17 46 23
17 46 23
17 46 23
17 46 23
17 47 23
17 47 23
17 47 23
17 47 23
17 47 23
17 47 23
17 47 23
17 47 23
17 47 23
17 47 23
17 47 23
17 47 23
17 47 23
17 47 23
17 47 23
17 47 23
17 47 23
17 47 23
18 48 24
18 48 24
18 48 24
18 48 24
18 48 24
18 48 24
18 48 24
3 10 5
3 10 5
3 10 5
3 10 5
3 10 5
3 10 5
3 10 5
3 10 5
3 10 5
3 10 5
3 10 5
3 10 5
3 10 5
18 48 24
18 48 24
18 48 24
18 48 24
18 48 24
18 48 24
18 49 24
18 49 24
18 49 24
18 49 24
18 49 24
18 49 24
18 49 24
18 49 24
18 49 24
18 49 24
18 49 24
18 49 24
18 49 24
18 49 24
18 49 24
18 49 24
18 49 24
18 49 24
18 49 24
18 49 24
18 49 24
18 49 24
18 49 24
18 49 24
18 49 24
18 49 24
18 49 24
18 49 24
18 49 24
18 49 24
18 49 24
18 49 24
18 49 24
18 49 24
18 49 24
18 49 24
18 49 24
18 49 24
18 49 24
18 49 24
18 49 24
18 49 24
18 49 24
18 49 24
18 49 24
18 49 24
18 49 24
18 49 24
18 49 24
18 49 24
18 49 24
18 49 24
18 49 24
18 49 24
18 49 24
18 49 24
18 49 24
18 49 24
18 49 24
18 49 24
18 49 24
18 49 24
18 49 24
18 49 24
18 49 24
18 49 24
18 49 24
18 49 24
18 49 24
18 48 24
18 48 24
18 48 24
18 48 24
18 48 24
18 48 24
18 48 24
18 48 24
18 48 24
18 48 24
18 48 24
18 48 24
18 48 24
18 48 24
18 48 24
18 48 24
18 48 24
18 48 24
18 48 24
18 48 24
18 48 24
18 48 24
18 48 24
18 48 24
18 48 24
18 48 24
17 47 23
17 47 23
17 47 23
17 47 23
17 47 23
17 47 23
17 47 23
17 47 23
17 47 23
17 47 23
17 47 23
17 47 23
17 47 23
17 47 23
17 47 23
17 47 23
17 47 23
17 47 23
17 47 23
17 46 23
17 46 23
17 46 23
17 46 23
17 46 23
17 46 23
17 46 23
17 46 23
17 46 23
17 46 23
17 46 23
17 46 23
17 46 23
17 46 23
17 46 23
17 46 23
17 45 22
17 45 22
17 45 22
17 45 22
17 45 22
17 45 22
17 45 22
17 45 22
17 45 22
17 45 22
16 45 22
16 45 22
16 45 22
16 45 22
16 45 22
16 44 22
16 44 22
16 44 22
16 44 22
16 44 22
16 44 22
16 44 22
16 44 22
16 44 22
16 44 22
16 44 22
16 44 22
16 44 22
16 44 22
16 43 21
16 43 21
16 43 21
16 43 21
16 43 21
16 43 21
16 43 21
16 43 21
16 43 21
16 43 21
16 43 21
16 43 21
16 43 21
16 43 21
16 42 21
16 42 21
16 42 21
16 42 21
16 42 21
15 42 21
15 42 21
15 42 21
15 41 20
15 41 20
15 41 20
15 41 20
15 41 20
15 42 21
15 42 21
15 42 21
15 42 21
15 42 21
15 42 21
15 42 21
15 42 21
15 42 21
15 42 21
16 42 21
16 42 21
16 42 21
16 42 21
16 42 21
16 43 21
16 43 21
16 43 21
16 43 21
16 43 21
16 43 21
16 43 21
16 43 21
16 43 21
16 43 21
16 43 21
16 43 21
16 43 21
0 0 0
0 0 0
0 0 0
0 0 0
0 0 0
0 0 0
0 0 0
0 0 0
0 0 0
0 0 0
0 0 0
0 0 0
0 0 0
0 0 0
0 0 0
0 0 0
0 0 0
0 0 0
0 0 0
0 0 0
0 0 0
0 0 0
0 0 0
0 0 0
0 0 0
0 0 0
0 0 0
0 0 0
0 0 0
0 0 0
0 0 0
0 0 0
0 0 0
0 0 0
0 0 0
0 0 0
0 0 0
0 0 0
0 0 0
17 46 23
17 46 23
17 46 23
17 46 23
17 46 23
17 46 23
17 46 23
17 46 23
17 46 23
17 46 23
17 46 23
17 46 23
17 46 23
17 46 23
17 46 23
17 46 23
17 47 23
17 47 23
17 47 23
17 47 23
17 47 23
17 47 23
17 47 23
17 47 23
17 47 23
17 47 23
17 47 23
17 47 23
17 47 23
17 47 23
17 47 23
17 47 23
17 47 23
17 47 23
17 47 23
17 47 23
17 47 23
17 47 23
17 47 23
17 47 23
17 47 23
17 47 23
17 47 23
18 48 24
18 48 24
18 48 24
18 48 24
18 48 24
18 48 24
18 48 24
18 48 24
18 48 24
18 48 24
18 48 24
18 48 24
18 48 24
18 48 24
18 48 24
18 48 24
18 48 24
18 48 24
18 48 24
18 48 24
18 48 24
18 48 24
18 48 24
18 48 24
18 48 24
18 48 24
18 48 24
18 48 24
18 48 24
18 48 24
18 48 24
18 48 24
18 48 24
18 48 24
18 48 24
18 48 24
18 48 24
18 48 24
18 48 24
18 48 24
18 48 24
18 48 24
18 48 24
18 48 24
18 48 24
18 48 24
18 48 24
18 48 24
18 48 24
18 48 24
18 48 24
18 48 24
18 48 24
18 48 24
18 48 24
18 48 24
18 48 24
18 48 24
18 48 24
18 48 24
18 48 24
18 48 24
18 48 24
18 48 24
18 48 24
18 48 24
18 48 24
18 48 24
18 48 24
18 48 24
18 48 24
18 48 24
18 48 24
18 48 24
18 48 24
18 48 24
18 48 24
18 48 24
17 47 23
17 47 23
17 47 23
17 47 23
17 47 23
17 47 23
17 47 23
17 47 23
17 47 23
17 47 23
17 47 23
17 47 23
17 47 23
17 47 23
17 47 23
17 47 23
17 47 23
17 47 23
17 47 23
17 47 23
17 47 23
17 47 23
17 47 23
17 47 23
17 47 23
17 47 23
17 46 23
17 46 23
17 46 23
17 46 23
17 46 23
17 46 23
17 46 23
17 46 23
17 46 23
17 46 23
17 46 23
17 46 23
17 46 23
17 46 23
17 46 23
17 46 23
17 46 23
17 46 23
17 46 23
17 46 23
17 45 22
17 45 22
17 45 22
17 45 22
17 45 22
17 45 22
17 45 22
17 45 22
17 45 22
17 45 22
17 45 22
17 45 22
16 45 22
16 45 22
16 45 22
16 45 22
16 45 22
16 44 22
16 44 22
16 44 22
16 44 22
16 44 22
16 44 22
16 44 22
16 44 22
16 44 22
16 44 22
16 44 22
16 44 22
16 44 22
16 44 22
16 44 22
16 44 22
16 43 21
16 43 21
16 43 21
16 43 21
16 43 21
16 43 21
16 43 21
16 43 21
16 43 21
16 43 21
16 43 21
16 43 21
16 43 21
16 43 21
16 43 21
16 43 21
16 42 21
16 42 21
16 42 21
16 42 21
16 42 21
15 42 21
15 42 21
15 42 21
15 42 21
15 42 21
15 42 21
15 42 21
15 41 20
15 41 20
15 41 20
15 41 20
15 41 20
15 41 20
15 41 20
15 41 20
15 41 20
15 42 21
15 42 21
15 42 21
15 42 21
15 42 21
15 42 21
15 42 21
15 42 21
15 42 21
15 42 21
15 42 21
16 42 21
16 42 21
16 42 21
16 42 21
16 42 21
16 43 21
16 43 21
16 43 21
16 43 21
16 43 21
16 43 21
16 43 21
16 43 21
0 0 0
0 0 0
0 0 0
0 0 0
0 0 0
0 0 0
0 0 0
0 0 0
0 0 0
0 0 0
0 0 0
0 0 0
0 0 0
0 0 0
0 0 0
0 0 0
0 0 0
0 0 0
0 0 0
0 0 0
0 0 0
0 0 0
0 0 0
0 0 0
0 0 0
0 0 0
0 0 0
0 0 0
0 0 0
0 0 0
0 0 0
0 0 0
0 0 0
0 0 0
0 0 0
0 0 0
0 0 0
0 0 0
0 0 0
17 45 22
17 45 22
17 45 22
17 45 22
17 45 22
17 45 22
17 45 22
17 45 22
17 45 22
17 46 23
17 46 23
17 46 23
17 46 23
17 46 23
17 46 23
17 46 23
17 46 23
17 46 23
17 46 23
17 46 23
17 46 23
17 46 23
17 46 23
17 46 23
17 46 23
17 46 23
17 46 23
17 46 23
17 46 23
17 46 23
17 46 23
17 46 23
17 46 23
17 46 23
17 46 23
17 46 23
17 47 23
17 47 23
17 47 23
17 47 23
17 47 23
17 47 23
17 47 23
17 47 23
17 47 23
17 47 23
17 47 23
17 47 23
17 47 23
17 47 23
17 47 23
17 47 23
17 47 23
17 47 23
17 47 23
17 47 23
17 47 23
17 47 23
17 47 23
17 47 23
17 47 23
17 47 23
17 47 23
17 47 23
17 47 23
17 47 23
17 47 23
17 47 23
17 47 23
17 47 23
17 47 23
17 47 23
17 47 23
17 47 23
17 47 23
17 47 23
17 47 23
17 47 23
17 47 23
17 47 23
17 47 23
17 47 23
17 47 23
17 47 23
17 47 23
17 47 23
17 47 23
17 47 23
17 47 23
17 47 23
17 47 23
17 47 23
17 47 23
17 47 23
17 47 23
17 47 23
17 47 23
17 47 23
17 47 23
17 47 23
17 47 23
17 47 23
17 47 23
17 47 23
17 47 23
17 47 23
17 47 23
17 47 23
17 47 23
17 47 23
17 47 23
17 47 23
17 47 23
17 47 23
17 47 23
17 47 23
17 47 23
17 47 23
17 47 23
17 47 23
17 47 23
17 47 23
17 47 23
17 47 23
17 47 23
17 47 23
17 47 23
17 47 23
17 46 23
17 46 23
17 46 23
17 46 23
17 46 23
17 46 23
17 46 23
17 46 23
17 46 23
17 46 23
17 46 23
17 46 23
17 46 23
17 46 23
17 46 23
17 46 23
17 46 23
17 46 23
17 46 23
17 46 23
17 46 23
17 46 23
17 46 23
17 46 23
17 46 23
17 46 23
17 45 22
17 45 22
17 45 22
17 45 22
17 45 22
17 45 22
17 45 22
17 45 22
17 45 22
17 45 22
17 45 22
17 45 22
17 45 22
17 45 22
16 45 22
16 45 22
16 45 22
16 45 22
16 45 22
16 45 22
16 45 22
16 44 22
16 44 22
16 44 22
16 44 22
16 44 22
16 44 22
16 44 22
16 44 22
16 44 22
16 44 22
16 44 22
16 44 22
16 44 22
16 44 22
16 44 22
16 44 22
16 44 22
16 44 22
16 43 21
16 43 21
16 43 21
16 43 21
16 43 21
16 43 21
16 43 21
16 43 21
16 43 21
16 43 21
16 43 21
16 43 21
16 43 21
16 43 21
16 43 21
16 43 21
16 43 21
16 42 21
16 42 21
16 42 21
16 42 21
16 42 21
16 42 21
15 42 21
15 42 21
15 42 21
15 42 21
15 42 21
15 42 21
15 42 21
15 42 21
15 42 21
15 42 21
15 41 20
15 41 20
15 41 20
15 41 20
15 41 20
15 41 20
15 41 20
15 41 20
15 41 20
15 41 20
15 41 20
15 41 20
15 41 20
15 41 20
15 41 20
15 41 20
15 42 21
15 42 21
15 42 21
15 42 21
15 42 21
15 42 21
15 42 21
15 42 21
15 42 21
15 42 21
15 42 21
15 42 21
16 42 21
16 42 21
16 42 21
16 42 21
16 42 21
16 42 21
0 0 0
0 0 0
0 0 0
0 0 0
0 0 0
0 0 0
0 0 0
0 0 0
0 0 0
0 0 0
0 0 0
0 0 0
0 0 0
0 0 0
0 0 0
0 0 0
0 0 0
0 0 0
0 0 0
0 0 0
0 0 0
0 0 0
0 0 0
0 0 0
0 0 0
0 0 0
0 0 0
0 0 0
0 0 0
0 0 0
0 0 0
0 0 0
0 0 0
0 0 0
0 0 0
0 0 0
0 0 0
0 0 0
0 0 0
0 0 0
0 0 0
16 45 22
16 45 22
16 45 22
16 45 22
16 45 22
16 45 22
16 45 22
17 45 22
17 45 22
17 45 22
17 45 22
17 45 22
17 45 22
17 45 22
17 45 22
17 45 22
17 45 22
17 45 22
17 45 22
17 45 22
17 45 22
17 45 22
17 45 22
17 45 22
17 45 22
17 46 23
17 46 23
17 46 23
17 46 23
17 46 23
17 46 23
17 46 23
17 46 23
17 46 23
17 46 23
17 46 23
17 46 23
17 46 23
17 46 23
17 46 23
17 46 23
17 46 23
17 46 23
17 46 23
17 46 23
17 46 23
17 46 23
17 46 23
17 46 23
17 46 23
17 46 23
17 46 23
17 46 23
17 46 23
17 46 23
17 46 23
17 46 23
17 46 23
17 46 23
17 46 23
17 46 23
17 46 23
17 46 23
17 46 23
17 46 23
17 46 23
17 46 23
17 46 23
17 46 23
17 46 23
17 46 23
17 46 23
17 46 23
17 46 23
17 46 23
17 46 23
17 46 23
17 46 23
17 46 23
17 46 23
17 46 23
17 46 23
17 46 23
17 46 23
17 46 23
17 46 23
17 46 23
17 46 23
17 46 23
17 46 23
17 46 23
17 46 23
17 46 23
17 46 23
17 46 23
17 46 23
17 46 23
17 46 23
17 46 23
17 46 23
17 46 23
17 46 23
17 46 23
17 46 23
17 46 23
17 46 23
17 46 23
17 46 23
17 46 23
17 46 23
17 46 23
17 46 23
17 46 23
17 46 23
17 46 23
17 46 23
17 46 23
17 46 23
17 46 23
17 46 23
17 46 23
17 46 23
17 46 23
17 46 23
17 46 23
17 46 23
17 46 23
17 46 23
17 46 23
17 46 23
17 46 23
17 46 23
17 46 23
17 46 23
17 46 23
17 46 23
17 46 23
17 45 22
17 45 22
17 45 22
17 45 22
17 45 22
17 45 22
17 45 22
17 45 22
17 45 22
17 45 22
17 45 22
17 45 22
17 45 22
17 45 22
17 45 22
17 45 22
17 45 22
17 45 22
16 45 22
16 45 22
16 45 22
16 45 22
16 45 22
16 45 22
16 45 22
16 45 22
16 44 22
16 44 22
16 44 22
16 44 22
16 44 22
16 44 22
16 44 22
16 44 22
16 44 22
16 44 22
16 44 22
16 44 22
16 44 22
16 44 22
16 44 22
16 44 22
16 44 22
16 44 22
16 44 22
16 44 22
16 44 22
16 43 21
16 43 21
16 43 21
16 43 21
16 43 21
16 43 21
16 43 21
16 43 21
16 43 21
16 43 21
16 43 21
16 43 21
16 43 21
16 43 21
16 43 21
16 43 21
16 43 21
16 43 21
16 43 21
16 42 21
16 42 21
16 42 21
16 42 21
16 42 21
16 42 21
15 42 21
15 42 21
15 42 21
15 42 21
15 42 21
15 42 21
15 42 21
15 42 21
15 42 21
15 42 21
15 42 21
15 42 21
15 41 20
15 41 20
15 41 20
15 41 20
15 41 20
15 41 20
15 40 20
15 41 20
15 41 20
15 41 20
15 41 20
15 41 20
15 41 20
15 41 20
15 41 20
15 41 20
15 41 20
15 41 20
15 41 20
15 41 20
15 41 20
15 41 20
15 41 20
15 41 20
15 41 20
15 41 20
15 42 21
15 42 21
15 42 21
15 42 21
15 42 21
15 42 21
15 42 21
15 42 21
15 42 21
15 42 21
15 42 21
15 42 21
0 0 0
0 0 0
0 0 0
0 0 0
0 0 0
0 0 0
0 0 0
0 0 0
0 0 0
0 0 0
0 0 0
0 0 0
0 0 0
0 0 0
0 0 0
0 0 0
0 0 0
0 0 0
0 0 0
0 0 0
0 0 0
0 0 0
0 0 0
0 0 0
0 0 0
0 0 0
0 0 0
0 0 0
0 0 0
0 0 0
0 0 0
0 0 0
0 0 0
0 0 0
0 0 0
0 0 0
0 0 0
0 0 0
0 0 0
0 0 0
0 0 0
16 44 22
16 44 22
16 44 22
16 44 22
16 44 22
16 44 22
16 44 22
16 44 22
16 44 22
16 44 22
16 44 22
16 44 22
16 44 22
16 45 22
16 45 22
16 45 22
16 45 22
16 45 22
16 45 22
16 45 22
16 45 22
16 45 22
16 45 22
16 45 22
17 45 22
17 45 22
17 45 22
17 45 22
17 45 22
17 45 22
17 45 22
17 45 22
17 45 22
17 45 22
17 45 22
17 45 22
17 45 22
17 45 22
17 45 22
17 45 22
17 45 22
17 45 22
17 45 22
17 45 22
17 45 22
17 45 22
17 45 22
17 45 22
17 45 22
17 45 22
17 45 22
17 45 22
17 46 23
17 46 23
17 46 23
17 46 23
17 46 23
17 46 23
17 46 23
17 46 23
17 46 23
17 46 23
17 46 23
17 46 23
17 46 23
17 46 23
17 46 23
17 46 23
17 46 23
17 46 23
17 46 23
17 46 23
17 46 23
17 46 23
17 46 23
17 46 23
17 46 23
17 46 23
17 46 23
17 46 23
17 46 23
17 46 23
17 46 23
17 46 23
17 46 23
17 46 23
17 46 23
17 46 23
17 46 23
17 46 23
17 46 23
17 46 23
17 46 23
17 46 23
17 46 23
17 46 23
17 46 23
17 46 23
17 46 23
17 46 23
17 46 23
17 46 23
17 46 23
17 46 23
17 46 23
17 46 23
17 46 23
17 46 23
17 46 23
17 45 22
17 45 22
17 45 22
17 45 22
17 45 22
17 45 22
17 45 22
17 45 22
17 45 22
17 45 22
17 45 22
17 45 22
17 45 22
17 45 22
17 45 22
17 45 22
17 45 22
17 45 22
17 45 22
17 45 22
17 45 22
17 45 22
17 45 22
17 45 22
17 45 22
17 45 22
17 45 22
17 45 22
17 45 22
16 45 22
16 45 22
16 45 22
16 45 22
16 45 22
16 45 22
16 45 22
16 45 22
16 45 22
16 45 22
16 44 22
16 44 22
16 44 22
16 44 22
16 44 22
16 44 22
16 44 22
16 44 22
16 44 22
16 44 22
16 44 22
16 44 22
16 44 22
16 44 22
16 44 22
16 44 22
16 44 22
16 44 22
16 44 22
16 44 22
16 44 22
16 44 22
16 44 22
16 44 22
16 44 22
16 44 22
16 43 21
16 43 21
16 43 21
16 43 21
16 43 21
16 43 21
16 43 21
16 43 21
16 43 21
16 43 21
16 43 21
16 43 21
16 43 21
16 43 21
16 43 21
16 43 21
16 43 21
16 43 21
16 43 21
16 43 21
16 43 21
16 42 21
16 42 21
16 42 21
16 42 21
16 42 21
16 42 21
16 42 21
15 42 21
15 42 21
15 42 21
15 42 21
15 42 21
15 42 21
15 42 21
15 42 21
15 42 21
15 42 21
15 42 21
15 42 21
15 42 21
15 41 20
15 41 20
15 41 20
15 41 20
15 41 20
15 41 20
15 41 20
15 41 20
15 41 20
15 41 20
15 41 20
15 41 20
15 40 20
15 40 20
15 40 20
15 40 20
15 40 20
15 40 20
15 41 20
15 41 20
15 41 20
15 41 20
15 41 20
15 41 20
15 41 20
15 41 20
15 41 20
15 41 20
15 41 20
15 41 20
15 41 20
15 41 20
15 41 20
15 41 20
15 41 20
15 41 20
15 41 20
15 41 20
15 42 21
15 42 21
3 10 5
3 10 5
3 10 5
0 0 0
0 0 0
0 0 0
0 0 0
0 0 0
0 0 0
0 0 0
0 0 0
0 0 0
0 0 0
0 0 0
0 0 0
0 0 0
0 0 0
0 0 0
0 0 0
0 0 0
0 0 0
0 0 0
0 0 0
0 0 0
0 0 0
0 0 0
0 0 0
0 0 0
0 0 0
0 0 0
0 0 0
0 0 0
0 0 0
0 0 0
0 0 0
0 0 0
0 0 0
0 0 0
0 0 0
0 0 0
0 0 0
0 0 0
0 0 0
0 0 0
0 0 0
16 44 22
16 44 22
16 44 22
16 44 22
16 44 22
16 44 22
16 44 22
16 44 22
16 44 22
16 44 22
16 44 22
16 44 22
16 44 22
16 44 22
16 44 22
16 44 22
16 44 22
16 44 22
16 44 22
16 44 22
16 44 22
16 44 22
16 44 22
16 44 22
16 44 22
16 44 22
16 44 22
16 44 22
16 44 22
16 44 22
16 44 22
16 44 22
16 44 22
16 44 22
16 45 22
16 45 22
16 45 22
16 45 22
16 45 22
16 45 22
16 45 22
16 45 22
16 45 22
16 45 22
16 45 22
16 45 22
16 45 22
16 45 22
16 45 22
16 45 22
16 45 22
17 45 22
17 45 22
17 45 22
17 45 22
17 45 22
17 45 22
17 45 22
17 45 22
17 45 22
17 45 22
17 45 22
17 45 22
17 45 22
17 45 22
17 45 22
17 45 22
17 45 22
17 45 22
17 45 22
17 45 22
17 45 22
17 45 22
17 45 22
17 45 22
17 45 22
17 45 22
17 45 22
17 45 22
17 45 22
17 45 22
17 45 22
17 45 22
17 45 22
17 45 22
17 45 22
17 45 22
17 45 22
17 45 22
17 45 22
17 45 22
17 45 22
17 45 22
17 45 22
17 45 22
17 45 22
17 45 22
17 45 22
17 45 22
17 45 22
17 45 22
17 45 22
17 45 22
17 45 22
17 45 22
17 45 22
17 45 22
17 45 22
17 45 22
17 45 22
17 45 22
16 45 22
16 45 22
16 45 22
16 45 22
16 45 22
16 45 22
16 45 22
16 45 22
16 45 22
16 45 22
16 45 22
16 45 22
16 45 22
16 45 22
16 45 22
16 45 22
16 45 22
16 45 22
16 44 22
16 44 22
16 44 22
16 44 22
16 44 22
16 44 22
16 44 22
16 44 22
16 44 22
16 44 22
16 44 22
16 44 22
16 44 22
16 44 22
16 44 22
16 44 22
16 44 22
16 44 22
16 44 22
16 44 22
16 44 22
16 44 22
16 44 22
16 44 22
16 44 22
16 44 22
16 44 22
16 44 22
16 44 22
16 44 22
16 44 22
16 44 22
16 44 22
16 43 21
16 43 21
16 43 21
16 43 21
16 43 21
16 43 21
16 43 21
16 43 21
16 43 21
16 43 21
16 43 21
16 43 21
16 43 21
16 43 21
16 43 21
16 43 21
16 43 21
16 43 21
16 43 21
16 43 21
16 43 21
16 43 21
16 43 21
16 43 21
16 43 21
16 42 21
16 42 21
16 42 21
16 42 21
16 42 21
16 42 21
16 42 21
15 42 21
15 42 21
15 42 21
15 42 21
15 42 21
15 42 21
15 42 21
15 42 21
15 42 21
15 42 21
15 42 21
15 42 21
15 42 21
15 42 21
15 42 21
15 41 20
15 41 20
15 41 20
15 41 20
15 41 20
15 41 20
15 41 20
15 41 20
15 41 20
15 41 20
15 41 20
15 41 20
15 41 20
15 41 20
15 41 20
15 41 20
15 41 20
15 41 20
15 40 20
15 40 20
15 40 20
15 40 20
15 40 20
15 40 20
15 40 20
15 40 20
15 40 20
15 40 20
15 40 20
15 41 20
15 41 20
15 41 20
15 41 20
15 41 20
15 41 20
15 41 20
15 41 20
15 41 20
15 41 20
15 41 20
15 41 20
3 10 5
3 10 5
3 10 5
3 10 5
3 10 5
3 10 5
3 10 5
3 10 5
0 0 0
0 0 0
0 0 0
0 0 0
0 0 0
0 0 0
0 0 0
0 0 0
0 0 0
0 0 0
0 0 0
0 0 0
0 0 0
0 0 0
0 0 0
0 0 0
0 0 0
0 0 0
0 0 0
0 0 0
0 0 0
0 0 0
0 0 0
0 0 0
0 0 0
0 0 0
0 0 0
0 0 0
0 0 0
0 0 0
0 0 0
0 0 0
0 0 0
0 0 0
0 0 0
0 0 0
0 0 0
0 0 0
0 0 0
0 0 0
0 0 0
0 0 0
16 43 21
16 43 21
16 43 21
16 43 21
16 43 21
16 43 21
16 43 21
16 43 21
16 43 21
16 43 21
16 43 21
16 43 21
16 43 21
16 43 21
16 43 21
16 43 21
16 44 22
16 44 22
16 44 22
16 44 22
16 44 22
16 44 22
16 44 22
16 44 22
16 44 22
16 44 22
16 44 22
16 44 22
16 44 22
16 44 22
16 44 22
16 44 22
16 44 22
16 44 22
16 44 22
16 44 22
16 44 22
16 44 22
16 44 22
16 44 22
16 44 22
16 44 22
16 44 22
16 44 22
16 44 22
16 44 22
16 44 22
16 44 22
16 44 22
16 44 22
16 44 22
16 44 22
16 44 22
16 44 22
16 44 22
16 44 22
16 44 22
16 44 22
16 44 22
16 44 22
16 44 22
16 44 22
16 44 22
16 44 22
16 44 22
16 44 22
16 44 22
16 44 22
16 44 22
16 44 22
16 44 22
16 44 22
16 44 22
16 44 22
16 44 22
16 44 22
16 44 22
16 44 22
16 44 22
16 44 22
16 44 22
16 44 22
16 44 22
16 44 22
16 44 22
16 44 22
16 44 22
16 44 22
16 44 22
16 44 22
16 44 22
16 44 22
16 44 22
16 44 22
16 44 22
16 44 22
16 44 22
16 44 22
16 44 22
16 44 22
16 44 22
16 44 22
16 44 22
16 44 22
16 44 22
16 44 22
16 44 22
16 44 22
16 44 22
16 44 22
16 44 22
16 44 22
16 44 22
16 44 22
16 44 22
16 44 22
16 44 22
16 44 22
16 44 22
16 44 22
16 44 22
16 44 22
16 44 22
16 44 22
16 44 22
16 44 22
16 44 22
16 44 22
16 44 22
16 44 22
16 44 22
16 44 22
16 44 22
16 44 22
16 44 22
16 44 22
16 44 22
16 44 22
16 44 22
16 44 22
16 44 22
16 44 22
16 44 22
16 44 22
16 44 22
16 44 22
16 43 21
16 43 21
16 43 21
16 43 21
16 43 21
16 43 21
16 43 21
16 43 21
16 43 21
16 43 21
16 43 21
16 43 21
16 43 21
16 43 21
16 43 21
16 43 21
16 43 21
16 43 21
16 43 21
16 43 21
16 43 21
16 43 21
16 43 21
16 43 21
16 43 21
16 43 21
16 43 21
16 43 21
16 43 21
16 43 21
16 43 21
16 42 21
16 42 21
16 42 21
16 42 21
16 42 21
16 42 21
16 42 21
16 42 21
15 42 21
15 42 21
15 42 21
15 42 21
15 42 21
15 42 21
15 42 21
15 42 21
15 42 21
15 42 21
15 42 21
15 42 21
15 42 21
15 42 21
15 42 21
15 42 21
15 42 21
15 41 20
15 41 20
15 41 20
15 41 20
15 41 20
15 41 20
15 41 20
15 41 20
15 41 20
15 41 20
15 41 20
15 41 20
15 41 20
15 41 20
15 41 20
15 41 20
15 41 20
15 41 20
15 41 20
15 41 20
15 41 20
15 41 20
15 40 20
15 40 20
15 40 20
15 40 20
15 40 20
15 40 20
15 40 20
15 40 20
15 40 20
15 40 20
15 40 20
15 40 20
15 40 20
15 40 20
15 40 20
15 40 20
15 40 20
15 40 20
15 40 20
15 40 20
3 10 5
3 10 5
3 10 5
3 10 5
3 10 5
3 10 5
3 10 5
3 10 5
3 10 5
3 10 5
3 10 5
3 10 5
3 10 5
3 10 5
0 0 0
0 0 0
0 0 0
0 0 0
0 0 0
0 0 0
0 0 0
0 0 0
0 0 0
0 0 0
0 0 0
0 0 0
0 0 0
0 0 0
0 0 0
0 0 0
0 0 0
0 0 0
0 0 0
0 0 0
0 0 0
0 0 0
0 0 0
0 0 0
0 0 0
0 0 0
0 0 0
0 0 0
0 0 0
0 0 0
0 0 0
0 0 0
0 0 0
0 0 0
0 0 0
0 0 0
0 0 0
0 0 0
0 0 0
0 0 0
0 0 0
0 0 0
16 43 21
16 43 21
16 43 21
16 43 21
16 43 21
16 43 21
16 43 21
16 43 21
16 43 21
16 43 21
16 43 21
16 43 21
16 43 21
16 43 21
16 43 21
16 43 21
16 43 21
16 43 21
16 43 21
16 43 21
16 43 21
16 43 21
16 43 21
16 43 21
16 43 21
16 43 21
16 43 21
16 43 21
16 43 21
16 43 21
16 43 21
16 43 21
16 43 21
16 43 21
16 43 21
16 43 21
16 43 21
16 43 21
16 44 22
16 44 22
16 44 22
16 44 22
16 44 22
16 44 22
16 44 22
16 44 22
16 44 22
16 44 22
16 44 22
16 44 22
16 44 22
16 44 22
16 44 22
16 44 22
16 44 22
16 44 22
16 44 22
16 44 22
16 44 22
16 44 22
16 44 22
16 44 22
16 44 22
16 44 22
16 44 22
16 44 22
16 44 22
16 44 22
16 44 22
16 44 22
16 44 22
16 44 22
16 44 22
16 44 22
16 44 22
16 44 22
16 44 22
16 44 22
16 44 22
16 44 22
16 44 22
16 44 22
16 44 22
16 44 22
16 44 22
16 44 22
16 44 22
16 44 22
16 44 22
16 44 22
16 44 22
16 44 22
16 44 22
16 44 22
16 44 22
16 44 22
16 44 22
16 44 22
16 44 22
16 44 22
16 44 22
16 44 22
16 44 22
16 44 22
16 44 22
16 44 22
16 44 22
16 44 22
16 44 22
16 44 22
16 44 22
16 44 22
16 44 22
16 44 22
16 44 22
16 44 22
16 44 22
16 44 22
16 44 22
16 44 22
16 44 22
16 44 22
16 44 22
16 44 22
16 43 21
16 43 21
16 43 21
16 43 21
16 43 21
16 43 21
16 43 21
16 43 21
16 43 21
16 43 21
16 43 21
16 43 21
16 43 21
16 43 21
16 43 21
16 43 21
16 43 21
16 43 21
16 43 21
16 43 21
16 43 21
16 43 21
16 43 21
16 43 21
16 43 21
16 43 21
16 43 21
16 43 21
16 43 21
16 43 21
16 43 21
16 43 21
16 43 21
16 43 21
16 43 21
16 43 21
16 43 21
16 43 21
16 43 21
16 43 21
16 43 21
16 42 21
16 42 21
16 42 21
16 42 21
16 42 21
16 42 21
16 42 21
16 42 21
16 42 21
16 42 21
15 42 21
15 42 21
15 42 21
15 42 21
15 42 21
15 42 21
15 42 21
15 42 21
15 42 21
15 42 21
15 42 21
15 42 21
15 42 21
15 42 21
15 42 21
15 42 21
15 42 21
15 42 21
15 41 20
15 41 20
15 41 20
15 41 20
15 41 20
15 41 20
15 41 20
15 41 20
15 41 20
15 41 20
15 41 20
15 41 20
15 41 20
15 41 20
15 41 20
15 41 20
15 41 20
15 41 20
15 41 20
15 41 20
15 41 20
15 41 20
15 41 20
15 41 20
15 41 20
15 40 20
15 40 20
15 40 20
15 40 20
15 40 20
15 40 20
15 40 20
15 40 20
15 40 20
15 40 20
15 40 20
15 40 20
15 40 20
15 40 20
15 40 20
15 40 20
15 40 20
15 40 20
15 40 20
15 40 20
15 40 20
3 10 5
3 10 5
3 10 5
3 10 5
3 10 5
3 10 5
3 10 5
3 10 5
3 10 5
3 10 5
3 10 5
3 10 5
3 10 5
3 10 5
3 10 5
3 10 5
3 10 5
3 10 5
3 10 5
0 0 0
0 0 0
0 0 0
0 0 0
0 0 0
0 0 0
0 0 0
0 0 0
0 0 0
0 0 0
0 0 0
0 0 0
0 0 0
0 0 0
0 0 0
0 0 0
0 0 0
0 0 0
0 0 0
0 0 0
0 0 0
0 0 0
0 0 0
0 0 0
0 0 0
0 0 0
0 0 0
0 0 0
0 0 0
0 0 0
0 0 0
0 0 0
0 0 0
0 0 0
0 0 0
0 0 0
0 0 0
0 0 0
0 0 0
0 0 0
0 0 0
0 0 0
15 42 21
16 42 21
16 42 21
16 42 21
16 42 21
16 42 21
16 42 21
16 42 21
16 42 21
16 42 21
16 42 21
16 42 21
16 42 21
16 42 21
16 43 21
16 43 21
16 43 21
16 43 21
16 43 21
16 43 21
16 43 21
16 43 21
16 43 21
16 43 21
16 43 21
16 43 21
16 43 21
16 43 21
16 43 21
16 43 21
16 43 21
16 43 21
16 43 21
16 43 21
16 43 21
16 43 21
16 43 21
16 43 21
16 43 21
16 43 21
16 43 21
16 43 21
16 43 21
16 43 21
16 43 21
16 43 21
16 43 21
16 43 21
16 43 21
16 43 21
16 43 21
16 43 21
16 43 21
16 43 21
16 43 21
16 43 21
16 43 21
16 43 21
16 43 21
16 43 21
16 43 21
16 43 21
16 43 21
16 43 21
16 43 21
16 43 21
16 43 21
16 43 21
16 43 21
16 43 21
16 43 21
16 43 21
16 43 21
16 43 21
16 43 21
16 43 21
16 43 21
16 43 21
16 43 21
16 43 21
16 43 21
16 43 21
16 43 21
16 43 21
16 43 21
16 43 21
16 43 21
16 43 21
16 43 21
16 43 21
16 43 21
16 43 21
16 43 21
16 43 21
16 43 21
16 43 21
16 43 21
16 43 21
16 43 21
16 43 21
16 43 21
16 43 21
16 43 21
16 43 21
16 43 21
16 43 21
16 43 21
16 43 21
16 43 21
16 43 21
16 43 21
16 43 21
16 43 21
16 43 21
16 43 21
16 43 21
16 43 21
16 43 21
16 43 21
16 43 21
16 43 21
16 43 21
16 43 21
16 43 21
16 43 21
16 43 21
16 43 21
16 43 21
16 43 21
16 43 21
16 43 21
16 43 21
16 43 21
16 43 21
16 43 21
16 43 21
16 43 21
16 43 21
16 43 21
16 43 21
16 43 21
16 43 21
16 43 21
16 43 21
16 43 21
16 43 21
16 43 21
16 43 21
16 43 21
16 42 21
16 42 21
16 42 21
16 42 21
16 42 21
16 42 21
16 42 21
16 42 21
16 42 21
16 42 21
16 42 21
16 42 21
16 42 21
15 42 21
15 42 21
15 42 21
15 42 21
15 42 21
15 42 21
15 42 21
15 42 21
15 42 21
15 42 21
15 42 21
15 42 21
15 42 21
15 42 21
15 42 21
15 42 21
15 42 21
15 42 21
15 42 21
15 42 21
15 42 21
15 41 20
15 41 20
15 41 20
15 41 20
15 41 20
15 41 20
15 41 20
15 41 20
15 41 20
15 41 20
15 41 20
15 41 20
15 41 20
15 41 20
15 41 20
15 41 20
15 41 20
15 41 20
15 41 20
15 41 20
15 41 20
15 41 20
15 41 20
15 41 20
15 41 20
15 41 20
15 41 20
15 41 20
15 40 20
15 40 20
15 40 20
15 40 20
15 40 20
15 40 20
15 40 20
15 40 20
15 40 20
15 40 20
15 40 20
15 40 20
15 40 20
15 40 20
15 40 20
15 40 20
14 39 19
14 39 19
14 39 19
14 39 19
14 39 19
15 40 20
15 40 20
3 10 5
3 10 5
3 10 5
3 10 5
3 10 5
3 10 5
3 10 5
3 10 5
3 10 5
3 10 5
3 10 5
3 10 5
3 10 5
3 10 5
3 10 5
3 10 5
3 10 5
3 10 5
3 10 5
3 10 5
3 10 5
3 10 5
3 10 5
0 0 0
0 0 0
0 0 0
0 0 0
0 0 0
0 0 0
0 0 0
0 0 0
0 0 0
0 0 0
0 0 0
0 0 0
0 0 0
0 0 0
0 0 0
0 0 0
0 0 0
0 0 0
0 0 0
0 0 0
0 0 0
0 0 0
0 0 0
0 0 0
0 0 0
0 0 0
0 0 0
0 0 0
0 0 0
0 0 0
0 0 0
0 0 0
0 0 0
0 0 0
0 0 0
0 0 0
0 0 0
0 0 0
0 0 0
0 0 0
0 0 0
0 0 0
0 0 0
15 42 21
15 42 21
15 42 21
15 42 21
15 42 21
15 42 21
15 42 21
15 42 21
15 42 21
15 42 21
15 42 21
15 42 21
15 42 21
15 42 21
15 42 21
15 42 21
15 42 21
15 42 21
16 42 21
16 42 21
16 42 21
16 42 21
16 42 21
16 42 21
16 42 21
16 42 21
16 42 21
16 42 21
16 42 21
16 42 21
16 42 21
16 42 21
16 42 21
16 42 21
16 42 21
16 42 21
16 43 21
16 43 21
16 43 21
16 43 21
16 43 21
16 43 21
16 43 21
16 43 21
16 43 21
16 43 21
16 43 21
16 43 21
16 43 21
16 43 21
16 43 21
16 43 21
16 43 21
16 43 21
16 43 21
16 43 21
16 43 21
16 43 21
16 43 21
16 43 21
16 43 21
16 43 21
16 43 21
16 43 21
16 43 21
16 43 21
16 43 21
16 43 21
16 43 21
16 43 21
16 43 21
16 43 21
16 43 21
16 43 21
16 43 21
16 43 21
16 43 21
16 43 21
16 43 21
16 43 21
16 43 21
16 43 21
16 43 21
16 43 21
16 43 21
16 43 21
16 43 21
16 43 21
16 43 21
16 43 21
16 43 21
16 43 21
16 43 21
16 43 21
16 43 21
16 43 21
16 43 21
16 43 21
16 43 21
16 43 21
16 43 21
16 43 21
16 43 21
16 43 21
16 43 21
16 43 21
16 43 21
16 43 21
16 43 21
16 43 21
16 43 21
16 43 21
16 43 21
16 43 21
16 43 21
16 43 21
16 43 21
16 43 21
16 43 21
16 43 21
16 43 21
16 43 21
16 43 21
16 43 21
16 43 21
16 43 21
16 43 21
16 42 21
16 42 21
16 42 21
16 42 21
16 42 21
16 42 21
16 42 21
16 42 21
16 42 21
16 42 21
16 42 21
16 42 21
16 42 21
16 42 21
16 42 21
16 42 21
16 42 21
16 42 21
15 42 21
15 42 21
15 42 21
15 42 21
15 42 21
15 42 21
15 42 21
15 42 21
15 42 21
15 42 21
15 42 21
15 42 21
15 42 21
15 42 21
15 42 21
15 42 21
15 42 21
15 42 21
15 42 21
15 42 21
15 42 21
15 42 21
15 42 21
15 42 21
15 42 21
15 42 21
15 42 21
15 41 20
15 41 20
15 41 20
15 41 20
15 41 20
15 41 20
15 41 20
15 41 20
15 41 20
15 41 20
15 41 20
15 41 20
15 41 20
15 41 20
15 41 20
15 41 20
15 41 20
15 41 20
15 41 20
15 41 20
15 41 20
15 41 20
15 41 20
15 41 20
15 41 20
15 41 20
15 41 20
15 41 20
15 41 20
15 41 20
15 41 20
15 40 20
15 40 20
15 40 20
15 40 20
15 40 20
15 40 20
15 40 20
15 40 20
15 40 20
15 40 20
15 40 20
15 40 20
15 40 20
15 40 20
15 40 20
15 40 20
15 40 20
15 40 20
15 40 20
15 40 20
15 40 20
15 40 20
15 40 20
15 40 20
14 39 19
14 39 19
14 39 19
3 10 5
3 10 5
3 10 5
3 10 5
3 10 5
3 10 5
3 10 5
3 10 5
3 10 5
3 10 5
3 10 5
3 10 5
3 10 5
3 10 5
3 10 5
3 10 5
3 10 5
3 10 5
3 10 5
3 10 5
3 10 5
3 10 5
3 10 5
3 10 5
3 10 5
3 10 5
3 10 5
3 10 5
0 0 0
0 0 0
0 0 0
0 0 0
0 0 0
0 0 0
0 0 0
0 0 0
0 0 0
0 0 0
0 0 0
0 0 0
0 0 0
0 0 0
0 0 0
0 0 0
0 0 0
0 0 0
0 0 0
0 0 0
0 0 0
0 0 0
0 0 0
0 0 0
0 0 0
0 0 0
0 0 0
0 0 0
0 0 0
0 0 0
0 0 0
0 0 0
0 0 0
0 0 0
0 0 0
0 0 0
0 0 0
0 0 0
0 0 0
0 0 0
0 0 0
0 0 0
15 41 20
15 41 20
15 41 20
15 41 20
15 41 20
15 41 20
15 42 21
15 42 21
15 42 21
15 42 21
15 42 21
15 42 21
15 42 21
15 42 21
15 42 21
15 42 21
15 42 21
15 42 21
15 42 21
15 42 21
15 42 21
15 42 21
15 42 21
15 42 21
15 42 21
15 42 21
15 42 21
15 42 21
15 42 21
15 42 21
15 42 21
15 42 21
15 42 21
15 42 21
15 42 21
15 42 21
15 42 21
15 42 21
15 42 21
15 42 21
15 42 21
15 42 21
15 42 21
16 42 21
16 42 21
16 42 21
16 42 21
16 42 21
16 42 21
16 42 21
16 42 21
16 42 21
16 42 21
16 42 21
16 42 21
16 42 21
16 42 21
16 42 21
16 42 21
16 42 21
16 42 21
16 42 21
16 42 21
16 42 21
16 42 21
16 42 21
16 42 21
16 42 21
16 42 21
16 42 21
16 42 21
16 42 21
16 42 21
16 42 21
16 42 21
16 42 21
16 42 21
16 42 21
16 42 21
16 42 21
16 42 21
16 42 21
16 42 21
16 42 21
16 42 21
16 42 21
16 42 21
16 42 21
16 42 21
16 42 21
16 42 21
16 42 21
16 42 21
16 42 21
16 42 21
16 42 21
16 42 21
16 42 21
16 42 21
16 42 21
16 42 21
16 42 21
16 42 21
16 42 21
16 42 21
16 42 21
16 42 21
16 42 21
16 42 21
16 42 21
16 42 21
16 42 21
16 42 21
16 42 21
16 42 21
16 42 21
16 42 21
16 42 21
16 42 21
16 42 21
15 42 21
15 42 21
15 42 21
15 42 21
15 42 21
15 42 21
15 42 21
15 42 21
15 42 21
15 42 21
15 42 21
15 42 21
15 42 21
15 42 21
15 42 21
15 42 21
15 42 21
15 42 21
15 42 21
15 42 21
15 42 21
15 42 21
15 42 21
15 42 21
15 42 21
15 42 21
15 42 21
15 42 21
15 42 21
15 42 21
15 42 21
15 42 21
15 42 21
15 42 21
15 42 21
15 42 21
15 42 21
15 41 20
15 41 20
15 41 20
15 41 20
15 41 20
15 41 20
15 41 20
15 41 20
15 41 20
15 41 20
15 41 20
15 41 20
15 41 20
15 41 20
15 41 20
15 41 20
15 41 20
15 41 20
15 41 20
15 41 20
15 41 20
15 41 20
15 41 20
15 41 20
15 41 20
15 41 20
15 41 20
15 41 20
15 41 20
15 41 20
15 41 20
15 41 20
15 41 20
15 41 20
15 41 20
15 41 20
15 41 20
15 40 20
15 40 20
15 40 20
15 40 20
15 40 20
15 40 20
15 40 20
15 40 20
15 40 20
15 40 20
15 40 20
15 40 20
15 40 20
15 40 20
15 40 20
15 40 20
15 40 20
15 40 20
15 40 20
15 40 20
15 40 20
15 40 20
15 40 20
15 40 20
15 40 20
15 40 20
15 40 20
15 40 20
15 40 20
15 40 20
14 39 19
14 39 19
14 39 19
3 10 5
3 10 5
3 10 5
3 10 5
3 10 5
3 10 5
3 10 5
3 10 5
3 10 5
3 10 5
3 10 5
3 10 5
3 10 5
3 10 5
3 10 5
3 10 5
3 10 5
3 10 5
3 10 5
3 10 5
3 10 5
3 10 5
3 10 5
3 10 5
3 10 5
3 10 5
3 10 5
3 10 5
3 10 5
3 10 5
3 10 5
0 0 0
0 0 0
0 0 0
0 0 0
0 0 0
0 0 0
0 0 0
0 0 0
0 0 0
0 0 0
0 0 0
0 0 0
0 0 0
0 0 0
0 0 0
0 0 0
0 0 0
0 0 0
0 0 0
0 0 0
0 0 0
0 0 0
0 0 0
0 0 0
0 0 0
0 0 0
0 0 0
0 0 0
0 0 0
0 0 0
0 0 0
0 0 0
0 0 0
0 0 0
0 0 0
0 0 0
0 0 0
0 0 0
0 0 0
0 0 0
0 0 0
0 0 0
15 41 20
15 41 20
15 41 20
15 41 20
15 41 20
15 41 20
15 41 20
15 41 20
15 41 20
15 41 20
15 41 20
15 41 20
15 41 20
15 41 20
15 41 20
15 41 20
15 41 20
15 41 20
15 41 20
15 41 20
15 41 20
15 41 20
15 41 20
15 41 20
15 41 20
15 42 21
15 42 21
15 42 21
15 42 21
15 42 21
15 42 21
15 42 21
15 42 21
15 42 21
15 42 21
15 42 21
15 42 21
15 42 21
15 42 21
15 42 21
15 42 21
15 42 21
15 42 21
15 42 21
15 42 21
15 42 21
15 42 21
15 42 21
15 42 21
15 42 21
15 42 21
15 42 21
15 42 21
15 42 21
15 42 21
15 42 21
15 42 21
15 42 21
15 42 21
15 42 21
15 42 21
15 42 21
15 42 21
15 42 21
15 42 21
15 42 21
15 42 21
15 42 21
15 42 21
15 42 21
15 42 21
15 42 21
15 42 21
15 42 21
15 42 21
15 42 21
15 42 21
15 42 21
15 42 21
15 42 21
15 42 21
15 42 21
15 42 21
15 42 21
15 42 21
15 42 21
15 42 21
15 42 21
15 42 21
15 42 21
15 42 21
15 42 21
15 42 21
15 42 21
15 42 21
15 42 21
15 42 21
15 42 21
15 42 21
15 42 21
15 42 21
15 42 21
15 42 21
15 42 21
15 42 21
15 42 21
15 42 21
15 42 21
15 42 21
15 42 21
15 42 21
15 42 21
15 42 21
15 42 21
15 42 21
15 42 21
15 42 21
15 42 21
15 42 21
15 42 21
15 42 21
15 42 21
15 42 21
15 42 21
15 42 21
15 42 21
15 42 21
15 42 21
15 42 21
15 42 21
15 42 21
15 42 21
15 42 21
15 42 21
15 42 21
15 42 21
15 42 21
15 42 21
15 41 20
15 41 20
15 41 20
15 41 20
15 41 20
15 41 20
15 41 20
15 41 20
15 41 20
15 41 20
15 41 20
15 41 20
15 41 20
15 41 20
15 41 20
15 41 20
15 41 20
15 41 20
15 41 20
15 41 20
15 41 20
15 41 20
15 41 20
15 41 20
15 41 20
15 41 20
15 41 20
15 41 20
15 41 20
15 41 20
15 41 20
15 41 20
15 41 20
15 41 20
15 41 20
15 41 20
15 41 20
15 41 20
15 41 20
15 41 20
15 41 20
15 41 20
15 41 20
15 41 20
15 41 20
15 41 20
15 40 20
15 40 20
15 40 20
15 40 20
15 40 20
15 40 20
15 40 20
15 40 20
15 40 20
15 40 20
15 40 20
15 40 20
15 40 20
15 40 20
15 40 20
15 40 20
15 40 20
15 40 20
15 40 20
15 40 20
15 40 20
15 40 20
15 40 20
15 40 20
15 40 20
15 40 20
15 40 20
15 40 20
15 40 20
15 40 20
15 40 20
15 40 20
15 40 20
14 39 19
14 39 19
14 39 19
14 39 19
14 39 19
14 39 19
14 39 19
14 39 19
14 39 19
14 39 19
3 10 5
3 10 5
3 10 5
3 10 5
3 10 5
3 10 5
3 10 5
3 10 5
3 10 5
3 10 5
3 10 5
3 10 5
3 10 5
3 10 5
3 10 5
3 10 5
3 10 5
3 10 5
3 10 5
3 10 5
3 10 5
3 10 5
3 10 5
3 10 5
3 10 5
3 10 5
3 10 5
3 10 5
3 10 5
3 10 5
3 10 5
0 0 0
0 0 0
0 0 0
0 0 0
0 0 0
0 0 0
0 0 0
0 0 0
0 0 0
0 0 0
0 0 0
0 0 0
0 0 0
0 0 0
0 0 0
0 0 0
0 0 0
0 0 0
0 0 0
0 0 0
0 0 0
0 0 0
0 0 0
0 0 0
0 0 0
0 0 0
0 0 0
0 0 0
0 0 0
0 0 0
0 0 0
0 0 0
0 0 0
0 0 0
0 0 0
0 0 0
0 0 0
0 0 0
0 0 0
0 0 0
0 0 0
15 41 20
15 41 20
15 41 20
15 41 20
15 41 20
15 41 20
15 41 20
15 41 20
15 41 20
15 41 20
15 41 20
15 41 20
15 41 20
15 41 20
15 41 20
15 41 20
15 41 20
15 41 20
15 41 20
15 41 20
15 41 20
15 41 20
15 41 20
15 41 20
15 41 20
15 41 20
15 41 20
15 41 20
15 41 20
15 41 20
15 41 20
15 41 20
15 41 20
15 41 20
15 41 20
15 41 20
15 41 20
15 41 20
15 41 20
15 41 20
15 41 20
15 41 20
15 41 20
15 41 20
15 41 20
15 41 20
15 41 20
15 41 20
15 41 20
15 41 20
15 41 20
15 41 20
15 41 20
15 41 20
15 41 20
15 41 20
15 41 20
15 41 20
15 41 20
15 41 20
15 41 20
15 42 21
15 42 21
15 42 21
15 42 21
15 42 21
15 42 21
15 42 21
15 42 21
15 42 21
15 42 21
15 42 21
15 42 21
15 42 21
15 42 21
15 42 21
15 42 21
15 42 21
15 42 21
15 42 21
15 42 21
15 42 21
15 42 21
15 42 21
15 42 21
15 42 21
15 42 21
15 42 21
15 42 21
15 42 21
15 42 21
15 42 21
15 42 21
15 42 21
15 42 21
15 42 21
15 42 21
15 42 21
15 42 21
15 42 21
15 42 21
15 42 21
15 42 21
15 42 21
15 42 21
15 41 20
15 41 20
15 41 20
15 41 20
15 41 20
15 41 20
15 41 20
15 41 20
15 41 20
15 41 20
15 41 20
15 41 20
15 41 20
15 41 20
15 41 20
15 41 20
15 41 20
15 41 20
15 41 20
15 41 20
15 41 20
15 41 20
15 41 20
15 41 20
15 41 20
15 41 20
15 41 20
15 41 20
15 41 20
15 41 20
15 41 20
15 41 20
15 41 20
15 41 20
15 41 20
15 41 20
15 41 20
15 41 20
15 41 20
15 41 20
15 41 20
15 41 20
15 41 20
15 41 20
15 41 20
15 41 20
15 41 20
15 41 20
15 41 20
15 41 20
15 41 20
15 41 20
15 41 20
15 41 20
15 41 20
15 41 20
15 41 20
15 41 20
15 41 20
15 41 20
15 41 20
15 41 20
15 41 20
15 41 20
15 41 20
15 41 20
15 41 20
15 40 20
15 40 20
15 40 20
15 40 20
15 40 20
15 40 20
15 40 20
15 40 20
15 40 20
15 40 20
15 40 20
15 40 20
15 40 20
15 40 20
15 40 20
15 40 20
15 40 20
15 40 20
15 40 20
15 40 20
15 40 20
15 40 20
15 40 20
15 40 20
15 40 20
15 40 20
15 40 20
15 40 20
15 40 20
15 40 20
15 40 20
15 40 20
15 40 20
15 40 20
15 40 20
15 40 20
15 40 20
15 40 20
14 39 19
14 39 19
14 39 19
14 39 19
14 39 19
14 39 19
14 39 19
14 39 19
14 39 19
14 39 19
14 39 19
14 39 19
14 39 19
14 39 19
14 39 19
14 39 19
14 39 19
14 39 19
3 10 5
3 10 5
3 10 5
3 10 5
3 10 5
3 10 5
3 10 5
3 10 5
3 10 5
3 10 5
3 10 5
3 10 5
3 10 5
3 10 5
3 10 5
3 10 5
3 10 5
3 10 5
3 10 5
3 10 5
3 10 5
3 10 5
3 10 5
3 10 5
3 10 5
3 10 5
3 10 5
14 39 19
14 39 19
14 39 19
14 39 19
0 0 0
0 0 0
0 0 0
0 0 0
0 0 0
0 0 0
0 0 0
0 0 0
0 0 0
0 0 0
0 0 0
0 0 0
0 0 0
0 0 0
0 0 0
0 0 0
0 0 0
0 0 0
0 0 0
0 0 0
0 0 0
0 0 0
0 0 0
0 0 0
0 0 0
0 0 0
0 0 0
0 0 0
0 0 0
0 0 0
0 0 0
0 0 0
0 0 0
0 0 0
0 0 0
0 0 0
0 0 0
0 0 0
0 0 0
0 0 0
0 0 0
15 40 20
15 40 20
15 40 20
15 40 20
15 40 20
15 40 20
15 40 20
15 40 20
15 40 20
15 41 20
15 41 20
15 41 20
15 41 20
15 41 20
15 41 20
15 41 20
15 41 20
15 41 20
15 41 20
15 41 20
15 41 20
15 41 20
15 41 20
15 41 20
15 41 20
15 41 20
15 41 20
15 41 20
15 41 20
15 41 20
15 41 20
15 41 20
15 41 20
15 41 20
15 41 20
15 41 20
15 41 20
15 41 20
15 41 20
15 41 20
15 41 20
15 41 20
15 41 20
15 41 20
15 41 20
15 41 20
15 41 20
15 41 20
15 41 20
15 41 20
15 41 20
15 41 20
15 41 20
15 41 20
15 41 20
15 41 20
15 41 20
15 41 20
15 41 20
15 41 20
15 41 20
15 41 20
15 41 20
15 41 20
15 41 20
15 41 20
15 41 20
15 41 20
15 41 20
15 41 20
15 41 20
15 41 20
15 41 20
15 41 20
15 41 20
15 41 20
15 41 20
15 41 20
15 41 20
15 41 20
15 41 20
15 41 20
15 41 20
15 41 20
15 41 20
15 41 20
15 41 20
15 41 20
15 41 20
15 41 20
15 41 20
15 41 20
15 41 20
15 41 20
15 41 20
15 41 20
15 41 20
15 41 20
15 41 20
15 41 20
15 41 20
15 41 20
15 41 20
15 41 20
15 41 20
15 41 20
15 41 20
15 41 20
15 41 20
15 41 20
15 41 20
15 41 20
15 41 20
15 41 20
15 41 20
15 41 20
15 41 20
15 41 20
15 41 20
15 41 20
15 41 20
15 41 20
15 41 20
15 41 20
15 41 20
15 41 20
15 41 20
15 41 20
15 41 20
15 41 20
15 41 20
15 41 20
15 41 20
15 41 20
15 41 20
15 41 20
15 41 20
15 41 20
15 41 20
15 41 20
15 41 20
15 41 20
15 41 20
15 41 20
15 41 20
15 41 20
15 41 20
15 41 20
15 41 20
15 41 20
15 41 20
15 41 20
15 41 20
15 41 20
15 41 20
15 41 20
15 41 20
15 40 20
15 40 20
15 40 20
15 40 20
15 40 20
15 40 20
15 40 20
15 40 20
15 40 20
15 40 20
15 40 20
15 40 20
15 40 20
15 40 20
15 40 20
15 40 20
15 40 20
15 40 20
15 40 20
15 40 20
15 40 20
15 40 20
15 40 20
15 40 20
15 40 20
15 40 20
15 40 20
15 40 20
15 40 20
15 40 20
15 40 20
15 40 20
15 40 20
15 40 20
15 40 20
15 40 20
15 40 20
15 40 20
15 40 20
15 40 20
15 40 20
15 40 20
15 40 20
15 40 20
14 39 19
14 39 19
14 39 19
14 39 19
14 39 19
14 39 19
14 39 19
14 39 19
14 39 19
14 39 19
14 39 19
14 39 19
14 39 19
14 39 19
14 39 19
14 39 19
14 39 19
14 39 19
14 39 19
14 39 19
14 39 19
14 39 19
14 39 19
14 39 19
14 39 19
14 39 19
14 39 19
3 10 5
3 10 5
3 10 5
3 10 5
3 10 5
3 10 5
3 10 5
3 10 5
3 10 5
3 10 5
3 10 5
3 10 5
3 10 5
3 10 5
3 10 5
3 10 5
3 10 5
3 10 5
3 10 5
3 10 5
3 10 5
3 10 5
14 39 19
14 39 19
14 39 19
14 39 19
14 39 19
14 39 19
14 39 19
14 39 19
14 39 19
0 0 0
0 0 0
0 0 0
0 0 0
0 0 0
0 0 0
0 0 0
0 0 0
0 0 0
0 0 0
0 0 0
0 0 0
0 0 0
0 0 0
0 0 0
0 0 0
0 0 0
0 0 0
0 0 0
0 0 0
0 0 0
0 0 0
0 0 0
0 0 0
0 0 0
0 0 0
0 0 0
0 0 0
0 0 0
0 0 0
0 0 0
0 0 0
0 0 0
0 0 0
0 0 0
0 0 0
0 0 0
0 0 0
0 0 0
0 0 0
0 0 0
15 40 20
15 40 20
15 40 20
15 40 20
15 40 20
15 40 20
15 40 20
15 40 20
15 40 20
15 40 20
15 40 20
15 40 20
15 40 20
15 40 20
15 40 20
15 40 20
15 40 20
15 40 20
15 40 20
15 40 20
15 40 20
15 40 20
15 40 20
15 40 20
15 40 20
15 40 20
15 40 20
15 40 20
15 40 20
15 40 20
15 41 20
15 41 20
15 41 20
15 41 20
15 41 20
15 41 20
15 41 20
15 41 20
15 41 20
15 41 20
15 41 20
15 41 20
15 41 20
15 41 20
15 41 20
15 41 20
15 41 20
15 41 20
15 41 20
15 41 20
15 41 20
15 41 20
15 41 20
15 41 20
15 41 20
15 41 20
15 41 20
15 41 20
15 41 20
15 41 20
15 41 20
15 41 20
15 41 20
15 41 20
15 41 20
15 41 20
15 41 20
15 41 20
15 41 20
15 41 20
15 41 20
15 41 20
15 41 20
15 41 20
15 41 20
15 41 20
15 41 20
15 41 20
15 41 20
15 41 20
15 41 20
15 41 20
15 41 20
15 41 20
15 41 20
15 41 20
15 41 20
15 41 20
15 41 20
15 41 20
15 41 20
15 41 20
15 41 20
15 41 20
15 41 20
15 41 20
15 41 20
15 41 20
15 41 20
15 41 20
15 41 20
15 41 20
15 41 20
15 41 20
15 41 20
15 41 20
15 41 20
15 41 20
15 41 20
15 41 20
15 41 20
15 41 20
15 41 20
15 41 20
15 41 20
15 41 20
15 41 20
15 41 20
15 41 20
15 41 20
15 41 20
15 41 20
15 41 20
15 41 20
15 41 20
15 41 20
15 41 20
15 41 20
15 41 20
15 41 20
15 41 20
15 41 20
15 41 20
15 41 20
15 41 20
15 41 20
15 40 20
15 40 20
15 40 20
15 40 20
15 40 20
15 40 20
15 40 20
15 40 20
15 40 20
15 40 20
15 40 20
15 40 20
15 40 20
15 40 20
15 40 20
15 40 20
15 40 20
15 40 20
15 40 20
15 40 20
15 40 20
15 40 20
15 40 20
15 40 20
15 40 20
15 40 20
15 40 20
15 40 20
15 40 20
15 40 20
15 40 20
15 40 20
15 40 20
15 40 20
15 40 20
15 40 20
15 40 20
15 40 20
15 40 20
15 40 20
15 40 20
15 40 20
15 40 20
15 40 20
15 40 20
15 40 20
15 40 20
15 40 20
15 40 20
15 40 20
15 40 20
15 40 20
15 40 20
15 40 20
15 40 20
14 39 19
14 39 19
14 39 19
14 39 19
14 39 19
14 39 19
14 39 19
14 39 19
14 39 19
14 39 19
14 39 19
14 39 19
14 39 19
14 39 19
14 39 19
14 39 19
14 39 19
14 39 19
14 39 19
14 39 19
14 39 19
14 39 19
14 39 19
14 39 19
14 39 19
14 39 19
14 39 19
14 39 19
14 39 19
14 39 19
14 39 19
14 39 19
14 39 19
14 39 19
14 39 19
14 39 19
14 39 19
3 10 5
3 10 5
3 10 5
3 10 5
3 10 5
3 10 5
3 10 5
3 10 5
3 10 5
3 10 5
3 10 5
3 10 5
3 10 5
3 10 5
3 10 5
3 10 5
3 10 5
14 39 19
14 39 19
14 39 19
14 39 19
14 39 19
14 39 19
14 39 19
14 39 19
14 39 19
14 39 19
14 39 19
14 39 19
14 39 19
14 39 19
14 39 19
0 0 0
0 0 0
0 0 0
0 0 0
0 0 0
0 0 0
0 0 0
0 0 0
0 0 0
0 0 0
0 0 0
0 0 0
0 0 0
0 0 0
0 0 0
0 0 0
0 0 0
0 0 0
0 0 0
0 0 0
0 0 0
0 0 0
0 0 0
0 0 0
0 0 0
0 0 0
0 0 0
0 0 0
0 0 0
0 0 0
0 0 0
0 0 0
0 0 0
0 0 0
0 0 0
0 0 0
0 0 0
0 0 0
0 0 0
15 40 20
15 40 20
15 40 20
15 40 20
15 40 20
15 40 20
15 40 20
15 40 20
15 40 20
15 40 20
15 40 20
15 40 20
15 40 20
15 40 20
15 40 20
15 40 20
15 40 20
15 40 20
15 40 20
15 40 20
15 40 20
15 40 20
15 40 20
15 40 20
15 40 20
15 40 20
15 40 20
15 40 20
15 40 20
15 40 20
15 40 20
15 40 20
15 40 20
15 40 20
15 40 20
15 40 20
15 40 20
15 40 20
15 40 20
15 40 20
15 40 20
15 40 20
15 40 20
15 40 20
15 40 20
15 40 20
15 40 20
15 40 20
15 40 20
15 40 20
15 40 20
15 40 20
15 40 20
15 40 20
15 40 20
15 40 20
15 40 20
15 40 20
15 40 20
15 40 20
15 40 20
15 40 20
15 40 20
15 40 20
15 40 20
15 40 20
15 40 20
15 40 20
15 40 20
15 40 20
15 40 20
15 40 20
15 40 20
15 40 20
15 40 20
15 40 20
15 40 20
15 40 20
15 40 20
15 40 20
15 40 20
15 40 20
15 40 20
15 40 20
15 40 20
15 40 20
15 40 20
15 40 20
15 40 20
15 40 20
15 40 20
15 40 20
15 40 20
15 40 20
15 40 20
15 40 20
15 40 20
15 40 20
15 40 20
15 40 20
15 40 20
15 40 20
15 40 20
15 40 20
15 40 20
15 40 20
15 40 20
15 40 20
15 40 20
15 40 20
15 40 20
15 40 20
15 40 20
15 40 20
15 40 20
15 40 20
15 40 20
15 40 20
15 40 20
15 40 20
15 40 20
15 40 20
15 40 20
15 40 20
15 40 20
15 40 20
15 40 20
15 40 20
15 40 20
15 40 20
15 40 20
15 40 20
15 40 20
15 40 20
15 40 20
15 40 20
15 40 20
15 40 20
15 40 20
15 40 20
15 40 20
15 40 20
15 40 20
15 40 20
15 40 20
15 40 20
15 40 20
15 40 20
15 40 20
15 40 20
15 40 20
15 40 20
15 40 20
15 40 20
15 40 20
15 40 20
15 40 20
15 40 20
15 40 20
15 40 20
15 40 20
15 40 20
15 40 20
15 40 20
15 40 20
15 40 20
15 40 20
15 40 20
15 40 20
15 40 20
15 40 20
15 40 20
15 40 20
15 40 20
15 40 20
15 40 20
15 40 20
15 40 20
15 40 20
15 40 20
14 39 19
14 39 19
14 39 19
14 39 19
14 39 19
14 39 19
14 39 19
14 39 19
14 39 19
14 39 19
14 39 19
14 39 19
14 39 19
14 39 19
14 39 19
14 39 19
14 39 19
14 39 19
14 39 19
14 39 19
14 39 19
14 39 19
14 39 19
14 39 19
14 39 19
14 39 19
14 39 19
14 39 19
14 39 19
14 39 19
14 39 19
14 39 19
14 39 19
14 39 19
14 39 19
14 39 19
14 39 19
14 39 19
14 39 19
14 39 19
14 39 19
14 39 19
14 39 19
14 39 19
14 38 19
14 38 19
14 38 19
14 38 19
14 38 19
3 10 5
3 10 5
3 10 5
3 10 5
3 10 5
3 10 5
3 10 5
3 10 5
3 10 5
3 10 5
3 10 5
3 10 5
3 10 5
14 38 19
14 38 19
14 38 19
14 38 19
14 38 19
14 38 19
14 38 19
14 38 19
14 38 19
14 38 19
14 38 19
14 39 19
14 39 19
14 39 19
14 39 19
14 39 19
14 39 19
14 39 19
14 39 19
0 0 0
0 0 0
0 0 0
0 0 0
0 0 0
0 0 0
0 0 0
0 0 0
0 0 0
0 0 0
0 0 0
0 0 0
0 0 0
0 0 0
0 0 0
0 0 0
0 0 0
0 0 0
0 0 0
0 0 0
0 0 0
0 0 0
0 0 0
0 0 0
0 0 0
0 0 0
0 0 0
0 0 0
0 0 0
0 0 0
0 0 0
0 0 0
0 0 0
0 0 0
0 0 0
0 0 0
0 0 0
0 0 0
14 39 19
14 39 19
14 39 19
14 39 19
15 40 20
15 40 20
15 40 20
15 40 20
15 40 20
15 40 20
15 40 20
15 40 20
15 40 20
15 40 20
15 40 20
15 40 20
15 40 20
15 40 20
15 40 20
15 40 20
15 40 20
15 40 20
15 40 20
15 40 20
15 40 20
15 40 20
15 40 20
15 40 20
15 40 20
15 40 20
15 40 20
15 40 20
15 40 20
15 40 20
15 40 20
15 40 20
15 40 20
15 40 20
15 40 20
15 40 20
15 40 20
15 40 20
15 40 20
15 40 20
15 40 20
15 40 20
15 40 20
15 40 20
15 40 20
15 40 20
15 40 20
15 40 20
15 40 20
15 40 20
15 40 20
15 40 20
15 40 20
15 40 20
15 40 20
15 40 20
15 40 20
15 40 20
15 40 20
15 40 20
15 40 20
15 40 20
15 40 20
15 40 20
15 40 20
15 40 20
15 40 20
15 40 20
15 40 20
15 40 20
15 40 20
15 40 20
15 40 20
15 40 20
15 40 20
15 40 20
15 40 20
15 40 20
15 40 20
15 40 20
15 40 20
15 40 20
15 40 20
15 40 20
15 40 20
15 40 20
15 40 20
15 40 20
15 40 20
15 40 20
15 40 20
15 40 20
15 40 20
15 40 20
15 40 20
15 40 20
15 40 20
15 40 20
15 40 20
15 40 20
15 40 20
15 40 20
15 40 20
15 40 20
15 40 20
15 40 20
15 40 20
15 40 20
15 40 20
15 40 20
15 40 20
15 40 20
15 40 20
15 40 20
15 40 20
15 40 20
15 40 20
15 40 20
15 40 20
15 40 20
15 40 20
15 40 20
15 40 20
15 40 20
15 40 20
15 40 20
15 40 20
15 40 20
15 40 20
15 40 20
15 40 20
15 40 20
15 40 20
15 40 20
15 40 20
15 40 20
15 40 20
15 40 20
15 40 20
15 40 20
15 40 20
15 40 20
15 40 20
15 40 20
15 40 20
15 40 20
15 40 20
15 40 20
15 40 20
15 40 20
15 40 20
15 40 20
15 40 20
15 40 20
15 40 20
15 40 20
15 40 20
15 40 20
15 40 20
15 40 20
15 40 20
15 40 20
14 39 19
14 39 19
14 39 19
14 39 19
14 39 19
14 39 19
14 39 19
14 39 19
14 39 19
14 39 19
14 39 19
14 39 19
14 39 19
14 39 19
14 39 19
14 39 19
14 39 19
14 39 19
14 39 19
14 39 19
14 39 19
14 39 19
14 39 19
14 39 19
14 39 19
14 39 19
14 39 19
14 39 19
14 39 19
14 39 19
14 39 19
14 39 19
14 39 19
14 39 19
14 39 19
14 39 19
14 39 19
14 39 19
14 39 19
14 39 19
14 39 19
14 39 19
14 39 19
14 39 19
14 39 19
14 39 19
14 39 19
14 39 19
14 39 19
14 39 19
14 38 19
14 38 19
14 38 19
14 38 19
14 38 19
14 38 19
14 38 19
14 38 19
14 38 19
14 38 19
14 38 19
14 38 19
14 38 19
14 38 19
3 10 5
3 10 5
3 10 5
3 10 5
3 10 5
3 10 5
3 10 5
3 10 5
14 38 19
14 38 19
14 38 19
14 38 19
14 38 19
14 38 19
14 38 19
14 38 19
14 38 19
14 38 19
14 38 19
14 38 19
14 38 19
14 38 19
14 38 19
14 38 19
14 38 19
14 38 19
14 38 19
14 38 19
14 38 19
14 38 19
14 38 19
14 38 19
14 38 19
0 0 0
0 0 0
0 0 0
0 0 0
0 0 0
0 0 0
0 0 0
0 0 0
0 0 0
0 0 0
0 0 0
0 0 0
0 0 0
0 0 0
0 0 0
0 0 0
0 0 0
0 0 0
0 0 0
0 0 0
0 0 0
0 0 0
0 0 0
0 0 0
0 0 0
0 0 0
0 0 0
0 0 0
0 0 0
0 0 0
0 0 0
0 0 0
0 0 0
0 0 0
0 0 0
0 0 0
14 39 19
14 39 19
14 39 19
14 39 19
14 39 19
14 39 19
14 39 19
14 39 19
14 39 19
14 39 19
14 39 19
14 39 19
14 39 19
14 39 19
14 39 19
14 39 19
14 39 19
14 39 19
14 39 19
14 39 19
14 39 19
14 39 19
14 39 19
14 39 19
15 40 20
15 40 20
15 40 20
15 40 20
15 40 20
15 40 20
15 40 20
15 40 20
15 40 20
15 40 20
15 40 20
15 40 20
15 40 20
15 40 20
15 40 20
15 40 20
15 40 20
15 40 20
15 40 20
15 40 20
15 40 20
15 40 20
15 40 20
15 40 20
15 40 20
15 40 20
15 40 20
15 40 20
15 40 20
15 40 20
15 40 20
15 40 20
15 40 20
15 40 20
15 40 20
15 40 20
15 40 20
15 40 20
15 40 20
15 40 20
15 40 20
15 40 20
15 40 20
15 40 20
15 40 20
15 40 20
15 40 20
15 40 20
15 40 20
15 40 20
15 40 20
15 40 20
15 40 20
15 40 20
15 40 20
15 40 20
15 40 20
15 40 20
15 40 20
15 40 20
15 40 20
15 40 20
15 40 20
15 40 20
15 40 20
15 40 20
15 40 20
15 40 20
15 40 20
15 40 20
15 40 20
15 40 20
15 40 20
15 40 20
15 40 20
15 40 20
15 40 20
15 40 20
15 40 20
15 40 20
15 40 20
15 40 20
15 40 20
15 40 20
15 40 20
15 40 20
15 40 20
15 40 20
15 40 20
15 40 20
15 40 20
15 40 20
15 40 20
15 40 20
15 40 20
15 40 20
15 40 20
15 40 20
15 40 20
15 40 20
15 40 20
15 40 20
15 40 20
15 40 20
15 40 20
15 40 20
15 40 20
15 40 20
15 40 20
15 40 20
15 40 20
15 40 20
15 40 20
15 40 20
15 40 20
15 40 20
15 40 20
15 40 20
15 40 20
15 40 20
15 40 20
15 40 20
15 40 20
15 40 20
14 39 19
14 39 19
14 39 19
14 39 19
14 39 19
14 39 19
14 39 19
14 39 19
14 39 19
14 39 19
14 39 19
14 39 19
14 39 19
14 39 19
14 39 19
14 39 19
14 39 19
14 39 19
14 39 19
14 39 19
14 39 19
14 39 19
14 39 19
14 39 19
14 39 19
14 39 19
14 39 19
14 39 19
14 39 19
14 39 19
14 39 19
14 39 19
14 39 19
14 39 19
14 39 19
14 39 19
14 39 19
14 39 19
14 39 19
14 39 19
14 39 19
14 39 19
14 39 19
14 39 19
14 39 19
14 39 19
14 39 19
14 39 19
14 39 19
14 39 19
14 39 19
14 39 19
14 39 19
14 39 19
14 39 19
14 39 19
14 39 19
14 39 19
14 39 19
14 39 19
14 38 19
14 38 19
14 38 19
14 38 19
14 38 19
14 38 19
14 38 19
14 38 19
14 38 19
14 38 19
14 38 19
14 38 19
14 38 19
14 38 19
14 38 19
14 38 19
14 38 19
14 38 19
14 38 19
14 38 19
14 38 19
14 38 19
14 38 19
3 10 5
3 10 5
14 38 19
14 38 19
14 38 19
14 38 19
14 38 19
14 38 19
14 38 19
14 38 19
14 38 19
14 38 19
14 38 19
14 38 19
14 38 19
14 38 19
14 38 19
14 38 19
14 38 19
14 38 19
14 38 19
14 38 19
14 38 19
14 38 19
14 38 19
14 38 19
14 38 19
14 38 19
14 38 19
14 38 19
14 38 19
14 38 19
14 38 19
14 38 19
0 0 0
0 0 0
0 0 0
0 0 0
0 0 0
0 0 0
0 0 0
0 0 0
0 0 0
0 0 0
0 0 0
0 0 0
0 0 0
0 0 0
0 0 0
0 0 0
0 0 0
0 0 0
0 0 0
0 0 0
0 0 0
0 0 0
0 0 0
0 0 0
0 0 0
0 0 0
0 0 0
0 0 0
0 0 0
0 0 0
0 0 0
0 0 0
0 0 0
0 0 0
14 39 19
14 39 19
14 39 19
14 39 19
14 39 19
14 39 19
14 39 19
14 39 19
14 39 19
14 39 19
14 39 19
14 39 19
14 39 19
14 39 19
14 39 19
14 39 19
14 39 19
14 39 19
14 39 19
14 39 19
14 39 19
14 39 19
14 39 19
14 39 19
14 39 19
14 39 19
14 39 19
14 39 19
14 39 19
14 39 19
14 39 19
14 39 19
14 39 19
14 39 19
14 39 19
14 39 19
14 39 19
14 39 19
14 39 19
14 39 19
14 39 19
14 39 19
14 39 19
14 39 19
14 39 19
14 39 19
14 39 19
14 39 19
14 39 19
14 39 19
14 39 19
14 39 19
14 39 19
14 39 19
14 39 19
14 39 19
15 40 20
15 40 20
15 40 20
15 40 20
15 40 20
15 40 20
15 40 20
15 40 20
15 40 20
15 40 20
15 40 20
15 40 20
15 40 20
15 40 20
15 40 20
15 40 20
15 40 20
15 40 20
15 40 20
15 40 20
15 40 20
15 40 20
15 40 20
15 40 20
15 40 20
15 40 20
15 40 20
15 40 20
15 40 20
15 40 20
15 40 20
15 40 20
15 40 20
15 40 20
15 40 20
15 40 20
15 40 20
15 40 20
15 40 20
15 40 20
15 40 20
15 40 20
15 40 20
15 40 20
15 40 20
15 40 20
15 40 20
15 40 20
15 40 20
15 40 20
15 40 20
15 40 20
15 40 20
15 40 20
15 40 20
15 40 20
15 40 20
15 40 20
15 40 20
15 40 20
15 40 20
15 40 20
14 39 19
14 39 19
14 39 19
14 39 19
14 39 19
14 39 19
14 39 19
14 39 19
14 39 19
14 39 19
14 39 19
14 39 19
14 39 19
14 39 19
14 39 19
14 39 19
14 39 19
14 39 19
14 39 19
14 39 19
14 39 19
14 39 19
14 39 19
14 39 19
14 39 19
14 39 19
14 39 19
14 39 19
14 39 19
14 39 19
14 39 19
14 39 19
14 39 19
14 39 19
14 39 19
14 39 19
14 39 19
14 39 19
14 39 19
14 39 19
14 39 19
14 39 19
14 39 19
14 39 19
14 39 19
14 39 19
14 39 19
14 39 19
14 39 19
14 39 19
14 39 19
14 39 19
14 39 19
14 39 19
14 39 19
14 39 19
14 39 19
14 39 19
14 39 19
14 39 19
14 39 19
14 39 19
14 39 19
14 39 19
14 39 19
14 39 19
14 39 19
14 39 19
14 39 19
14 39 19
14 39 19
14 39 19
14 39 19
14 39 19
14 39 19
14 39 19
14 39 19
14 39 19
14 39 19
14 39 19
14 38 19
14 38 19
14 38 19
14 38 19
14 38 19
14 38 19
14 38 19
14 38 19
14 38 19
14 38 19
14 38 19
14 38 19
14 38 19
14 38 19
14 38 19
14 38 19
14 38 19
14 38 19
14 38 19
14 38 19
14 38 19
14 38 19
14 38 19
14 38 19
14 38 19
14 38 19
14 38 19
14 38 19
14 38 19
14 38 19
14 38 19
14 38 19
14 38 19
14 38 19
14 37 18
14 37 18
14 37 18
14 37 18
14 38 19
14 38 19
14 38 19
14 38 19
14 38 19
14 38 19
14 38 19
14 38 19
14 38 19
14 38 19
14 38 19
14 38 19
14 38 19
14 38 19
14 38 19
14 38 19
14 38 19
14 38 19
14 38 19
14 38 19
14 38 19
14 38 19
14 38 19
14 38 19
14 38 19
14 38 19
14 38 19
14 38 19
14 38 19
14 38 19
14 38 19
0 0 0
0 0 0
0 0 0
0 0 0
0 0 0
0 0 0
0 0 0
0 0 0
0 0 0
0 0 0
0 0 0
0 0 0
0 0 0
0 0 0
0 0 0
0 0 0
0 0 0
0 0 0
0 0 0
0 0 0
0 0 0
0 0 0
0 0 0
0 0 0
0 0 0
0 0 0
0 0 0
0 0 0
0 0 0
0 0 0
0 0 0
0 0 0
14 39 19
14 39 19
14 39 19
14 39 19
14 39 19
14 39 19
14 39 19
14 39 19
14 39 19
14 39 19
14 39 19
14 39 19
14 39 19
14 39 19
14 39 19
14 39 19
14 39 19
14 39 19
14 39 19
14 39 19
14 39 19
14 39 19
14 39 19
14 39 19
14 39 19
14 39 19
14 39 19
14 39 19
14 39 19
14 39 19
14 39 19
14 39 19
14 39 19
14 39 19
14 39 19
14 39 19
14 39 19
14 39 19
14 39 19
14 39 19
14 39 19
14 39 19
14 39 19
14 39 19
14 39 19
14 39 19
14 39 19
14 39 19
14 39 19
14 39 19
14 39 19
14 39 19
14 39 19
14 39 19
14 39 19
14 39 19
14 39 19
14 39 19
14 39 19
14 39 19
14 39 19
14 39 19
14 39 19
14 39 19
14 39 19
14 39 19
14 39 19
14 39 19
14 39 19
14 39 19
14 39 19
14 39 19
14 39 19
14 39 19
14 39 19
14 39 19
14 39 19
14 39 19
14 39 19
14 39 19
14 39 19
14 39 19
14 39 19
14 39 19
14 39 19
14 39 19
14 39 19
14 39 19
14 39 19
14 39 19
14 39 19
14 39 19
14 39 19
14 39 19
14 39 19
14 39 19
14 39 19
14 39 19
14 39 19
14 39 19
14 39 19
14 39 19
14 39 19
14 39 19
14 39 19
14 39 19
14 39 19
14 39 19
14 39 19
14 39 19
14 39 19
14 39 19
14 39 19
14 39 19
14 39 19
14 39 19
14 39 19
14 39 19
14 39 19
14 39 19
14 39 19
14 39 19
14 39 19
14 39 19
14 39 19
14 39 19
14 39 19
14 39 19
14 39 19
14 39 19
14 39 19
14 39 19
14 39 19
14 39 19
14 39 19
14 39 19
14 39 19
14 39 19
14 39 19
14 39 19
14 39 19
14 39 19
14 39 19
14 39 19
14 39 19
14 39 19
14 39 19
14 39 19
14 39 19
14 39 19
14 39 19
14 39 19
14 39 19
14 39 19
14 39 19
14 39 19
14 39 19
14 39 19
14 39 19
14 39 19
14 39 19
14 39 19
14 39 19
14 39 19
14 39 19
14 39 19
14 39 19
14 39 19
14 39 19
14 39 19
14 39 19
14 39 19
14 39 19
14 39 19
14 39 19
14 39 19
14 39 19
14 39 19
14 39 19
14 39 19
14 39 19
14 39 19
14 39 19
14 39 19
14 39 19
14 39 19
14 39 19
14 38 19
14 38 19
14 38 19
14 38 19
14 38 19
14 38 19
14 38 19
14 38 19
14 38 19
14 38 19
14 38 19
14 38 19
14 38 19
14 38 19
14 38 19
14 38 19
14 38 19
14 38 19
14 38 19
14 38 19
14 38 19
14 38 19
14 38 19
14 38 19
14 38 19
14 38 19
14 38 19
14 38 19
14 38 19
14 38 19
14 38 19
14 38 19
14 38 19
14 38 19
14 38 19
14 38 19
14 38 19
14 38 19
14 38 19
14 38 19
14 38 19
14 38 19
14 38 19
14 38 19
14 38 19
14 38 19
14 37 18
14 37 18
14 37 18
14 37 18
14 37 18
14 37 18
14 37 18
14 37 18
14 37 18
14 37 18
14 37 18
14 37 18
14 38 19
14 38 19
14 38 19
14 38 19
14 38 19
14 38 19
14 38 19
14 38 19
14 38 19
14 38 19
14 38 19
14 38 19
14 38 19
14 38 19
14 38 19
14 38 19
14 38 19
14 38 19
14 38 19
14 38 19
14 38 19
14 38 19
14 38 19
14 38 19
0 0 0
0 0 0
0 0 0
0 0 0
0 0 0
0 0 0
0 0 0
0 0 0
0 0 0
0 0 0
0 0 0
0 0 0
0 0 0
0 0 0
0 0 0
0 0 0
0 0 0
0 0 0
0 0 0
0 0 0
0 0 0
0 0 0
0 0 0
0 0 0
0 0 0
0 0 0
0 0 0
0 0 0
0 0 0
0 0 0
14 38 19
14 38 19
14 38 19
14 38 19
14 38 19
14 38 19
14 39 19
14 39 19
14 39 19
14 39 19
14 39 19
14 39 19
14 39 19
14 39 19
14 39 19
14 39 19
14 39 19
14 39 19
14 39 19
14 39 19
14 39 19
14 39 19
14 39 19
14 39 19
14 39 19
14 39 19
14 39 19
14 39 19
14 39 19
14 39 19
14 39 19
14 39 19
14 39 19
14 39 19
14 39 19
14 39 19
14 39 19
14 39 19
14 39 19
14 39 19
14 39 19
14 39 19
14 39 19
14 39 19
14 39 19
14 39 19
14 39 19
14 39 19
14 39 19
14 39 19
14 39 19
14 39 19
14 39 19
14 39 19
14 39 19
14 39 19
14 39 19
14 39 19
14 39 19
14 39 19
14 39 19
14 39 19
14 39 19
14 39 19
14 39 19
14 39 19
14 39 19
14 39 19
14 39 19
14 39 19
14 39 19
14 39 19
14 39 19
14 39 19
14 39 19
14 39 19
14 39 19
14 39 19
14 39 19
14 39 19
14 39 19
14 39 19
14 39 19
14 39 19
14 39 19
14 39 19
14 39 19
14 39 19
14 39 19
14 39 19
14 39 19
14 39 19
14 39 19
14 39 19
14 39 19
14 39 19
14 39 19
14 39 19
14 39 19
14 39 19
14 39 19
14 39 19
14 39 19
14 39 19
14 39 19
14 39 19
14 39 19
14 39 19
14 39 19
14 39 19
14 39 19
14 39 19
14 39 19
14 39 19
14 39 19
14 39 19
14 39 19
14 39 19
14 39 19
14 39 19
14 39 19
14 39 19
14 39 19
14 39 19
14 39 19
14 39 19
14 39 19
14 39 19
14 39 19
14 39 19
14 39 19
14 39 19
14 39 19
14 39 19
14 39 19
14 39 19
14 39 19
14 39 19
14 39 19
14 39 19
14 39 19
14 39 19
14 39 19
14 39 19
14 39 19
14 39 19
14 39 19
14 39 19
14 39 19
14 39 19
14 39 19
14 39 19
14 39 19
14 39 19
14 39 19
14 39 19
14 39 19
14 39 19
14 39 19
14 39 19
14 39 19
14 39 19
14 39 19
14 39 19
14 39 19
14 39 19
14 39 19
14 39 19
14 39 19
14 39 19
14 39 19
14 39 19
14 39 19
14 38 19
14 38 19
14 38 19
14 38 19
14 38 19
14 38 19
14 38 19
14 38 19
14 38 19
14 38 19
14 38 19
14 38 19
14 38 19
14 38 19
14 38 19
14 38 19
14 38 19
14 38 19
14 38 19
14 38 19
14 38 19
14 38 19
14 38 19
14 38 19
14 38 19
14 38 19
14 38 19
14 38 19
14 38 19
14 38 19
14 38 19
14 38 19
14 38 19
14 38 19
14 38 19
14 38 19
14 38 19
14 38 19
14 38 19
14 38 19
14 38 19
14 38 19
14 38 19
14 38 19
14 38 19
14 38 19
14 38 19
14 38 19
14 38 19
14 38 19
14 38 19
14 38 19
14 38 19
14 38 19
14 38 19
14 38 19
14 38 19
14 38 19
14 38 19
14 38 19
14 37 18
14 37 18
14 37 18
14 37 18
14 37 18
14 37 18
14 37 18
14 37 18
14 37 18
14 37 18
14 37 18
14 37 18
14 37 18
14 37 18
14 37 18
14 37 18
14 37 18
14 37 18
14 37 18
14 37 18
14 37 18
14 37 18
14 38 19
14 38 19
14 38 19
14 38 19
14 38 19
14 38 19
14 38 19
14 38 19
14 38 19
14 38 19
14 38 19
14 38 19
14 38 19
14 38 19
14 38 19
14 38 19
0 0 0
0 0 0
0 0 0
0 0 0
0 0 0
0 0 0
0 0 0
0 0 0
0 0 0
0 0 0
0 0 0
0 0 0
0 0 0
0 0 0
0 0 0
0 0 0
0 0 0
0 0 0
0 0 0
0 0 0
0 0 0
0 0 0
0 0 0
0 0 0
0 0 0
0 0 0
0 0 0
14 38 19
14 38 19
14 38 19
14 38 19
14 38 19
14 38 19
14 38 19
14 38 19
14 38 19
14 38 19
14 38 19
14 38 19
14 38 19
14 38 19
14 38 19
14 38 19
14 38 19
14 38 19
14 38 19
14 38 19
14 38 19
14 38 19
14 38 19
14 38 19
14 38 19
14 38 19
14 38 19
14 39 19
14 39 19
14 39 19
14 39 19
14 39 19
14 39 19
14 39 19
14 39 19
14 39 19
14 39 19
14 39 19
14 39 19
14 39 19
14 39 19
14 39 19
14 39 19
14 39 19
14 39 19
14 39 19
14 39 19
14 39 19
14 39 19
14 39 19
14 39 19
14 39 19
14 39 19
14 39 19
14 39 19
14 39 19
14 39 19
14 39 19
14 39 19
14 39 19
14 39 19
14 39 19
14 39 19
14 39 19
14 39 19
14 39 19
14 39 19
14 39 19
14 39 19
14 39 19
14 39 19
14 39 19
14 39 19
14 39 19
14 39 19
14 39 19
14 39 19
14 39 19
14 39 19
14 39 19
14 39 19
14 39 19
14 39 19
14 39 19
14 39 19
14 39 19
14 39 19
14 39 19
14 39 19
14 39 19
14 39 19
14 39 19
14 39 19
14 39 19
14 39 19
14 39 19
14 39 19
14 39 19
14 39 19
14 39 19
14 39 19
14 39 19
14 39 19
14 39 19
14 39 19
14 39 19
14 39 19
14 39 19
14 39 19
14 39 19
14 39 19
14 39 19
14 39 19
14 39 19
14 39 19
14 39 19
14 39 19
14 39 19
14 39 19
14 39 19
14 39 19
14 39 19
14 39 19
14 39 19
14 39 19
14 39 19
14 39 19
14 39 19
14 39 19
14 39 19
14 39 19
14 39 19
14 39 19
14 39 19
14 39 19
14 39 19
14 39 19
14 39 19
14 39 19
14 39 19
14 39 19
14 39 19
14 39 19
14 39 19
14 39 19
14 39 19
14 39 19
14 39 19
14 39 19
14 39 19
14 39 19
14 39 19
14 39 19
14 39 19
14 39 19
14 39 19
14 38 19
14 38 19
14 38 19
14 38 19
14 38 19
14 38 19
14 38 19
14 38 19
14 38 19
14 38 19
14 38 19
14 38 19
14 38 19
14 38 19
14 38 19
14 38 19
14 38 19
14 38 19
14 38 19
14 38 19
14 38 19
14 38 19
14 38 19
14 38 19
14 38 19
14 38 19
14 38 19
14 38 19
14 38 19
14 38 19
14 38 19
14 38 19
14 38 19
14 38 19
14 38 19
14 38 19
14 38 19
14 38 19
14 38 19
14 38 19
14 38 19
14 38 19
14 38 19
14 38 19
14 38 19
14 38 19
14 38 19
14 38 19
14 38 19
14 38 19
14 38 19
14 38 19
14 38 19
14 38 19
14 38 19
14 38 19
14 38 19
14 38 19
14 38 19
14 38 19
14 38 19
14 38 19
14 38 19
14 38 19
14 38 19
14 38 19
14 38 19
14 38 19
14 38 19
14 38 19
14 37 18
14 37 18
14 37 18
14 37 18
14 37 18
14 37 18
14 37 18
14 37 18
14 37 18
14 37 18
14 37 18
14 37 18
14 37 18
14 37 18
14 37 18
14 37 18
14 37 18
14 37 18
14 37 18
14 37 18
14 37 18
14 37 18
14 37 18
14 37 18
14 37 18
14 37 18
14 37 18
14 37 18
14 37 18
14 37 18
14 37 18
14 37 18
14 37 18
14 37 18
14 37 18
14 37 18
14 37 18
14 37 18
14 37 18
14 37 18
14 37 18
14 38 19
14 38 19
14 38 19
14 38 19
14 38 19
14 38 19
14 38 19
14 38 19
0 0 0
0 0 0
0 0 0
0 0 0
0 0 0
0 0 0
0 0 0
0 0 0
0 0 0
0 0 0
0 0 0
0 0 0
0 0 0
0 0 0
0 0 0
0 0 0
0 0 0
0 0 0
0 0 0
0 0 0
0 0 0
0 0 0
0 0 0
0 0 0
14 38 19
14 38 19
14 38 19
14 38 19
14 38 19
14 38 19
14 38 19
14 38 19
14 38 19
14 38 19
14 38 19
14 38 19
14 38 19
14 38 19
14 38 19
14 38 19
14 38 19
14 38 19
14 38 19
14 38 19
14 38 19
14 38 19
14 38 19
14 38 19
14 38 19
14 38 19
14 38 19
14 38 19
14 38 19
14 38 19
14 38 19
14 38 19
14 38 19
14 38 19
14 38 19
14 38 19
14 38 19
14 38 19
14 38 19
14 38 19
14 38 19
14 38 19
14 38 19
14 38 19
14 38 19
14 38 19
14 38 19
14 38 19
14 38 19
14 38 19
14 38 19
14 38 19
14 38 19
14 38 19
14 38 19
14 38 19
14 38 19
14 38 19
14 38 19
14 39 19
14 39 19
14 39 19
14 39 19
14 39 19
14 39 19
14 39 19
14 39 19
14 39 19
14 39 19
14 39 19
14 39 19
14 39 19
14 39 19
14 39 19
14 39 19
14 39 19
14 39 19
14 39 19
14 39 19
14 39 19
14 39 19
14 39 19
14 39 19
14 39 19
14 39 19
14 39 19
14 39 19
14 39 19
14 39 19
14 39 19
14 39 19
14 39 19
14 39 19
14 39 19
14 39 19
14 39 19
14 39 19
14 39 19
14 39 19
14 39 19
14 39 19
14 39 19
14 39 19
14 39 19
14 39 19
14 39 19
14 39 19
14 39 19
14 39 19
14 39 19
14 39 19
14 39 19
14 39 19
14 39 19
14 39 19
14 39 19
14 39 19
14 39 19
14 39 19
14 39 19
14 39 19
14 39 19
14 39 19
14 39 19
14 39 19
14 39 19
14 38 19
14 38 19
14 38 19
14 38 19
14 38 19
14 38 19
14 38 19
14 38 19
14 38 19
14 38 19
14 38 19
14 38 19
14 38 19
14 38 19
14 38 19
14 38 19
14 38 19
14 38 19
14 38 19
14 38 19
14 38 19
14 38 19
14 38 19
14 38 19
14 38 19
14 38 19
14 38 19
14 38 19
14 38 19
14 38 19
14 38 19
14 38 19
14 38 19
14 38 19
14 38 19
14 38 19
14 38 19
14 38 19
14 38 19
14 38 19
14 38 19
14 38 19
14 38 19
14 38 19
14 38 19
14 38 19
14 38 19
14 38 19
14 38 19
14 38 19
14 38 19
14 38 19
14 38 19
14 38 19
14 38 19
14 38 19
14 38 19
14 38 19
14 38 19
14 38 19
14 38 19
14 38 19
14 38 19
14 38 19
14 38 19
14 38 19
14 38 19
14 38 19
14 38 19
14 38 19
14 38 19
14 38 19
14 38 19
14 38 19
14 38 19
14 38 19
14 38 19
14 38 19
14 38 19
14 38 19
14 38 19
14 38 19
14 38 19
14 38 19
14 38 19
14 38 19
14 38 19
14 38 19
14 38 19
14 38 19
14 38 19
14 38 19
14 37 18
14 37 18
14 37 18
14 37 18
14 37 18
14 37 18
14 37 18
14 37 18
14 37 18
14 37 18
14 37 18
14 37 18
14 37 18
14 37 18
14 37 18
14 37 18
14 37 18
14 37 18
14 37 18
13 37 18
14 37 18
14 37 18
14 37 18
14 37 18
14 37 18
14 37 18
14 37 18
14 37 18
14 37 18
14 37 18
14 37 18
14 37 18
14 37 18
14 37 18
14 37 18
14 37 18
14 37 18
14 37 18
14 37 18
14 37 18
14 37 18
14 37 18
14 37 18
14 37 18
14 37 18
14 37 18
14 37 18
14 37 18
14 37 18
14 37 18
14 37 18
14 37 18
14 37 18
14 37 18
14 37 18
14 37 18
14 37 18
14 37 18
14 37 18
14 37 18
0 0 0
0 0 0
0 0 0
0 0 0
0 0 0
0 0 0
0 0 0
0 0 0
0 0 0
0 0 0
0 0 0
0 0 0
0 0 0
0 0 0
0 0 0
0 0 0
0 0 0
0 0 0
0 0 0
14 38 19
14 38 19
14 38 19
14 38 19
14 38 19
14 38 19
14 38 19
14 38 19
14 38 19
14 38 19
14 38 19
14 38 19
14 38 19
14 38 19
14 38 19
14 38 19
14 38 19
14 38 19
14 38 19
14 38 19
14 38 19
14 38 19
14 38 19
14 38 19
14 38 19
14 38 19
14 38 19
14 38 19
14 38 19
14 38 19
14 38 19
14 38 19
14 38 19
14 38 19
14 38 19
14 38 19
14 38 19
14 38 19
14 38 19
14 38 19
14 38 19
14 38 19
14 38 19
14 38 19
14 38 19
14 38 19
14 38 19
14 38 19
14 38 19
14 38 19
14 38 19
14 38 19
14 38 19
14 38 19
14 38 19
14 38 19
14 38 19
14 38 19
14 38 19
14 38 19
14 38 19
14 38 19
14 38 19
14 38 19
14 38 19
14 38 19
14 38 19
14 38 19
14 38 19
14 38 19
14 38 19
14 38 19
14 38 19
14 38 19
14 38 19
14 38 19
14 38 19
14 38 19
14 38 19
14 38 19
14 38 19
14 38 19
14 38 19
14 38 19
14 38 19
14 38 19
14 38 19
14 38 19
14 38 19
14 38 19
14 38 19
14 38 19
14 38 19
14 38 19
14 38 19
14 38 19
14 38 19
14 38 19
14 38 19
14 38 19
14 38 19
14 38 19
14 38 19
14 38 19
14 38 19
14 38 19
14 38 19
14 38 19
14 38 19
14 38 19
14 38 19
14 38 19
14 38 19
14 38 19
14 38 19
14 38 19
14 38 19
14 38 19
14 38 19
14 38 19
14 38 19
14 38 19
14 38 19
14 38 19
14 38 19
14 38 19
14 38 19
14 38 19
14 38 19
14 38 19
14 38 19
14 38 19
14 38 19
14 38 19
14 38 19
14 38 19
14 38 19
14 38 19
14 38 19
14 38 19
14 38 19
14 38 19
14 38 19
14 38 19
14 38 19
14 38 19
14 38 19
14 38 19
14 38 19
14 38 19
14 38 19
14 38 19
14 38 19
14 38 19
14 38 19
14 38 19
14 38 19
14 38 19
14 38 19
14 38 19
14 38 19
14 38 19
14 38 19
14 38 19
14 38 19
14 38 19
14 38 19
14 38 19
14 38 19
14 38 19
14 38 19
14 38 19
14 38 19
14 38 19
14 38 19
14 38 19
14 38 19
14 38 19
14 38 19
14 38 19
14 38 19
14 38 19
14 38 19
14 38 19
14 38 19
14 38 19
14 38 19
14 38 19
14 38 19
14 38 19
14 38 19
14 38 19
14 38 19
14 38 19
14 38 19
14 38 19
14 38 19
14 38 19
14 38 19
14 38 19
14 38 19
14 38 19
14 38 19
14 38 19
14 38 19
14 38 19
14 38 19
14 38 19
14 38 19
14 37 18
14 37 18
14 37 18
14 37 18
14 37 18
14 37 18
14 37 18
14 37 18
14 37 18
14 37 18
14 37 18
14 37 18
14 37 18
14 37 18
14 37 18
14 37 18
14 37 18
14 37 18
14 37 18
14 37 18
14 37 18
14 37 18
14 37 18
14 37 18
14 37 18
14 37 18
14 37 18
14 37 18
14 37 18
14 37 18
14 37 18
13 37 18
13 37 18
13 37 18
13 37 18
13 37 18
13 37 18
13 37 18
13 37 18
13 37 18
14 37 18
14 37 18
14 37 18
14 37 18
14 37 18
14 37 18
14 37 18
14 37 18
14 37 18
14 37 18
14 37 18
14 37 18
14 37 18
14 37 18
14 37 18
14 37 18
14 37 18
14 37 18
14 37 18
14 37 18
14 37 18
14 37 18
14 37 18
14 37 18
14 37 18
14 37 18
14 37 18
14 37 18
14 37 18
14 37 18
14 37 18
14 37 18
14 37 18
14 37 18
14 37 18
0 0 0
0 0 0
0 0 0
0 0 0
0 0 0
0 0 0
0 0 0
0 0 0
0 0 0
0 0 0
0 0 0
0 0 0
0 0 0
14 38 19
14 38 19
14 38 19
14 38 19
14 38 19
14 38 19
14 38 19
14 38 19
14 38 19
14 38 19
14 38 19
14 38 19
14 38 19
14 38 19
14 38 19
14 38 19
14 38 19
14 38 19
14 38 19
14 38 19
14 38 19
14 38 19
14 38 19
14 38 19
14 38 19
14 38 19
14 38 19
14 38 19
14 38 19
14 38 19
14 38 19
14 38 19
14 38 19
14 38 19
14 38 19
14 38 19
14 38 19
14 38 19
14 38 19
14 38 19
14 38 19
14 38 19
14 38 19
14 38 19
14 38 19
14 38 19
14 38 19
14 38 19
14 38 19
14 38 19
14 38 19
14 38 19
14 38 19
14 38 19
14 38 19
14 38 19
14 38 19
14 38 19
14 38 19
14 38 19
14 38 19
14 38 19
14 38 19
14 38 19
14 38 19
14 38 19
14 38 19
14 38 19
14 38 19
14 38 19
14 38 19
14 38 19
14 38 19
14 38 19
14 38 19
14 38 19
14 38 19
14 38 19
14 38 19
14 38 19
14 38 19
14 38 19
14 38 19
14 38 19
14 38 19
14 38 19
14 38 19
14 38 19
14 38 19
14 38 19
14 38 19
14 38 19
14 38 19
14 38 19
14 38 19
14 38 19
14 38 19
14 38 19
14 38 19
14 38 19
14 38 19
14 38 19
14 38 19
14 38 19
14 38 19
14 38 19
14 38 19
14 38 19
14 38 19
14 38 19
14 38 19
14 38 19
14 38 19
14 38 19
14 38 19
14 38 19
14 38 19
14 38 19
14 38 19
14 38 19
14 38 19
14 38 19
14 38 19
14 38 19
14 38 19
14 38 19
14 38 19
14 38 19
14 38 19
14 38 19
14 38 19
14 38 19
14 38 19
14 38 19
14 38 19
14 38 19
14 38 19
14 38 19
14 38 19
14 38 19
14 38 19
14 38 19
14 38 19
14 38 19
14 38 19
14 38 19
14 38 19
14 38 19
14 38 19
14 38 19
14 38 19
14 38 19
14 38 19
14 38 19
14 38 19
14 38 19
14 38 19
14 38 19
14 38 19
14 38 19
14 38 19
14 38 19
14 38 19
14 38 19
14 38 19
14 38 19
14 38 19
14 38 19
14 38 19
14 38 19
14 38 19
14 38 19
14 38 19
14 38 19
14 38 19
14 38 19
14 38 19
14 38 19
14 38 19
14 38 19
14 38 19
14 38 19
14 38 19
14 38 19
14 38 19
14 38 19
14 38 19
14 38 19
14 38 19
14 38 19
14 38 19
14 38 19
14 38 19
14 38 19
14 38 19
14 38 19
14 38 19
14 38 19
14 38 19
14 38 19
14 37 18
14 37 18
14 37 18
14 37 18
14 37 18
14 37 18
14 37 18
14 37 18
14 37 18
14 37 18
14 37 18
14 37 18
14 37 18
14 37 18
14 37 18
14 37 18
14 37 18
14 37 18
14 37 18
14 37 18
14 37 18
14 37 18
14 37 18
14 37 18
14 37 18
14 37 18
14 37 18
14 37 18
14 37 18
14 37 18
14 37 18
14 37 18
14 37 18
14 37 18
14 37 18
14 37 18
14 37 18
14 37 18
14 37 18
14 37 18
14 37 18
14 37 18
14 37 18
13 37 18
13 37 18
13 37 18
13 37 18
13 37 18
13 37 18
13 37 18
13 37 18
13 37 18
13 37 18
13 37 18
13 37 18
13 37 18
13 37 18
13 37 18
13 37 18
13 37 18
13 37 18
14 37 18
14 37 18
14 37 18
14 37 18
14 37 18
14 37 18
14 37 18
14 37 18
14 37 18
14 37 18
14 37 18
14 37 18
14 37 18
14 37 18
14 37 18
14 37 18
14 37 18
14 37 18
14 37 18
14 37 18
14 37 18
14 37 18
14 37 18
14 37 18
14 37 18
14 37 18
14 37 18
14 37 18
14 37 18
14 37 18
14 37 18
14 37 18
14 37 18
14 37 18
14 37 18
14 37 18
14 37 18
14 37 18
14 37 18
14 37 18
14 37 18
14 37 18
14 37 18
14 37 18
14 37 18
14 37 18
14 37 18
14 37 18
14 37 18
14 37 18
14 37 18
14 37 18
14 37 18
14 38 19
14 38 19
14 38 19
14 38 19
14 38 19
14 38 19
14 38 19
14 38 19
14 38 19
14 38 19
14 38 19
14 38 19
14 38 19
14 38 19
14 38 19
14 38 19
14 38 19
14 38 19
14 38 19
14 38 19
14 38 19
14 38 19
14 38 19
14 38 19
14 38 19
14 38 19
14 38 19
14 38 19
14 38 19
14 38 19
14 38 19
14 38 19
14 38 19
14 38 19
14 38 19
14 38 19
14 38 19
14 38 19
14 38 19
14 38 19
14 38 19
14 38 19
14 38 19
14 38 19
14 38 19
14 38 19
14 38 19
14 38 19
14 38 19
14 38 19
14 38 19
14 38 19
14 38 19
14 38 19
14 38 19
14 38 19
14 38 19
14 38 19
14 38 19
14 38 19
14 38 19
14 38 19
14 38 19
14 38 19
14 38 19
14 38 19
14 38 19
14 38 19
14 38 19
14 38 19
14 38 19
14 38 19
14 38 19
14 38 19
14 38 19
14 38 19
14 38 19
14 38 19
14 38 19
14 38 19
14 38 19
14 38 19
14 38 19
14 38 19
14 38 19
14 38 19
14 38 19
14 38 19
14 38 19
14 38 19
14 38 19
14 38 19
14 38 19
14 38 19
14 38 19
14 38 19
14 38 19
14 38 19
14 38 19
14 38 19
14 38 19
14 38 19
14 38 19
14 38 19
14 38 19
14 38 19
14 38 19
14 38 19
14 38 19
14 38 19
14 38 19
14 38 19
14 38 19
14 38 19
14 38 19
14 38 19
14 38 19
14 38 19
14 38 19
14 38 19
14 38 19
14 38 19
14 38 19
14 38 19
14 38 19
14 38 19
14 38 19
14 38 19
14 38 19
14 38 19
14 38 19
14 38 19
14 38 19
14 38 19
14 38 19
14 38 19
14 38 19
14 38 19
14 38 19
14 38 19
14 38 19
14 38 19
14 38 19
14 38 19
14 38 19
14 38 19
14 38 19
14 38 19
14 38 19
14 38 19
14 38 19
14 38 19
14 38 19
14 38 19
14 38 19
14 38 19
14 38 19
14 38 19
14 38 19
14 38 19
14 38 19
14 38 19
14 38 19
14 38 19
14 38 19
14 38 19
14 38 19
14 38 19
14 38 19
14 38 19
14 37 18
14 37 18
14 37 18
14 37 18
14 37 18
14 37 18
14 37 18
14 37 18
14 37 18
14 37 18
14 37 18
14 37 18
14 37 18
14 37 18
14 37 18
14 37 18
14 37 18
14 37 18
14 37 18
14 37 18
14 37 18
14 37 18
14 37 18
14 37 18
14 37 18
14 37 18
14 37 18
14 37 18
14 37 18
14 37 18
14 37 18
14 37 18
14 37 18
14 37 18
14 37 18
14 37 18
14 37 18
14 37 18
14 37 18
14 37 18
14 37 18
14 37 18
14 37 18
14 37 18
14 37 18
14 37 18
14 37 18
14 37 18
14 37 18
14 37 18
14 37 18
14 37 18
13 37 18
13 37 18
13 37 18
13 37 18
13 37 18
13 37 18
13 37 18
13 36 18
13 36 18
13 36 18
13 36 18
13 36 18
13 36 18
13 37 18
13 37 18
13 37 18
13 37 18
13 37 18
13 37 18
13 37 18
13 37 18
13 37 18
13 37 18
13 37 18
13 37 18
13 37 18
13 37 18
13 37 18
13 37 18
13 37 18
13 37 18
13 37 18
13 37 18
13 37 18
13 37 18
14 37 18
14 37 18
14 37 18
14 37 18
14 37 18
14 37 18
14 37 18
14 37 18
14 37 18
14 37 18
14 37 18
14 37 18
14 37 18
14 37 18
14 37 18
14 37 18
14 37 18
14 37 18
14 37 18
14 37 18
14 37 18
14 37 18
14 37 18
14 37 18
14 37 18
14 37 18
14 37 18
14 37 18
14 37 18
14 37 18
14 37 18
14 37 18
14 37 18
14 37 18
14 37 18
14 37 18
14 37 18
14 37 18
14 37 18
14 37 18
14 37 18
14 37 18
14 37 18
14 37 18
14 37 18
14 37 18
14 37 18
14 37 18
14 37 18
14 37 18
14 37 18
14 37 18
14 37 18
14 37 18
14 37 18
14 37 18
14 37 18
14 37 18
14 37 18
14 37 18
14 37 18
14 37 18
14 37 18
14 38 19
14 38 19
14 38 19
14 38 19
14 38 19
14 38 19
14 38 19
14 38 19
14 38 19
14 38 19
14 38 19
14 38 19
14 38 19
14 38 19
14 38 19
14 38 19
14 38 19
14 38 19
14 38 19
14 38 19
14 38 19
14 38 19
14 38 19
14 38 19
14 38 19
14 38 19
14 38 19
14 38 19
14 38 19
14 38 19
14 38 19
14 38 19
14 38 19
14 38 19
14 38 19
14 38 19
14 38 19
14 38 19
14 38 19
14 38 19
14 38 19
14 38 19
14 38 19
14 38 19
14 38 19
14 38 19
14 38 19
14 38 19
14 38 19
14 38 19
14 38 19
14 38 19
14 38 19
14 38 19
14 38 19
14 38 19
14 38 19
14 38 19
14 38 19
14 38 19
14 38 19
14 38 19
14 38 19
14 38 19
14 38 19
14 38 19
14 38 19
14 38 19
14 38 19
14 38 19
14 38 19
14 38 19
14 38 19
14 38 19
14 38 19
14 38 19
14 38 19
14 38 19
14 38 19
14 38 19
14 38 19
14 38 19
14 38 19
14 38 19
14 38 19
14 38 19
14 38 19
14 38 19
14 38 19
14 38 19
14 38 19
14 38 19
14 38 19
14 38 19
14 38 19
14 38 19
14 38 19
14 38 19
14 38 19
14 38 19
14 38 19
14 38 19
14 38 19
14 38 19
14 38 19
14 38 19
14 38 19
14 38 19
14 38 19
14 38 19
14 38 19
14 38 19
14 38 19
14 38 19
14 38 19
14 38 19
14 38 19
14 38 19
14 38 19
14 38 19
14 38 19
14 38 19
14 38 19
14 38 19
14 38 19
14 38 19
14 38 19
14 38 19
14 38 19
14 38 19
14 37 18
14 37 18
14 37 18
14 37 18
14 37 18
14 37 18
14 37 18
14 37 18
14 37 18
14 37 18
14 37 18
14 37 18
14 37 18
14 37 18
14 37 18
14 37 18
14 37 18
14 37 18
14 37 18
14 37 18
14 37 18
14 37 18
14 37 18
14 37 18
14 37 18
14 37 18
14 37 18
14 37 18
14 37 18
14 37 18
14 37 18
14 37 18
14 37 18
14 37 18
14 37 18
14 37 18
14 37 18
14 37 18
14 37 18
14 37 18
14 37 18
14 37 18
14 37 18
14 37 18
14 37 18
14 37 18
14 37 18
14 37 18
14 37 18
14 37 18
14 37 18
14 37 18
14 37 18
14 37 18
14 37 18
14 37 18
14 37 18
14 37 18
14 37 18
14 37 18
14 37 18
14 37 18
13 37 18
13 37 18
13 37 18
13 37 18
13 37 18
13 37 18
13 37 18
13 37 18
13 37 18
13 37 18
13 37 18
13 37 18
13 37 18
13 37 18
13 37 18
13 37 18
13 37 18
13 36 18
13 36 18
13 36 18
13 36 18
13 36 18
13 36 18
13 36 18
13 36 18
13 36 18
13 36 18
13 36 18
13 36 18
13 36 18
13 36 18
13 36 18
13 37 18
13 37 18
13 37 18
13 37 18
13 37 18
13 37 18
13 37 18
13 37 18
13 37 18
13 37 18
13 37 18
13 37 18
13 37 18
13 37 18
13 37 18
13 37 18
13 37 18
13 37 18
13 37 18
13 37 18
13 37 18
13 37 18
13 37 18
13 37 18
13 37 18
14 37 18
14 37 18
14 37 18
14 37 18
14 37 18
14 37 18
14 37 18
14 37 18
14 37 18
14 37 18
14 37 18
14 37 18
14 37 18
14 37 18
14 37 18
14 37 18
14 37 18
14 37 18
14 37 18
14 37 18
14 37 18
14 37 18
14 37 18
14 37 18
14 37 18
14 37 18
14 37 18
14 37 18
14 37 18
14 37 18
14 37 18
14 37 18
14 37 18
14 37 18
14 37 18
14 37 18
14 37 18
14 37 18
14 37 18
14 37 18
14 37 18
14 37 18
14 37 18
14 37 18
14 37 18
14 37 18
14 37 18
14 37 18
14 37 18
14 37 18
14 37 18
14 37 18
14 37 18
14 37 18
14 37 18
14 37 18
14 37 18
14 37 18
14 37 18
14 37 18
14 37 18
14 37 18
14 37 18
14 37 18
14 37 18
14 37 18
14 37 18
14 37 18
14 37 18
14 37 18
14 37 18
14 37 18
14 37 18
14 37 18
14 37 18
14 37 18
14 37 18
14 37 18
14 37 18
14 37 18
14 37 18
14 37 18
14 37 18
14 38 19
14 38 19
14 38 19
14 38 19
14 38 19
14 38 19
14 38 19
14 38 19
14 38 19
14 38 19
14 38 19
14 38 19
14 38 19
14 38 19
14 38 19
14 38 19
14 38 19
14 38 19
14 38 19
14 38 19
14 38 19
14 38 19
14 38 19
14 38 19
14 38 19
14 38 19
14 38 19
14 38 19
14 38 19
14 38 19
14 38 19
14 38 19
14 38 19
14 38 19
14 38 19
14 38 19
14 38 19
14 38 19
14 38 19
14 38 19
14 38 19
14 38 19
14 38 19
14 38 19
14 38 19
14 38 19
14 38 19
14 38 19
14 38 19
14 38 19
14 38 19
14 38 19
14 38 19
14 38 19
14 38 19
14 38 19
14 38 19
14 38 19
14 38 19
14 38 19
14 38 19
14 38 19
14 38 19
14 38 19
14 38 19
14 38 19
14 37 18
14 37 18
14 37 18
14 37 18
14 37 18
14 37 18
14 37 18
14 37 18
14 37 18
14 37 18
14 37 18
14 37 18
14 37 18
14 37 18
14 37 18
14 37 18
14 37 18
14 37 18
14 37 18
14 37 18
14 37 18
14 37 18
14 37 18
14 37 18
14 37 18
14 37 18
14 37 18
14 37 18
14 37 18
14 37 18
14 37 18
14 37 18
14 37 18
14 37 18
14 37 18
14 37 18
14 37 18
14 37 18
14 37 18
14 37 18
14 37 18
14 37 18
14 37 18
14 37 18
14 37 18
14 37 18
14 37 18
14 37 18
14 37 18
14 37 18
14 37 18
14 37 18
14 37 18
14 37 18
14 37 18
14 37 18
14 37 18
14 37 18
14 37 18
14 37 18
14 37 18
14 37 18
14 37 18
14 37 18
14 37 18
14 37 18
14 37 18
14 37 18
14 37 18
14 37 18
14 37 18
14 37 18
14 37 18
14 37 18
14 37 18
14 37 18
14 37 18
14 37 18
14 37 18
14 37 18
14 37 18
14 37 18
14 37 18
13 37 18
13 37 18
13 37 18
13 37 18
13 37 18
13 37 18
13 37 18
13 37 18
13 37 18
13 37 18
13 37 18
13 37 18
13 37 18
13 37 18
13 37 18
13 37 18
13 37 18
13 37 18
13 37 18
13 37 18
13 37 18
13 37 18
13 37 18
13 37 18
13 37 18
13 36 18
13 36 18
13 36 18
13 36 18
13 36 18
13 36 18
13 36 18
13 36 18
13 36 18
13 36 18
13 36 18
13 36 18
13 36 18
13 36 18
13 36 18
13 36 18
13 36 18
13 36 18
13 36 18
13 36 18
13 36 18
13 36 18
13 36 18
13 36 18
13 36 18
13 36 18
13 36 18
13 37 18
13 37 18
13 37 18
13 37 18
13 37 18
13 37 18
13 37 18
13 37 18
13 37 18
13 37 18
13 37 18
13 37 18
13 37 18
13 37 18
13 37 18
13 37 18
13 37 18
13 37 18
13 37 18
13 37 18
13 37 18
13 37 18
13 37 18
13 37 18
13 37 18
13 37 18
13 37 18
13 37 18
13 37 18
14 37 18
14 37 18
14 37 18
14 37 18
14 37 18
14 37 18
14 37 18
14 37 18
14 37 18
14 37 18
14 37 18
14 37 18
14 37 18
14 37 18
14 37 18
14 37 18
14 37 18
14 37 18
14 37 18
14 37 18
14 37 18
14 37 18
14 37 18
14 37 18
14 37 18
14 37 18
14 37 18
14 37 18
14 37 18
14 37 18
14 37 18
14 37 18
14 37 18
14 37 18
14 37 18
14 37 18
14 37 18
14 37 18
14 37 18
14 37 18
14 37 18
14 37 18
14 37 18
14 37 18
14 37 18
14 37 18
14 37 18
14 37 18
14 37 18
14 37 18
14 37 18
14 37 18
14 37 18
14 37 18
14 37 18
14 37 18
14 37 18
14 37 18
14 37 18
14 37 18
14 37 18
14 37 18
14 37 18
14 37 18
14 37 18
14 37 18
14 37 18
14 37 18
14 37 18
14 37 18
14 37 18
14 37 18
14 37 18
14 37 18
14 37 18
14 37 18
14 37 18
14 37 18
14 37 18
14 37 18
14 37 18
14 37 18
14 37 18
14 37 18
14 37 18
14 37 18
14 37 18
14 37 18
14 37 18
14 37 18
14 37 18
14 37 18
14 37 18
14 37 18
14 37 18
14 37 18
14 37 18
14 37 18
14 37 18
14 37 18
14 37 18
14 37 18
14 37 18
14 37 18
14 37 18
14 37 18
14 37 18
14 37 18
14 37 18
14 37 18
14 37 18
14 37 18
14 37 18
14 37 18
14 37 18
14 37 18
14 37 18
14 37 18
14 37 18
14 37 18
14 37 18
14 37 18
14 37 18
14 37 18
14 37 18
14 37 18
14 37 18
14 37 18
14 37 18
14 37 18
14 37 18
14 37 18
14 37 18
14 37 18
14 37 18
14 37 18
14 37 18
14 37 18
14 37 18
14 37 18
14 37 18
14 37 18
14 37 18
14 37 18
14 37 18
14 37 18
14 37 18
14 37 18
14 37 18
14 37 18
14 37 18
14 37 18
14 37 18
14 37 18
14 37 18
14 37 18
14 37 18
14 37 18
14 37 18
14 37 18
14 37 18
14 37 18
14 37 18
14 37 18
14 37 18
14 37 18
14 37 18
14 37 18
14 37 18
14 37 18
14 37 18
14 37 18
14 37 18
14 37 18
14 37 18
14 37 18
14 37 18
14 37 18
14 37 18
14 37 18
14 37 18
14 37 18
14 37 18
14 37 18
14 37 18
14 37 18
14 37 18
14 37 18
14 37 18
14 37 18
14 37 18
14 37 18
14 37 18
14 37 18
14 37 18
14 37 18
14 37 18
14 37 18
14 37 18
14 37 18
14 37 18
14 37 18
14 37 18
14 37 18
14 37 18
14 37 18
13 37 18
13 37 18
13 37 18
13 37 18
13 37 18
13 37 18
13 37 18
13 37 18
13 37 18
13 37 18
13 37 18
13 37 18
13 37 18
13 37 18
13 37 18
13 37 18
13 37 18
13 37 18
13 37 18
13 37 18
13 37 18
13 37 18
13 37 18
13 37 18
13 37 18
13 37 18
13 37 18
13 37 18
13 37 18
13 36 18
13 36 18
13 36 18
13 36 18
13 36 18
13 36 18
13 36 18
13 36 18
13 36 18
13 36 18
13 36 18
13 36 18
13 36 18
13 36 18
13 36 18
13 36 18
13 36 18
13 36 18
13 36 18
13 36 18
13 36 18
13 36 18
13 36 18
13 36 18
13 36 18
13 36 18
13 36 18
13 36 18
13 36 18
13 36 18
13 36 18
13 36 18
13 36 18
13 36 18
13 36 18
13 36 18
13 36 18
13 36 18
13 36 18
13 36 18
13 36 18
13 36 18
13 36 18
13 36 18
13 36 18
13 36 18
13 36 18
13 36 18
13 37 18
13 37 18
13 37 18
13 37 18
13 37 18
13 37 18
13 37 18
13 37 18
13 37 18
13 37 18
13 37 18
13 37 18
13 37 18
13 37 18
13 37 18
13 37 18
13 37 18
13 37 18
13 37 18
13 37 18
13 37 18
13 37 18
13 37 18
13 37 18
13 37 18
13 37 18
13 37 18
13 37 18
13 37 18
13 37 18
13 37 18
13 37 18
13 37 18
14 37 18
14 37 18
14 37 18
14 37 18
14 37 18
14 37 18
14 37 18
14 37 18
14 37 18
14 37 18
14 37 18
14 37 18
14 37 18
14 37 18
14 37 18
14 37 18
14 37 18
14 37 18
14 37 18
14 37 18
14 37 18
14 37 18
14 37 18
14 37 18
14 37 18
14 37 18
14 37 18
14 37 18
14 37 18
14 37 18
14 37 18
14 37 18
14 37 18
14 37 18
14 37 18
14 37 18
14 37 18
14 37 18
14 37 18
14 37 18
14 37 18
14 37 18
14 37 18
14 37 18
14 37 18
14 37 18
14 37 18
14 37 18
14 37 18
14 37 18
14 37 18
14 37 18
14 37 18
14 37 18
14 37 18
14 37 18
14 37 18
14 37 18
14 37 18
14 37 18
14 37 18
14 37 18
14 37 18
14 37 18
14 37 18
14 37 18
14 37 18
14 37 18
14 37 18
14 37 18
14 37 18
14 37 18
14 37 18
14 37 18
14 37 18
14 37 18
14 37 18
14 37 18
14 37 18
14 37 18
14 37 18
14 37 18
14 37 18
14 37 18
14 37 18
14 37 18
14 37 18
14 37 18
14 37 18
14 37 18
14 37 18
14 37 18
14 37 18
14 37 18
14 37 18
14 37 18
14 37 18
14 37 18
14 37 18
14 37 18
14 37 18
14 37 18
14 37 18
14 37 18
14 37 18
14 37 18
14 37 18
14 37 18
14 37 18
14 37 18
14 37 18
14 37 18
14 37 18
14 37 18
14 37 18
14 37 18
14 37 18
14 37 18
14 37 18
14 37 18
14 37 18
14 37 18
14 37 18
14 37 18
14 37 18
14 37 18
14 37 18
14 37 18
14 37 18
14 37 18
14 37 18
14 37 18
14 37 18
14 37 18
14 37 18
14 37 18
14 37 18
14 37 18
14 37 18
14 37 18
14 37 18
14 37 18
14 37 18
14 37 18
14 37 18
14 37 18
14 37 18
14 37 18
14 37 18
14 37 18
14 37 18
14 37 18
14 37 18
14 37 18
14 37 18
14 37 18
14 37 18
14 37 18
14 37 18
14 37 18
14 37 18
14 37 18
14 37 18
14 37 18
14 37 18
14 37 18
14 37 18
14 37 18
14 37 18
14 37 18
14 37 18
14 37 18
14 37 18
14 37 18
13 37 18
13 37 18
13 37 18
13 37 18
13 37 18
13 37 18
13 37 18
13 37 18
13 37 18
13 37 18
13 37 18
13 37 18
13 37 18
13 37 18
13 37 18
13 37 18
13 37 18
13 37 18
13 37 18
13 37 18
13 37 18
13 37 18
13 37 18
13 37 18
13 37 18
13 37 18
13 37 18
13 37 18
13 37 18
13 37 18
13 37 18
13 37 18
13 37 18
13 37 18
13 36 18
13 36 18
13 36 18
13 36 18
13 36 18
13 36 18
13 36 18
13 36 18
13 36 18
13 36 18
13 36 18
13 36 18
13 36 18
13 36 18
13 36 18
13 36 18
13 36 18
13 36 18
13 36 18
13 36 18
13 36 18
13 36 18
13 36 18
13 36 18
13 36 18
13 36 18
13 36 18
13 36 18
13 36 18
13 36 18
13 36 18
13 36 18
13 36 18
13 36 18
13 36 18
13 36 18
13 36 18
13 36 18
13 36 18
13 36 18
13 36 18
13 36 18
13 36 18
13 36 18
13 36 18
13 36 18
13 36 18
13 36 18
13 36 18
13 36 18
13 36 18
13 36 18
13 36 18
13 36 18
13 36 18
13 36 18
13 36 18
13 36 18
13 36 18
13 36 18
13 36 18
13 36 18
13 36 18
13 36 18
13 36 18
13 36 18
13 36 18
13 36 18
13 36 18
13 36 18
13 36 18
13 36 18
13 37 18
13 37 18
13 37 18
13 37 18
13 37 18
13 37 18
13 37 18
13 37 18
13 37 18
13 37 18
13 37 18
13 37 18
13 37 18
13 37 18
13 37 18
13 37 18
13 37 18
13 37 18
13 37 18
13 37 18
13 37 18
13 37 18
13 37 18
13 37 18
13 37 18
13 37 18
13 37 18
13 37 18
13 37 18
13 37 18
13 37 18
13 37 18
13 37 18
13 37 18
13 37 18
13 37 18
13 37 18
13 37 18
13 37 18
13 37 18
14 37 18
14 37 18
14 37 18
14 37 18
14 37 18
14 37 18
14 37 18
14 37 18
14 37 18
14 37 18
14 37 18
14 37 18
14 37 18
14 37 18
14 37 18
14 37 18
14 37 18
14 37 18
14 37 18
14 37 18
14 37 18
14 37 18
14 37 18
14 37 18
14 37 18
14 37 18
14 37 18
14 37 18
14 37 18
14 37 18
14 37 18
14 37 18
14 37 18
14 37 18
14 37 18
14 37 18
14 37 18
14 37 18
14 37 18
14 37 18
14 37 18
14 37 18
14 37 18
14 37 18
14 37 18
14 37 18
14 37 18
14 37 18
14 37 18
14 37 18
14 37 18
14 37 18
14 37 18
14 37 18
14 37 18
14 37 18
14 37 18
14 37 18
14 37 18
14 37 18
14 37 18
14 37 18
14 37 18
14 37 18
14 37 18
14 37 18
14 37 18
14 37 18
14 37 18
14 37 18
14 37 18
14 37 18
14 37 18
14 37 18
14 37 18
14 37 18
14 37 18
14 37 18
14 37 18
14 37 18
14 37 18
14 37 18
14 37 18
14 37 18
14 37 18
14 37 18
14 37 18
14 37 18
14 37 18
14 37 18
14 37 18
14 37 18
14 37 18
14 37 18
14 37 18
14 37 18
14 37 18
14 37 18
14 37 18
14 37 18
14 37 18
14 37 18
14 37 18
14 37 18
14 37 18
14 37 18
14 37 18
14 37 18
14 37 18
14 37 18
14 37 18
14 37 18
14 37 18
14 37 18
14 37 18
14 37 18
14 37 18
14 37 18
14 37 18
14 37 18
14 37 18
14 37 18
14 37 18
14 37 18
14 37 18
14 37 18
14 37 18
14 37 18
14 37 18
14 37 18
14 37 18
14 37 18
14 37 18
14 37 18
13 37 18
13 37 18
13 37 18
13 37 18
13 37 18
13 37 18
13 37 18
13 37 18
13 37 18
13 37 18
13 37 18
13 37 18
13 37 18
13 37 18
13 37 18
13 37 18
13 37 18
13 37 18
13 37 18
13 37 18
13 37 18
13 37 18
13 37 18
13 37 18
13 37 18
13 37 18
13 37 18
13 37 18
13 37 18
13 37 18
13 37 18
13 37 18
13 37 18
13 37 18
13 37 18
13 37 18
13 37 18
13 37 18
13 37 18
13 37 18
13 37 18
13 36 18
13 36 18
13 36 18
13 36 18
13 36 18
13 36 18
13 36 18
13 36 18
13 36 18
13 36 18
13 36 18
13 36 18
13 36 18
13 36 18
13 36 18
13 36 18
13 36 18
13 36 18
13 36 18
13 36 18
13 36 18
13 36 18
13 36 18
13 36 18
13 36 18
13 36 18
13 36 18
13 36 18
13 36 18
13 36 18
13 36 18
13 36 18
13 36 18
13 36 18
13 36 18
13 36 18
13 36 18
13 36 18
13 36 18
13 36 18
13 36 18
13 36 18
13 36 18
13 36 18
13 36 18
13 36 18
13 36 18
13 36 18
13 36 18
13 36 18
13 36 18
13 36 18
13 36 18
13 36 18
13 36 18
13 36 18
13 36 18
13 36 18
13 36 18
13 36 18
13 36 18
13 36 18
13 36 18
13 36 18
13 36 18
13 36 18
13 36 18
13 36 18
13 36 18
13 36 18
13 36 18
13 36 18
13 36 18
13 36 18
13 36 18
13 36 18
13 36 18
13 36 18
13 36 18
13 36 18
13 36 18
13 36 18
13 36 18
13 36 18
13 36 18
13 36 18
13 36 18
13 36 18
13 36 18
13 36 18
13 36 18
13 36 18
13 36 18
13 36 18
13 36 18
13 36 18
13 36 18
13 36 18
13 36 18
13 36 18
13 37 18
13 37 18
13 37 18
13 37 18
13 37 18
13 37 18
13 37 18
13 37 18
13 37 18
13 37 18
13 37 18
13 37 18
13 37 18
13 37 18
13 37 18
13 37 18
13 37 18
13 37 18
13 37 18
13 37 18
13 37 18
13 37 18
13 37 18
13 37 18
13 37 18
13 37 18
13 37 18
13 37 18
13 37 18
13 37 18
13 37 18
13 37 18
13 37 18
13 37 18
13 37 18
13 37 18
13 37 18
13 37 18
13 37 18
13 37 18
13 37 18
13 37 18
13 37 18
13 37 18
13 37 18
13 37 18
13 37 18
13 37 18
13 37 18
13 37 18
13 37 18
13 37 18
13 37 18
13 37 18
13 37 18
13 37 18
13 37 18
14 37 18
14 37 18
14 37 18
14 37 18
14 37 18
14 37 18
14 37 18
14 37 18
14 37 18
14 37 18
14 37 18
14 37 18
14 37 18
14 37 18
14 37 18
14 37 18
14 37 18
14 37 18
14 37 18
14 37 18
14 37 18
14 37 18
14 37 18
14 37 18
14 37 18
14 37 18
14 37 18
14 37 18
14 37 18
14 37 18
14 37 18
14 37 18
14 37 18
14 37 18
14 37 18
14 37 18
14 37 18
14 37 18
14 37 18
14 37 18
14 37 18
14 37 18
14 37 18
14 37 18
14 37 18
14 37 18
14 37 18
14 37 18
14 37 18
14 37 18
14 37 18
14 37 18
14 37 18
14 37 18
14 37 18
14 37 18
14 37 18
14 37 18
14 37 18
14 37 18
14 37 18
14 37 18
14 37 18
14 37 18
14 37 18
14 37 18
14 37 18
14 37 18
14 37 18
14 37 18
14 37 18
13 37 18
13 37 18
13 37 18
13 37 18
13 37 18
13 37 18
13 37 18
13 37 18
13 37 18
13 37 18
13 37 18
13 37 18
13 37 18
13 37 18
13 37 18
13 37 18
13 37 18
13 37 18
13 37 18
13 37 18
13 37 18
13 37 18
13 37 18
13 37 18
13 37 18
13 37 18
13 37 18
13 37 18
13 37 18
13 37 18
13 37 18
13 37 18
13 37 18
13 37 18
13 37 18
13 37 18
13 37 18
13 37 18
13 37 18
13 37 18
13 37 18
13 37 18
13 37 18
13 37 18
13 37 18
13 37 18
13 37 18
13 37 18
13 37 18
13 37 18
13 37 18
13 37 18
13 37 18
13 37 18
13 37 18
13 37 18
13 37 18
13 36 18
13 36 18
13 36 18
13 36 18
13 36 18
13 36 18
13 36 18
13 36 18
13 36 18
13 36 18
13 36 18
13 36 18
13 36 18
13 36 18
13 36 18
13 36 18
13 36 18
13 36 18
13 36 18
13 36 18
13 36 18
13 36 18
13 36 18
13 36 18
13 36 18
13 36 18
13 36 18
13 36 18
13 36 18
13 36 18
13 36 18
13 36 18
13 36 18
13 36 18
13 36 18
13 36 18
13 36 18
13 36 18
13 36 18
13 36 18
13 36 18
13 36 18
13 36 18
13 36 18
13 36 18
13 36 18
13 36 18
13 36 18
13 36 18
13 36 18
13 36 18
13 36 18
13 36 18
13 36 18
13 36 18
13 36 18
13 36 18
13 36 18
13 36 18
13 36 18
13 36 18
13 36 18
13 36 18
13 36 18
13 36 18
13 36 18
13 36 18
13 36 18
13 36 18
13 36 18
13 36 18
13 36 18
13 36 18
13 36 18
13 36 18
13 36 18
13 36 18
13 36 18
13 36 18
13 36 18
13 36 18
13 36 18
13 36 18
13 36 18
13 36 18
13 36 18
13 36 18
13 36 18
13 36 18
13 36 18
13 36 18
13 36 18
13 36 18
13 36 18
13 36 18
13 36 18
13 36 18
13 36 18
13 36 18
13 36 18
13 36 18
13 36 18
13 36 18
13 36 18
13 36 18
13 36 18
13 36 18
13 36 18
13 36 18
13 36 18
13 36 18
13 36 18
13 36 18
13 36 18
13 36 18
13 36 18
13 36 18
13 36 18
13 36 18
13 36 18
13 36 18
13 36 18
13 36 18
13 36 18
13 36 18
13 36 18
13 36 18
13 36 18
13 36 18
13 36 18
13 36 18
13 36 18
13 36 18
13 36 18
13 37 18
13 37 18
13 37 18
13 37 18
13 37 18
13 37 18
13 37 18
13 37 18
13 37 18
13 37 18
13 37 18
13 37 18
13 37 18
13 37 18
13 37 18
13 37 18
13 37 18
13 37 18
13 37 18
13 37 18
13 37 18
13 37 18
13 37 18
13 37 18
13 37 18
13 37 18
13 37 18
13 37 18
13 37 18
13 37 18
13 37 18
13 37 18
13 37 18
13 37 18
13 37 18
13 37 18
13 37 18
13 37 18
13 37 18
13 37 18
13 37 18
13 37 18
13 37 18
13 37 18
13 37 18
13 37 18
13 37 18
13 37 18
13 37 18
13 37 18
13 37 18
13 37 18
13 37 18
13 37 18
13 37 18
13 37 18
13 37 18
13 37 18
13 37 18
13 37 18
13 37 18
13 37 18
13 37 18
13 37 18
13 37 18
13 37 18
13 37 18
13 37 18
13 37 18
13 37 18
13 37 18
13 37 18
13 37 18
13 37 18
13 37 18
13 37 18
13 37 18
13 37 18
13 37 18
13 37 18
13 37 18
13 37 18
13 37 18
13 37 18
13 37 18
13 37 18
13 37 18
13 37 18
13 37 18
13 37 18
13 37 18
13 37 18
13 37 18
13 37 18
13 37 18
13 37 18
13 37 18
13 37 18
13 37 18
13 37 18
13 37 18
13 37 18
13 37 18
13 37 18
13 37 18
13 37 18
13 37 18
13 37 18
13 37 18
13 37 18
13 37 18
13 37 18
13 37 18
13 37 18
13 37 18
13 37 18
13 37 18
13 37 18
13 37 18
13 37 18
13 37 18
13 37 18
13 37 18
13 37 18
13 37 18
13 37 18
13 37 18
13 37 18
13 37 18
13 37 18
13 37 18
13 37 18
13 37 18
13 37 18
13 37 18
13 37 18
13 37 18
13 37 18
13 37 18
13 37 18
13 37 18
13 37 18
13 37 18
13 37 18
13 37 18
13 37 18
13 37 18
13 36 18
13 36 18
13 36 18
13 36 18
13 36 18
13 36 18
13 36 18
13 36 18
13 36 18
13 36 18
13 36 18
13 36 18
13 36 18
13 36 18
13 36 18
13 36 18
13 36 18
13 36 18
13 36 18
13 36 18
13 36 18
13 36 18
13 36 18
13 36 18
13 36 18
13 36 18
13 36 18
13 36 18
13 36 18
13 36 18
13 36 18
13 36 18
13 36 18
13 36 18
13 36 18
13 36 18
13 36 18
13 36 18
13 36 18
13 36 18
13 36 18
13 36 18
13 36 18
13 36 18
13 36 18
13 36 18
13 36 18
13 36 18
13 36 18
13 36 18
13 36 18
13 36 18
13 36 18
13 36 18
13 36 18
13 36 18
13 36 18
13 36 18
13 36 18
13 36 18
13 36 18
13 36 18
13 36 18
13 36 18
13 36 18
13 36 18
13 36 18
13 36 18
13 36 18
13 36 18
13 36 18
13 36 18
13 36 18
13 36 18
13 36 18
13 36 18
13 36 18
13 36 18
13 36 18
13 36 18
13 36 18
13 36 18
13 36 18
13 36 18
13 36 18
13 36 18
13 36 18
13 36 18
13 36 18
13 36 18
13 36 18
13 36 18
13 36 18
13 36 18
13 36 18
13 36 18
13 36 18
13 36 18
13 36 18
13 36 18
13 36 18
13 36 18
13 36 18
13 36 18
13 36 18
13 36 18
13 36 18
13 36 18
13 36 18
13 36 18
13 36 18
13 36 18
13 36 18
13 36 18
13 36 18
13 36 18
13 36 18
13 36 18
13 36 18
13 36 18
13 36 18
13 36 18
13 36 18
13 36 18
13 36 18
13 36 18
13 36 18
13 36 18
13 36 18
13 36 18
13 36 18
13 36 18
13 36 18
13 36 18
13 36 18
13 36 18
13 36 18
13 36 18
13 36 18
13 36 18
13 36 18
13 36 18
13 36 18
13 36 18
13 36 18
13 36 18
13 36 18
13 36 18
13 36 18
13 36 18
13 36 18
13 36 18
13 36 18
13 36 18
13 36 18
13 36 18
13 36 18
13 36 18
13 36 18
13 36 18
13 36 18
13 36 18
13 36 18
13 36 18
13 36 18
13 36 18
13 36 18
13 36 18
13 36 18
13 36 18
13 36 18
13 36 18
13 36 18
13 36 18
13 36 18
13 36 18
13 36 18
13 36 18
13 36 18
13 37 18
13 37 18
13 37 18
13 37 18
13 37 18
13 37 18
13 37 18
13 37 18
13 37 18
13 37 18
13 37 18
13 37 18
13 37 18
13 37 18
13 37 18
13 37 18
13 37 18
13 37 18
13 37 18
13 37 18
13 37 18
13 37 18
13 37 18
13 37 18
13 37 18
13 37 18
13 37 18
13 37 18
13 37 18
13 37 18
13 37 18
13 37 18
13 37 18
13 37 18
13 37 18
13 37 18
13 37 18
13 37 18
13 37 18
13 37 18
13 37 18
13 37 18
13 37 18
13 37 18
13 37 18
13 37 18
13 37 18
13 37 18
13 37 18
13 37 18
13 37 18
13 37 18
13 37 18
13 37 18
13 37 18
13 37 18
13 37 18
13 37 18
13 37 18
13 37 18
13 37 18
13 37 18
13 37 18
13 37 18
13 37 18
13 37 18
13 37 18
13 37 18
13 37 18
13 37 18
13 37 18
13 37 18
13 37 18
13 37 18
13 37 18
13 37 18
13 37 18
13 37 18
13 37 18
13 37 18
13 37 18
13 37 18
13 37 18
13 37 18
13 37 18
13 37 18
13 37 18
13 37 18
13 37 18
13 37 18
13 37 18
13 37 18
13 37 18
13 37 18
13 37 18
13 36 18
13 36 18
13 36 18
13 36 18
13 36 18
13 36 18
13 36 18
13 36 18
13 36 18
13 36 18
13 36 18
13 36 18
13 36 18
13 36 18
13 36 18
13 36 18
13 36 18
13 36 18
13 36 18
13 36 18
13 36 18
13 36 18
13 36 18
13 36 18
13 36 18
13 36 18
13 36 18
13 36 18
13 36 18
13 36 18
13 36 18
13 36 18
13 36 18
13 36 18
13 36 18
13 36 18
13 36 18
13 36 18
13 36 18
13 36 18
13 36 18
13 36 18
13 36 18
13 36 18
13 36 18
13 36 18
13 36 18
13 36 18
13 36 18
13 36 18
13 36 18
13 36 18
13 36 18
13 36 18
13 36 18
13 36 18
13 36 18
13 36 18
13 36 18
13 36 18
13 36 18
13 36 18
13 36 18
13 36 18
13 36 18
13 36 18
13 36 18
13 36 18
13 36 18
13 36 18
13 36 18
13 36 18
13 36 18
13 36 18
13 36 18
13 36 18
13 36 18
13 36 18
13 36 18
13 36 18
13 36 18
13 36 18
13 36 18
13 36 18
13 36 18
13 36 18
13 36 18
13 36 18
13 36 18
13 36 18
13 36 18
13 36 18
13 36 18
13 36 18
13 36 18
13 36 18
13 36 18
13 36 18
13 36 18
13 36 18
13 36 18
13 36 18
13 36 18
13 36 18
13 36 18
13 36 18
13 36 18
13 36 18
13 36 18
13 36 18
13 36 18
13 36 18
13 36 18
13 36 18
13 36 18
13 36 18
13 36 18
13 36 18
13 36 18
13 36 18
13 36 18
13 36 18
13 36 18
13 36 18
13 36 18
13 36 18
13 36 18
13 36 18
13 36 18
13 36 18
13 36 18
13 36 18
13 36 18
13 36 18
13 36 18
13 36 18
13 36 18
13 36 18
13 36 18
13 36 18
13 36 18
13 36 18
13 36 18
13 36 18
13 36 18
13 36 18
13 36 18
13 36 18
13 36 18
13 36 18
13 36 18
13 36 18
13 36 18
13 36 18
13 36 18
13 36 18
13 36 18
13 36 18
13 36 18
13 36 18
13 36 18
13 36 18
13 36 18
13 36 18
13 36 18
13 36 18
13 36 18
13 36 18
13 36 18
13 36 18
13 36 18
13 36 18
13 36 18
13 36 18
13 36 18
13 36 18
13 36 18
13 36 18
13 36 18
13 36 18
13 36 18
13 36 18
13 36 18
13 36 18
13 36 18
13 36 18
13 36 18
13 36 18
13 36 18
13 36 18
13 36 18
13 36 18
13 36 18
13 36 18
13 36 18
13 36 18
13 36 18
13 36 18
13 36 18
13 36 18
13 36 18
13 36 18
13 36 18
13 36 18
13 36 18
13 36 18
13 36 18
13 36 18
13 36 18
13 36 18
13 36 18
13 36 18
13 36 18
13 36 18
13 36 18
13 36 18
13 36 18
13 36 18
13 36 18
13 36 18
13 36 18
13 36 18
13 36 18
13 36 18
13 36 18
13 36 18
13 36 18
13 36 18
13 36 18
13 36 18
13 36 18
13 36 18
13 36 18
13 36 18
13 36 18
13 36 18
13 36 18
13 36 18
13 36 18
13 36 18
13 36 18
13 36 18
13 36 18
13 36 18
13 36 18
13 36 18
13 36 18
13 36 18
13 36 18
13 36 18
13 36 18
13 36 18
13 36 18
13 36 18
13 36 18
13 36 18
13 36 18
13 36 18
13 36 18
13 36 18
13 36 18
13 36 18
13 36 18
13 36 18
13 36 18
13 36 18
13 36 18
13 36 18
13 36 18
13 36 18
13 36 18
13 36 18
13 36 18
13 36 18
13 36 18
13 36 18
13 36 18
13 36 18
13 36 18
13 36 18
13 36 18
13 36 18
13 36 18
13 36 18
13 36 18
13 36 18
13 36 18
13 36 18
13 36 18
13 36 18
13 36 18
13 36 18
13 36 18
13 36 18
13 36 18
13 36 18
13 36 18
13 36 18
13 36 18
13 36 18
13 36 18
13 36 18
13 36 18
13 36 18
13 36 18
13 36 18
13 36 18
13 36 18
13 36 18
13 36 18
13 36 18
13 36 18
13 36 18
13 36 18
13 36 18
13 36 18
13 36 18
13 36 18
13 36 18
13 36 18
13 36 18
13 36 18
13 36 18
13 36 18
13 36 18
13 36 18
13 36 18
13 36 18
13 36 18
13 36 18
13 36 18
13 36 18
13 36 18
13 36 18
13 36 18
13 36 18
13 36 18
13 36 18
13 36 18
13 36 18
13 36 18
13 36 18
13 36 18
13 36 18
13 36 18
13 36 18
13 36 18
13 36 18
13 36 18
13 36 18
13 36 18
13 36 18
13 36 18
13 36 18
13 36 18
13 36 18
13 36 18
13 36 18
13 36 18
13 36 18
13 36 18
13 36 18
13 36 18
13 36 18
13 36 18
13 36 18
13 36 18
13 36 18
13 36 18
13 36 18
13 36 18
13 36 18
13 36 18
13 36 18
13 36 18
13 36 18
13 36 18
13 36 18
13 36 18
13 36 18
13 36 18
13 36 18
13 36 18
13 36 18
13 36 18
13 36 18
13 36 18
13 36 18
13 36 18
13 36 18
13 36 18
13 36 18
13 36 18
13 36 18
13 36 18
13 36 18
13 35 17
13 35 17
13 35 17
13 35 17
13 35 17
13 35 17
13 35 17
13 35 17
13 35 17
13 36 18
13 36 18
13 36 18
13 36 18
13 36 18
13 36 18
13 36 18
13 36 18
13 36 18
13 36 18
13 36 18
13 36 18
13 36 18
13 36 18
13 36 18
13 36 18
13 36 18
13 36 18
13 36 18
13 36 18
13 36 18
13 36 18
13 36 18
13 36 18
13 36 18
13 36 18
13 36 18
13 36 18
13 36 18
13 36 18
13 36 18
13 36 18
13 36 18
13 36 18
13 36 18
13 36 18
13 36 18
13 36 18
13 36 18
13 36 18
13 36 18
13 36 18
13 36 18
13 36 18
13 36 18
13 36 18
13 36 18
13 36 18
13 36 18
13 36 18
13 36 18
13 36 18
13 36 18
13 36 18
13 36 18
13 36 18
13 36 18
13 36 18
13 36 18
13 36 18
13 36 18
13 36 18
13 36 18
13 36 18
13 36 18
13 36 18
13 36 18
13 36 18
13 36 18
13 36 18
13 36 18
13 36 18
13 36 18
13 36 18
13 36 18
13 36 18
13 36 18
13 36 18
13 36 18
13 36 18
13 36 18
13 36 18
13 36 18
13 36 18
13 36 18
13 36 18
13 36 18
13 36 18
13 36 18
13 36 18
13 36 18
13 36 18
13 36 18
13 36 18
13 36 18
13 36 18
13 36 18
13 36 18
13 36 18
13 36 18
13 36 18
13 36 18
13 36 18
13 36 18
13 36 18
13 36 18
13 36 18
13 36 18
13 36 18
13 36 18
13 36 18
13 36 18
13 36 18
13 36 18
13 36 18
13 36 18
13 36 18
13 36 18
13 36 18
13 36 18
13 36 18
13 36 18
13 36 18
13 36 18
13 36 18
13 36 18
13 36 18
13 36 18
13 36 18
13 36 18
13 36 18
13 36 18
13 36 18
13 36 18
13 36 18
13 36 18
13 36 18
13 36 18
13 36 18
13 36 18
13 36 18
13 36 18
13 36 18
13 36 18
13 36 18
13 36 18
13 36 18
13 36 18
13 36 18
13 36 18
13 36 18
13 36 18
13 36 18
13 36 18
13 36 18
13 36 18
13 36 18
13 36 18
13 36 18
13 36 18
13 36 18
13 36 18
13 36 18
13 36 18
13 36 18
13 36 18
13 36 18
13 36 18
13 36 18
13 36 18
13 36 18
13 36 18
13 36 18
13 36 18
13 36 18
13 36 18
13 36 18
13 36 18
13 36 18
13 36 18
13 36 18
13 36 18
13 36 18
13 36 18
13 36 18
13 36 18
13 36 18
13 36 18
13 36 18
13 36 18
13 36 18
13 36 18
13 36 18
13 36 18
13 36 18
13 36 18
13 36 18
13 36 18
13 36 18
13 36 18
13 36 18
13 36 18
13 36 18
13 36 18
13 36 18
13 36 18
13 36 18
13 36 18
13 36 18
13 36 18
13 36 18
13 36 18
13 36 18
13 36 18
13 36 18
13 36 18
13 36 18
13 36 18
13 36 18
13 36 18
13 36 18
13 36 18
13 36 18
13 36 18
13 36 18
13 36 18
13 36 18
13 36 18
13 36 18
13 36 18
13 36 18
13 36 18
13 36 18
13 36 18
13 36 18
13 36 18
13 36 18
13 36 18
13 36 18
13 36 18
13 36 18
13 36 18
13 36 18
13 36 18
13 36 18
13 36 18
13 36 18
13 36 18
13 36 18
13 36 18
13 36 18
13 36 18
13 36 18
13 36 18
13 36 18
13 36 18
13 36 18
13 36 18
13 36 18
13 36 18
13 36 18
13 36 18
13 36 18
13 36 18
13 36 18
13 36 18
13 36 18
13 36 18
13 36 18
13 36 18
13 36 18
13 36 18
13 36 18
13 36 18
13 36 18
13 36 18
13 36 18
13 36 18
13 36 18
13 36 18
13 36 18
13 36 18
13 36 18
13 36 18
13 36 18
13 36 18
13 36 18
13 36 18
13 36 18
13 36 18
13 36 18
13 35 17
13 35 17
13 35 17
13 35 17
13 35 17
13 35 17
13 35 17
13 35 17
13 35 17
13 35 17
13 35 17
13 35 17
13 35 17
13 35 17
13 35 17
13 35 17
13 35 17
13 35 17
13 35 17
13 36 18
13 36 18
13 36 18
13 36 18
13 36 18
13 36 18
13 36 18
13 36 18
13 36 18
13 36 18
13 36 18
13 36 18
13 36 18
13 36 18
13 36 18
13 36 18
13 36 18
13 36 18
13 36 18
13 36 18
13 36 18
13 36 18
13 36 18
13 36 18
13 36 18
13 36 18
13 36 18
13 36 18
13 36 18
13 36 18
13 36 18
13 36 18
13 36 18
13 36 18
13 36 18
13 36 18
13 36 18
13 36 18
13 36 18
13 36 18
13 36 18
13 36 18
13 36 18
13 36 18
13 36 18
13 36 18
13 36 18
13 36 18
13 36 18
13 36 18
13 36 18
13 36 18
13 36 18
13 36 18
13 36 18
13 36 18
13 36 18
13 36 18
13 36 18
13 36 18
13 36 18
13 36 18
13 36 18
13 36 18
13 36 18
13 36 18
13 36 18
13 36 18
13 36 18
13 36 18
13 36 18
13 36 18
13 36 18
13 36 18
13 36 18
13 36 18
13 36 18
13 36 18
13 36 18
13 36 18
13 36 18
13 36 18
13 36 18
13 36 18
13 36 18
13 36 18
13 36 18
13 36 18
13 36 18
13 36 18
13 36 18
13 36 18
13 36 18
13 36 18
13 36 18
13 36 18
13 36 18
13 36 18
13 36 18
13 36 18
13 36 18
13 36 18
13 36 18
13 36 18
13 36 18
13 36 18
13 36 18
13 36 18
13 36 18
13 36 18
13 36 18
13 36 18
13 36 18
13 36 18
13 36 18
13 36 18
13 36 18
13 36 18
13 36 18
13 36 18
13 36 18
13 36 18
13 36 18
13 36 18
13 36 18
13 36 18
13 36 18
13 36 18
13 36 18
13 36 18
13 36 18
13 36 18
13 36 18
13 36 18
13 36 18
13 36 18
13 36 18
13 36 18
13 36 18
13 36 18
13 36 18
13 36 18
13 36 18
13 36 18
13 36 18
13 36 18
13 36 18
13 36 18
13 36 18
13 36 18
13 36 18
13 36 18
13 36 18
13 36 18
13 36 18
13 36 18
13 36 18
13 36 18
13 36 18
13 36 18
13 36 18
13 36 18
13 36 18
13 36 18
13 36 18
13 36 18
13 36 18
13 36 18
13 36 18
13 36 18
13 36 18
13 36 18
13 36 18
13 36 18
13 36 18
13 36 18
13 36 18
13 36 18
13 36 18
13 36 18
13 36 18
13 36 18
13 36 18
13 36 18
13 36 18
13 36 18
13 36 18
13 36 18
13 36 18
13 36 18
13 36 18
13 36 18
13 36 18
13 36 18
13 36 18
13 36 18
13 36 18
13 36 18
13 36 18
13 36 18
13 36 18
13 36 18
13 36 18
13 36 18
13 36 18
13 36 18
13 36 18
13 36 18
13 36 18
13 36 18
13 36 18
13 36 18
13 36 18
13 36 18
13 36 18
13 36 18
13 36 18
13 36 18
13 36 18
13 36 18
13 36 18
13 36 18
13 36 18
13 36 18
13 36 18
13 36 18
13 36 18
13 36 18
13 36 18
13 36 18
13 36 18
13 36 18
13 36 18
13 36 18
13 36 18
13 36 18
13 36 18
13 36 18
13 36 18
13 36 18
13 36 18
13 36 18
13 36 18
13 36 18
13 36 18
13 36 18
13 36 18
13 36 18
13 36 18
13 36 18
13 36 18
13 36 18
13 36 18
13 36 18
13 36 18
13 36 18
13 36 18
13 36 18
13 36 18
13 36 18
13 36 18
13 36 18
13 36 18
13 36 18
13 36 18
13 36 18
13 36 18
13 36 18
13 36 18
13 36 18
13 36 18
13 36 18
13 36 18
13 36 18
13 36 18
13 36 18
13 35 17
13 35 17
13 35 17
13 35 17
13 35 17
13 35 17
13 35 17
13 35 17
13 35 17
13 35 17
13 35 17
13 35 17
13 35 17
13 35 17
13 35 17
13 35 17
13 35 17
13 35 17
13 35 17
13 35 17
13 35 17
13 35 17
13 35 17
13 35 17
13 35 17
13 35 17
13 35 17
13 35 17
13 35 17
13 35 17
13 35 17
13 35 17
13 35 17
13 35 17
13 35 17
13 36 18
13 36 18
13 36 18
13 36 18
13 36 18
13 36 18
13 36 18
13 36 18
13 36 18
13 36 18
13 36 18
13 36 18
13 36 18
13 36 18
13 36 18
13 36 18
13 36 18
13 36 18
13 36 18
13 36 18
13 36 18
13 36 18
13 36 18
13 36 18
13 36 18
13 36 18
13 36 18
13 36 18
13 36 18
13 36 18
13 36 18
13 36 18
13 36 18
13 36 18
13 36 18
13 36 18
13 36 18
13 36 18
13 36 18
13 36 18
13 36 18
13 36 18
13 36 18
13 36 18
13 36 18
13 36 18
13 36 18
13 36 18
13 36 18
13 36 18
13 36 18
13 36 18
13 36 18
13 36 18
13 36 18
13 36 18
13 36 18
13 36 18
13 36 18
13 36 18
13 36 18
13 36 18
13 36 18
13 36 18
13 36 18
13 36 18
13 36 18
13 36 18
13 36 18
13 36 18
13 36 18
13 36 18
13 36 18
13 36 18
13 36 18
13 36 18
13 36 18
13 36 18
13 36 18
13 36 18
13 36 18
13 36 18
13 36 18
13 36 18
13 36 18
13 36 18
13 36 18
13 36 18
13 36 18
13 36 18
13 36 18
13 36 18
13 36 18
13 36 18
13 36 18
13 36 18
13 36 18
13 36 18
13 36 18
13 36 18
13 36 18
13 36 18
13 36 18
13 36 18
13 36 18
13 36 18
13 36 18
13 36 18
13 36 18
13 36 18
13 36 18
13 36 18
13 36 18
13 36 18
13 36 18
13 36 18
13 36 18
13 36 18
13 36 18
13 36 18
13 36 18
13 36 18
13 36 18
13 36 18
13 36 18
13 36 18
13 36 18
13 36 18
13 36 18
13 36 18
13 36 18
13 36 18
13 36 18
13 36 18
13 36 18
13 36 18
13 36 18
13 36 18
13 36 18
13 36 18
13 36 18
13 36 18
13 36 18
13 36 18
13 36 18
13 36 18
13 36 18
13 36 18
13 36 18
13 36 18
13 36 18
13 36 18
13 36 18
13 36 18
13 36 18
13 36 18
13 36 18
13 36 18
13 36 18
13 36 18
13 36 18
13 36 18
13 36 18
13 36 18
13 36 18
13 36 18
13 36 18
13 36 18
13 36 18
13 36 18
13 36 18
13 36 18
13 36 18
13 36 18
13 36 18
13 36 18
13 36 18
13 36 18
13 36 18
13 36 18
13 36 18
13 36 18
13 36 18
13 36 18
13 36 18
13 36 18
13 36 18
13 36 18
13 36 18
13 36 18
13 36 18
13 36 18
13 36 18
13 36 18
13 36 18
13 36 18
13 36 18
13 36 18
13 36 18
13 36 18
13 36 18
13 36 18
13 36 18
13 36 18
13 36 18
13 36 18
13 36 18
13 36 18
13 36 18
13 36 18
13 36 18
13 36 18
13 36 18
13 36 18
13 36 18
13 36 18
13 36 18
13 36 18
13 36 18
13 36 18
13 36 18
13 36 18
13 36 18
13 36 18
13 36 18
13 36 18
13 36 18
13 36 18
13 36 18
13 36 18
13 36 18
13 36 18
13 36 18
13 36 18
13 36 18
13 36 18
13 36 18
13 36 18
13 36 18
13 36 18
13 36 18
13 36 18
13 36 18
13 36 18
13 36 18
13 36 18
13 36 18
13 36 18
13 36 18
13 36 18
13 36 18
13 36 18
13 36 18
13 36 18
13 35 17
13 35 17
13 35 17
13 35 17
13 35 17
13 35 17
13 35 17
13 35 17
13 35 17
13 35 17
13 35 17
13 35 17
13 35 17
13 35 17
13 35 17
13 35 17
13 35 17
13 35 17
13 35 17
13 35 17
13 35 17
13 35 17
13 35 17
13 35 17
13 35 17
13 35 17
13 35 17
13 35 17
13 35 17
13 35 17
13 35 17
13 35 17
13 35 17
13 35 17
13 35 17
13 35 17
13 35 17
13 35 17
13 35 17
13 35 17
13 35 17
13 35 17
13 35 17
13 35 17
13 35 17
13 35 17
13 35 17
13 35 17
13 35 17
13 35 17
13 35 17
13 35 17
13 35 17
13 35 17
13 35 17
13 35 17
13 35 17
13 35 17
13 35 17
13 36 18
13 36 18
13 36 18
13 36 18
13 36 18
13 36 18
13 36 18
13 36 18
13 36 18
13 36 18
13 36 18
13 36 18
13 36 18
13 36 18
13 36 18
13 36 18
13 36 18
13 36 18
13 36 18
13 36 18
13 36 18
13 36 18
13 36 18
13 36 18
13 36 18
13 36 18
13 36 18
13 36 18
13 36 18
13 36 18
13 36 18
13 36 18
13 36 18
13 36 18
13 36 18
13 36 18
13 36 18
13 36 18
13 36 18
13 36 18
13 36 18
13 36 18
13 36 18
13 36 18
13 36 18
13 36 18
13 36 18
13 36 18
13 36 18
13 36 18
13 36 18
13 36 18
13 36 18
13 36 18
13 36 18
13 36 18
13 36 18
13 36 18
13 36 18
13 36 18
13 36 18
13 36 18
13 36 18
13 36 18
13 36 18
13 36 18
13 36 18
13 36 18
13 36 18
13 36 18
13 36 18
13 36 18
13 36 18
13 36 18
13 36 18
13 36 18
13 36 18
13 36 18
13 36 18
13 36 18
13 36 18
13 36 18
13 36 18
13 36 18
13 36 18
13 36 18
13 36 18
13 36 18
13 36 18
13 36 18
13 36 18
13 36 18
13 36 18
13 36 18
13 36 18
13 36 18
13 36 18
13 36 18
13 36 18
13 36 18
13 36 18
13 36 18
13 36 18
13 36 18
13 36 18
13 36 18
13 36 18
13 36 18
13 36 18
13 36 18
13 36 18
13 36 18
13 36 18
13 36 18
13 36 18
13 36 18
13 36 18
13 36 18
13 36 18
13 36 18
13 36 18
13 36 18
13 36 18
13 36 18
13 36 18
13 36 18
13 36 18
13 36 18
13 36 18
13 36 18
13 36 18
13 36 18
13 36 18
13 36 18
13 36 18
13 36 18
13 36 18
13 36 18
13 36 18
13 36 18
13 36 18
13 36 18
13 36 18
13 36 18
13 36 18
13 36 18
13 36 18
13 36 18
13 36 18
13 36 18
13 36 18
13 36 18
13 36 18
13 36 18
13 36 18
13 36 18
13 36 18
13 36 18
13 36 18
13 36 18
13 36 18
13 36 18
13 36 18
13 36 18
13 36 18
13 36 18
13 36 18
13 36 18
13 36 18
13 36 18
13 36 18
13 36 18
13 36 18
13 36 18
13 36 18
13 36 18
13 36 18
13 36 18
13 36 18
13 36 18
13 36 18
13 36 18
13 36 18
13 36 18
13 36 18
13 36 18
13 36 18
13 36 18
13 36 18
13 36 18
13 36 18
13 36 18
13 36 18
13 36 18
13 36 18
13 36 18
13 36 18
13 36 18
13 36 18
13 36 18
13 36 18
13 36 18
13 36 18
13 36 18
13 36 18
13 36 18
13 36 18
13 36 18
13 36 18
13 36 18
13 36 18
13 36 18
13 36 18
13 36 18
13 36 18
13 36 18
13 36 18
13 36 18
13 36 18
13 36 18
13 36 18
13 36 18
13 36 18
13 36 18
13 36 18
13 36 18
13 36 18
13 36 18
13 35 17
13 35 17
13 35 17
13 35 17
13 35 17
13 35 17
13 35 17
13 35 17
13 35 17
13 35 17
13 35 17
13 35 17
13 35 17
13 35 17
13 35 17
13 35 17
13 35 17
13 35 17
13 35 17
13 35 17
13 35 17
13 35 17
13 35 17
13 35 17
13 35 17
13 35 17
13 35 17
13 35 17
13 35 17
13 35 17
13 35 17
13 35 17
13 35 17
13 35 17
13 35 17
13 35 17
13 35 17
13 35 17
13 35 17
13 35 17
13 35 17
13 35 17
13 35 17
13 35 17
13 35 17
13 35 17
13 35 17
13 35 17
13 35 17
13 35 17
13 35 17
13 35 17
13 35 17
13 35 17
13 35 17
13 35 17
13 35 17
13 35 17
13 35 17
13 35 17
13 35 17
13 35 17
13 35 17
13 35 17
13 35 17
13 35 17
13 35 17
13 35 17
13 35 17
13 35 17
13 35 17
13 35 17
13 35 17
13 35 17
13 35 17
13 35 17
13 35 17
13 35 17
13 35 17
13 35 17
13 35 17
13 35 17
13 35 17
13 35 17
13 35 17
13 35 17
13 35 17
13 36 18
13 36 18
13 36 18
13 36 18
13 36 18
13 36 18
13 36 18
13 36 18
13 36 18
13 36 18
13 36 18
13 36 18
13 36 18
13 36 18
13 36 18
13 36 18
13 36 18
13 36 18
13 36 18
13 36 18
13 36 18
13 36 18
13 36 18
13 36 18
13 36 18
13 36 18
13 36 18
13 36 18
13 36 18
13 36 18
13 36 18
13 36 18
13 36 18
13 36 18
13 36 18
13 36 18
13 36 18
13 36 18
13 36 18
13 36 18
13 36 18
13 36 18
13 36 18
13 36 18
13 36 18
13 36 18
13 36 18
13 36 18
13 36 18
13 36 18
13 36 18
13 36 18
13 36 18
13 36 18
13 36 18
13 36 18
13 36 18
13 36 18
13 36 18
13 36 18
13 36 18
13 36 18
13 36 18
13 36 18
13 36 18
13 36 18
13 36 18
13 36 18
13 36 18
13 36 18
13 36 18
13 36 18
13 36 18
13 36 18
13 36 18
13 36 18
13 36 18
13 36 18
13 36 18
13 36 18
13 36 18
13 36 18
13 36 18
13 36 18
13 36 18
13 36 18
13 36 18
13 36 18
13 36 18
13 36 18
13 36 18
13 36 18
13 36 18
13 36 18
13 36 18
13 36 18
13 36 18
13 36 18
13 36 18
13 36 18
13 36 18
13 36 18
13 36 18
13 36 18
13 36 18
13 36 18
13 36 18
13 36 18
13 36 18
13 36 18
13 36 18
13 36 18
13 36 18
13 36 18
13 36 18
13 36 18
13 36 18
13 36 18
13 36 18
13 36 18
13 36 18
13 36 18
13 36 18
13 36 18
13 36 18
13 36 18
13 36 18
13 36 18
13 36 18
13 36 18
13 36 18
13 36 18
13 36 18
13 36 18
13 36 18
13 36 18
13 36 18
13 36 18
13 36 18
13 36 18
13 36 18
13 36 18
13 36 18
13 36 18
13 36 18
13 36 18
13 36 18
13 36 18
13 36 18
13 36 18
13 36 18
13 36 18
13 36 18
13 36 18
13 36 18
13 36 18
13 36 18
13 36 18
13 36 18
13 36 18
13 36 18
13 36 18
13 36 18
13 36 18
13 36 18
13 36 18
13 36 18
13 36 18
13 36 18
13 36 18
13 36 18
13 36 18
13 36 18
13 36 18
13 36 18
13 36 18
13 36 18
13 36 18
13 36 18
13 36 18
13 36 18
13 36 18
13 36 18
13 36 18
13 36 18
13 36 18
13 36 18
13 36 18
13 36 18
13 36 18
13 36 18
13 36 18
13 36 18
13 36 18
13 36 18
13 36 18
13 36 18
13 36 18
13 35 17
13 35 17
13 35 17
13 35 17
13 35 17
13 35 17
13 35 17
13 35 17
13 35 17
13 35 17
13 35 17
13 35 17
13 35 17
13 35 17
13 35 17
13 35 17
13 35 17
13 35 17
13 35 17
13 35 17
13 35 17
13 35 17
13 35 17
13 35 17
13 35 17
13 35 17
13 35 17
13 35 17
13 35 17
13 35 17
13 35 17
13 35 17
13 35 17
13 35 17
13 35 17
13 35 17
13 35 17
13 35 17
13 35 17
13 35 17
13 35 17
13 35 17
13 35 17
13 35 17
13 35 17
13 35 17
13 35 17
13 35 17
13 35 17
13 35 17
13 35 17
13 35 17
13 35 17
13 35 17
13 35 17
13 35 17
13 35 17
13 35 17
13 35 17
13 35 17
13 35 17
13 35 17
13 35 17
13 35 17
13 35 17
13 35 17
13 35 17
13 35 17
13 35 17
13 35 17
13 35 17
13 35 17
13 35 17
13 35 17
13 35 17
13 35 17
13 35 17
13 35 17
13 35 17
13 35 17
13 35 17
13 35 17
13 35 17
13 35 17
13 35 17
13 35 17
13 35 17
13 35 17
13 35 17
13 35 17
13 35 17
13 35 17
13 35 17
13 35 17
13 35 17
13 35 17
13 35 17
13 35 17
13 35 17
13 35 17
13 35 17
13 35 17
13 35 17
13 35 17
13 35 17
13 35 17
13 35 17
13 35 17
13 35 17
13 35 17
13 35 17
13 35 17
13 35 17
13 35 17
13 35 17
13 35 17
13 35 17
13 35 17
13 35 17
13 35 17
13 36 18
13 36 18
13 36 18
13 36 18
13 36 18
13 36 18
13 36 18
13 36 18
13 36 18
13 36 18
13 36 18
13 36 18
13 36 18
13 36 18
13 36 18
13 36 18
13 36 18
13 36 18
13 36 18
13 36 18
13 36 18
13 36 18
13 36 18
13 36 18
13 36 18
13 36 18
13 36 18
13 36 18
13 36 18
13 36 18
13 36 18
13 36 18
13 36 18
13 36 18
13 36 18
13 36 18
13 36 18
13 36 18
13 36 18
13 36 18
13 36 18
13 36 18
13 36 18
13 36 18
13 36 18
13 36 18
13 36 18
13 36 18
13 36 18
13 36 18
13 36 18
13 36 18
13 36 18
13 36 18
13 36 18
13 36 18
13 36 18
13 36 18
13 36 18
13 36 18
13 36 18
13 36 18
13 36 18
13 36 18
13 36 18
13 36 18
13 36 18
13 36 18
13 36 18
13 36 18
13 36 18
13 36 18
13 36 18
13 36 18
13 36 18
13 36 18
13 36 18
13 36 18
13 36 18
13 36 18
13 36 18
13 36 18
13 36 18
13 36 18
13 36 18
13 36 18
13 36 18
13 36 18
13 36 18
13 36 18
13 36 18
13 36 18
13 36 18
13 36 18
13 36 18
13 36 18
13 36 18
13 36 18
13 36 18
13 36 18
13 36 18
13 36 18
13 36 18
13 36 18
13 36 18
13 36 18
13 36 18
13 36 18
13 36 18
13 36 18
13 36 18
13 36 18
13 36 18
13 36 18
13 36 18
13 36 18
13 36 18
13 36 18
13 36 18
13 36 18
13 36 18
13 36 18
13 36 18
13 36 18
13 36 18
13 36 18
13 36 18
13 36 18
13 36 18
13 36 18
13 36 18
13 36 18
13 36 18
13 36 18
13 36 18
13 36 18
13 36 18
13 36 18
13 36 18
13 36 18
13 36 18
13 36 18
13 36 18
13 36 18
13 36 18
13 36 18
13 36 18
13 36 18
13 36 18
13 36 18
13 36 18
13 36 18
13 36 18
13 36 18
13 36 18
13 36 18
13 36 18
13 36 18
13 36 18
13 36 18
13 36 18
13 36 18
13 35 17
13 35 17
13 35 17
13 35 17
13 35 17
13 35 17
13 35 17
13 35 17
13 35 17
13 35 17
13 35 17
13 35 17
13 35 17
13 35 17
13 35 17
13 35 17
13 35 17
13 35 17
13 35 17
13 35 17
13 35 17
13 35 17
13 35 17
13 35 17
13 35 17
13 35 17
13 35 17
13 35 17
13 35 17
13 35 17
13 35 17
13 35 17
13 35 17
13 35 17
13 35 17
13 35 17
13 35 17
13 35 17
13 35 17
13 35 17
13 35 17
13 35 17
13 35 17
13 35 17
13 35 17
13 35 17
13 35 17
13 35 17
13 35 17
13 35 17
13 35 17
13 35 17
13 35 17
13 35 17
13 35 17
13 35 17
13 35 17
13 35 17
13 35 17
13 35 17
13 35 17
13 35 17
13 35 17
13 35 17
13 35 17
13 35 17
13 35 17
13 35 17
13 35 17
13 35 17
13 35 17
13 35 17
13 35 17
13 35 17
13 35 17
13 35 17
13 35 17
13 35 17
13 35 17
13 35 17
13 35 17
13 35 17
13 35 17
13 35 17
13 35 17
13 35 17
13 35 17
13 35 17
13 35 17
13 35 17
13 35 17
13 35 17
13 35 17
13 35 17
13 35 17
13 35 17
13 35 17
13 35 17
13 35 17
13 35 17
13 35 17
13 35 17
13 35 17
13 35 17
13 35 17
13 35 17
13 35 17
13 35 17
13 35 17
13 35 17
13 35 17
13 35 17
13 35 17
13 35 17
13 35 17
13 35 17
13 35 17
13 35 17
13 35 17
13 35 17
13 35 17
13 35 17
13 35 17
13 35 17
13 35 17
13 35 17
13 35 17
13 35 17
13 35 17
13 35 17
13 35 17
13 35 17
13 35 17
13 35 17
13 35 17
13 35 17
13 35 17
13 35 17
13 35 17
13 35 17
13 35 17
13 35 17
13 35 17
13 35 17
13 35 17
13 35 17
13 35 17
13 35 17
13 35 17
13 35 17
13 35 17
13 35 17
13 35 17
13 35 17
13 35 17
13 35 17
13 35 17
13 35 17
13 35 17
13 35 17
13 35 17
13 35 17
13 36 18
13 36 18
13 36 18
13 36 18
13 36 18
13 36 18
13 36 18
13 36 18
13 36 18
13 36 18
13 36 18
13 36 18
13 36 18
13 36 18
13 36 18
13 36 18
13 36 18
13 36 18
13 36 18
13 36 18
13 36 18
13 36 18
13 36 18
13 36 18
13 36 18
13 36 18
13 36 18
13 36 18
13 36 18
13 36 18
13 36 18
13 36 18
13 36 18
13 36 18
13 36 18
13 36 18
13 36 18
13 36 18
13 36 18
13 36 18
13 36 18
13 36 18
13 36 18
13 36 18
13 36 18
13 36 18
13 36 18
13 36 18
13 36 18
13 36 18
13 36 18
13 36 18
13 36 18
13 36 18
13 36 18
13 36 18
13 36 18
13 36 18
13 36 18
13 36 18
13 36 18
13 36 18
13 36 18
13 36 18
13 36 18
13 36 18
13 36 18
13 36 18
13 36 18
13 36 18
13 36 18
13 36 18
13 36 18
13 36 18
13 36 18
13 36 18
13 36 18
13 36 18
13 36 18
13 36 18
13 36 18
13 36 18
13 36 18
13 36 18
13 36 18
13 36 18
13 36 18
13 36 18
13 36 18
13 36 18
13 36 18
13 36 18
13 36 18
13 36 18
13 36 18
13 36 18
13 36 18
13 36 18
13 36 18
13 36 18
13 36 18
13 36 18
13 36 18
13 36 18
13 36 18
13 36 18
13 36 18
13 36 18
13 36 18
13 36 18
13 36 18
13 36 18
13 36 18
13 36 18
13 35 17
13 35 17
13 35 17
13 35 17
13 35 17
13 35 17
13 35 17
13 35 17
13 35 17
13 35 17
13 35 17
13 35 17
13 35 17
13 35 17
13 35 17
13 35 17
13 35 17
13 35 17
13 35 17
13 35 17
13 35 17
13 35 17
13 35 17
13 35 17
13 35 17
13 35 17
13 35 17
13 35 17
13 35 17
13 35 17
13 35 17
13 35 17
13 35 17
13 35 17
13 35 17
13 35 17
13 35 17
13 35 17
13 35 17
13 35 17
13 35 17
13 35 17
13 35 17
13 35 17
13 35 17
13 35 17
13 35 17
13 35 17
13 35 17
13 35 17
13 35 17
13 35 17
13 35 17
13 35 17
13 35 17
13 35 17
13 35 17
13 35 17
13 35 17
13 35 17
13 35 17
13 35 17
13 35 17
13 35 17
13 35 17
13 35 17
13 35 17
13 35 17
13 35 17
13 35 17
13 35 17
13 35 17
13 35 17
13 35 17
13 35 17
13 35 17
13 35 17
13 35 17
13 35 17
13 35 17
13 35 17
13 35 17
13 35 17
13 35 17
13 35 17
13 35 17
13 35 17
13 35 17
13 35 17
13 35 17
13 35 17
13 35 17
13 35 17
13 35 17
13 35 17
13 35 17
13 35 17
13 35 17
13 35 17
13 35 17
13 35 17
13 35 17
13 35 17
13 35 17
13 35 17
13 35 17
13 35 17
13 35 17
13 35 17
13 35 17
13 35 17
13 35 17
13 35 17
13 35 17
13 35 17
13 35 17
13 35 17
13 35 17
13 35 17
13 35 17
13 35 17
13 35 17
13 35 17
13 35 17
13 35 17
13 35 17
13 35 17
13 35 17
13 35 17
13 35 17
13 35 17
13 35 17
13 35 17
13 35 17
13 35 17
13 35 17
13 35 17
13 35 17
13 35 17
13 35 17
13 35 17
13 35 17
13 35 17
13 35 17
13 35 17
13 35 17
13 35 17
13 35 17
13 35 17
13 35 17
13 35 17
13 35 17
13 35 17
13 35 17
13 35 17
13 35 17
13 35 17
13 35 17
13 35 17
13 35 17
13 35 17
13 35 17
13 35 17
13 35 17
13 35 17
13 35 17
13 35 17
13 35 17
13 35 17
13 35 17
13 35 17
13 35 17
13 35 17
13 35 17
13 35 17
13 35 17
13 35 17
13 35 17
13 35 17
13 35 17
13 35 17
13 35 17
13 35 17
13 35 17
13 35 17
13 35 17
13 35 17
13 35 17
13 35 17
13 35 17
13 35 17
13 35 17
13 35 17
13 35 17
13 35 17
13 35 17
13 35 17
13 35 17
13 35 17
13 35 17
13 35 17
13 35 17
13 35 17
13 35 17
13 35 17
13 35 17
13 35 17
13 35 17
13 35 17
13 35 17
13 35 17
13 35 17
13 35 17
13 35 17
13 35 17
13 35 17
13 35 17
13 35 17
13 35 17
13 35 17
13 35 17
13 35 17
13 35 17
13 35 17
13 35 17
13 35 17
13 35 17
13 35 17
13 35 17
13 35 17
13 35 17
13 35 17
13 35 17
13 35 17
13 35 17
13 35 17
13 35 17
13 35 17
13 35 17
13 35 17
13 35 17
13 35 17
13 35 17
13 35 17
13 35 17
13 35 17
13 35 17
13 35 17
13 35 17
13 35 17
13 35 17
13 35 17
13 35 17
13 35 17
13 35 17
13 35 17
13 35 17
13 35 17
13 35 17
13 35 17
13 35 17
13 35 17
13 35 17
13 35 17
13 35 17
13 35 17
13 35 17
13 35 17
13 35 17
13 35 17
13 35 17
13 35 17
13 35 17
13 35 17
13 35 17
13 35 17
13 35 17
13 35 17
13 35 17
13 35 17
13 35 17
13 35 17
13 35 17
13 35 17
13 35 17
13 35 17
13 35 17
13 35 17
13 35 17
13 35 17
13 35 17
13 35 17
13 35 17
13 35 17
13 35 17
13 35 17
13 35 17
13 35 17
13 35 17
13 35 17
13 35 17
13 35 17
13 35 17
13 35 17
13 35 17
13 35 17
13 35 17
13 35 17
13 35 17
13 35 17
13 35 17
13 35 17
13 35 17
13 35 17
13 35 17
13 35 17
13 35 17
13 35 17
13 35 17
13 35 17
13 35 17
13 35 17
13 35 17
13 35 17
13 35 17
13 35 17
13 35 17
13 35 17
13 35 17
13 35 17
13 35 17
13 35 17
13 35 17
13 35 17
13 35 17
13 35 17
13 35 17
13 35 17
13 35 17
13 35 17
13 35 17
13 35 17
13 35 17
13 35 17
13 35 17
13 35 17
13 35 17
13 35 17
13 35 17
13 35 17
13 35 17
13 35 17
13 35 17
13 35 17
13 35 17
13 35 17
13 35 17
13 35 17
13 35 17
13 35 17
13 35 17
13 35 17
13 35 17
13 35 17
13 35 17
13 35 17
13 35 17
13 35 17
13 35 17
13 35 17
13 35 17
13 35 17
13 35 17
13 35 17
13 35 17
13 35 17
13 35 17
13 35 17
13 35 17
13 35 17
13 35 17
13 35 17
13 35 17
13 35 17
13 35 17
13 35 17
13 35 17
13 35 17
13 35 17
13 35 17
13 35 17
13 35 17
13 35 17
13 35 17
13 35 17
13 35 17
13 35 17
13 35 17
13 35 17
13 35 17
13 35 17
13 35 17
13 35 17
13 35 17
13 35 17
13 35 17
13 35 17
13 35 17
13 35 17
13 35 17
13 35 17
13 35 17
13 35 17
13 35 17
13 35 17
13 35 17
13 35 17
13 35 17
13 35 17
13 35 17
13 35 17
13 35 17
13 35 17
13 35 17
13 35 17
13 35 17
13 35 17
13 35 17
13 35 17
13 35 17
13 35 17
13 35 17
13 35 17
13 35 17
13 35 17
13 35 17
13 35 17
13 35 17
13 35 17
13 35 17
13 35 17
13 35 17
13 35 17
13 35 17
13 35 17
13 35 17
13 35 17
13 35 17
13 35 17
13 35 17
13 35 17
13 35 17
13 35 17
13 35 17
13 35 17
13 35 17
13 35 17
13 35 17
13 35 17
13 35 17
13 35 17
13 35 17
13 35 17
13 35 17
13 35 17
13 35 17
13 35 17
13 35 17
13 35 17
13 35 17
13 35 17
13 35 17
13 35 17
13 35 17
13 35 17
13 35 17
13 35 17
13 35 17
13 35 17
13 35 17
13 35 17
13 35 17
13 35 17
13 35 17
13 35 17
13 35 17
13 35 17
13 35 17
13 35 17
13 35 17
13 35 17
13 35 17
13 35 17
13 35 17
13 35 17
13 35 17
13 35 17
13 35 17
13 35 17
13 35 17
13 35 17
13 35 17
13 35 17
13 35 17
13 35 17
13 35 17
13 35 17
13 35 17
13 35 17
13 35 17
13 35 17
13 35 17
13 35 17
13 35 17
13 35 17
13 35 17
13 35 17
13 35 17
13 35 17
13 35 17
13 35 17
13 35 17
13 35 17
13 35 17
13 35 17
13 35 17
13 35 17
13 35 17
13 35 17
13 35 17
13 35 17
13 35 17
13 35 17
13 35 17
13 35 17
13 35 17
13 35 17
13 35 17
13 35 17
13 35 17
13 35 17
13 35 17
13 35 17
13 35 17
13 35 17
13 35 17
13 35 17
13 35 17
13 35 17
13 35 17
13 35 17
13 35 17
13 35 17
13 35 17
13 35 17
13 35 17
13 35 17
13 35 17
13 35 17
13 35 17
13 35 17
13 35 17
13 35 17
13 35 17
13 35 17
13 35 17
13 35 17
13 35 17
13 35 17
13 35 17
13 35 17
13 35 17
13 35 17
13 35 17
13 35 17
13 35 17
13 35 17
13 35 17
13 35 17
13 35 17
13 35 17
13 35 17
13 35 17
13 35 17
13 35 17
13 35 17
13 35 17
13 35 17
13 35 17
13 35 17
13 35 17
13 35 17
13 35 17
13 35 17
13 35 17
13 35 17
13 35 17
13 35 17
13 35 17
13 35 17
13 35 17
13 35 17
13 35 17
13 35 17
13 35 17
13 35 17
13 35 17
13 35 17
13 35 17
13 35 17
13 35 17
13 35 17
13 35 17
13 35 17
13 35 17
13 35 17
13 35 17
13 35 17
13 35 17
13 35 17
13 35 17
13 35 17
13 35 17
13 35 17
13 35 17
13 35 17
13 35 17
13 35 17
13 35 17
13 35 17
13 35 17
13 35 17
13 35 17
13 35 17
13 35 17
13 35 17
13 35 17
13 35 17
13 35 17
13 35 17
13 35 17
13 35 17
13 35 17
13 35 17
13 35 17
13 35 17
13 35 17
13 35 17
13 35 17
13 35 17
13 35 17
13 35 17
13 35 17
13 35 17
13 35 17
13 35 17
13 35 17
13 35 17
13 35 17
13 35 17
13 35 17
13 35 17
13 35 17
13 35 17
13 35 17
13 35 17
13 35 17
13 35 17
13 35 17
13 35 17
13 35 17
13 35 17
13 35 17
13 35 17
13 35 17
13 35 17
13 35 17
13 35 17
13 35 17
13 35 17
13 35 17
13 35 17
13 35 17
13 35 17
13 35 17
13 35 17
13 35 17
13 35 17
13 35 17
13 35 17
13 35 17
13 35 17
13 35 17
13 35 17
13 35 17
13 35 17
13 35 17
13 35 17
13 35 17
13 35 17
13 35 17
13 35 17
13 35 17
13 35 17
13 35 17
13 35 17
13 35 17
13 35 17
13 35 17
13 35 17
13 35 17
13 35 17
13 35 17
13 35 17
13 35 17
13 35 17
13 35 17
13 35 17
13 35 17
13 35 17
13 35 17
13 35 17
13 35 17
13 35 17
13 35 17
13 35 17
13 35 17
13 35 17
13 35 17
13 35 17
13 35 17
13 35 17
13 35 17
13 35 17
13 35 17
13 35 17
13 35 17
13 35 17
13 35 17
13 35 17
13 35 17
13 35 17
13 35 17
13 35 17
13 35 17
13 35 17
13 35 17
13 35 17
13 35 17
13 35 17
13 35 17
13 35 17
13 35 17
13 35 17
13 35 17
13 35 17
13 35 17
13 35 17
13 35 17
13 35 17
13 35 17
13 35 17
13 35 17
13 35 17
13 35 17
13 35 17
13 35 17
13 35 17
13 35 17
13 35 17
13 35 17
13 35 17
13 35 17
13 35 17
13 35 17
13 35 17
13 35 17
13 35 17
13 35 17
13 35 17
13 35 17
13 35 17
13 35 17
13 35 17
13 35 17
13 35 17
13 35 17
13 35 17
13 35 17
13 35 17
13 35 17
13 35 17
13 35 17
13 35 17
13 35 17
13 35 17
13 35 17
13 35 17
13 35 17
13 35 17
13 35 17
13 35 17
13 35 17
13 35 17
13 35 17
13 35 17
13 35 17
13 35 17
13 35 17
13 35 17
13 35 17
13 35 17
13 35 17
13 35 17
13 35 17
13 35 17
13 35 17
13 35 17
13 35 17
13 35 17
13 35 17
13 35 17
13 35 17
13 35 17
13 35 17
13 35 17
13 35 17
13 35 17
13 35 17
13 35 17
13 35 17
13 35 17
13 35 17
13 35 17
13 35 17
13 35 17
13 35 17
13 35 17
13 35 17
13 35 17
13 35 17
13 35 17
13 35 17
13 35 17
13 35 17
13 35 17
13 35 17
13 35 17
13 35 17
13 35 17
13 35 17
13 35 17
13 35 17
13 35 17
13 35 17
13 35 17
13 35 17
13 35 17
13 35 17
13 35 17
13 35 17
13 35 17
13 35 17
13 35 17
13 35 17
13 35 17
13 35 17
13 35 17
13 35 17
13 35 17
13 35 17
13 35 17
13 35 17
13 35 17
13 35 17
13 35 17
13 35 17
13 35 17
13 35 17
13 35 17
13 35 17
13 35 17
13 35 17
13 35 17
13 35 17
13 35 17
13 35 17
13 35 17
13 35 17
13 35 17
13 35 17
13 35 17
13 35 17
13 35 17
13 35 17
13 35 17
13 35 17
13 35 17
13 35 17
13 35 17
13 35 17
13 35 17
13 35 17
13 35 17
13 35 17
13 35 17
13 35 17
13 35 17
13 35 17
13 35 17
13 35 17
13 35 17
13 35 17
13 35 17
13 35 17
13 35 17
13 35 17
13 35 17
13 35 17
13 35 17
13 35 17
13 35 17
13 35 17
13 35 17
13 35 17
13 35 17
13 35 17
13 35 17
13 35 17
13 35 17
13 35 17
13 35 17
13 35 17
13 35 17
13 35 17
13 35 17
13 35 17
13 35 17
13 35 17
13 35 17
13 35 17
13 35 17
13 35 17
13 35 17
13 35 17
13 35 17
13 35 17
13 35 17
13 35 17
13 35 17
13 35 17
13 35 17
13 35 17
13 35 17
13 35 17
13 35 17
13 35 17
13 35 17
13 35 17
13 35 17
13 35 17
13 35 17
13 35 17
13 35 17
13 35 17
13 35 17
13 35 17
13 35 17
13 35 17
13 35 17
13 35 17
13 35 17
13 35 17
13 35 17
13 35 17
13 35 17
13 35 17
13 35 17
13 35 17
13 35 17
13 35 17
13 35 17
13 35 17
13 35 17
13 35 17
13 35 17
13 35 17
13 35 17
13 35 17
13 35 17
13 35 17
13 35 17
13 35 17
13 35 17
13 35 17
13 35 17
13 35 17
13 35 17
13 35 17
13 35 17
13 35 17
13 35 17
13 35 17
13 35 17
13 35 17
13 35 17
13 35 17
13 35 17
13 35 17
13 35 17
3 10 5
3 10 5
3 10 5
3 10 5
3 10 5
13 35 17
13 35 17
13 35 17
13 35 17
13 35 17
13 35 17
13 35 17
13 35 17
13 35 17
13 35 17
13 35 17
13 35 17
13 35 17
13 35 17
13 35 17
13 35 17
13 35 17
13 35 17
13 35 17
13 35 17
13 35 17
13 35 17
13 35 17
13 35 17
13 35 17
13 35 17
13 35 17
13 35 17
13 35 17
13 35 17
13 35 17
13 35 17
13 35 17
13 35 17
13 35 17
13 35 17
13 35 17
13 35 17
13 35 17
13 35 17
13 35 17
13 35 17
13 35 17
13 35 17
13 35 17
13 35 17
13 35 17
13 35 17
13 35 17
13 35 17
13 35 17
13 35 17
13 35 17
13 35 17
13 35 17
13 35 17
13 35 17
13 35 17
13 35 17
13 35 17
13 35 17
13 35 17
13 35 17
13 35 17
13 35 17
13 35 17
13 35 17
13 35 17
13 35 17
13 35 17
13 35 17
13 35 17
13 35 17
13 35 17
13 35 17
13 35 17
13 35 17
13 35 17
13 35 17
13 35 17
13 35 17
13 35 17
13 35 17
13 35 17
13 35 17
13 35 17
13 35 17
13 35 17
13 35 17
13 35 17
13 35 17
13 35 17
13 35 17
13 35 17
13 35 17
13 35 17
13 35 17
13 35 17
13 35 17
13 35 17
13 35 17
13 35 17
13 35 17
13 35 17
13 35 17
13 35 17
13 35 17
13 35 17
13 35 17
13 35 17
13 35 17
13 35 17
13 35 17
13 35 17
13 35 17
13 35 17
13 35 17
13 35 17
13 35 17
13 35 17
13 35 17
13 35 17
13 35 17
13 35 17
13 35 17
13 35 17
13 35 17
13 35 17
13 35 17
13 35 17
13 35 17
13 35 17
13 35 17
13 35 17
13 35 17
13 35 17
13 35 17
13 35 17
13 35 17
13 35 17
13 35 17
13 35 17
13 35 17
13 35 17
13 35 17
13 35 17
13 35 17
13 35 17
13 35 17
13 35 17
13 35 17
13 35 17
13 35 17
13 35 17
13 35 17
13 35 17
13 35 17
13 35 17
13 35 17
13 35 17
13 35 17
13 35 17
13 35 17
13 35 17
13 35 17
13 35 17
13 35 17
13 35 17
13 35 17
13 35 17
13 35 17
13 35 17
13 35 17
13 35 17
13 35 17
13 35 17
13 35 17
13 35 17
13 35 17
13 35 17
13 35 17
13 35 17
13 35 17
13 35 17
13 35 17
13 35 17
13 35 17
13 35 17
13 35 17
13 35 17
13 35 17
13 35 17
13 35 17
13 35 17
13 35 17
13 35 17
13 35 17
13 35 17
13 35 17
13 35 17
13 35 17
13 35 17
13 35 17
13 35 17
13 35 17
13 35 17
13 35 17
13 35 17
13 35 17
13 35 17
13 35 17
13 35 17
13 35 17
13 35 17
13 35 17
13 35 17
13 35 17
13 35 17
13 35 17
13 35 17
13 35 17
13 35 17
13 35 17
13 35 17
13 35 17
13 35 17
13 35 17
13 35 17
13 35 17
13 35 17
13 35 17
13 35 17
13 35 17
13 35 17
13 35 17
13 35 17
13 35 17
13 35 17
13 35 17
13 35 17
13 35 17
13 35 17
13 35 17
13 35 17
13 35 17
13 35 17
13 35 17
13 35 17
13 35 17
13 35 17
13 35 17
13 35 17
13 35 17
13 35 17
13 35 17
13 35 17
13 35 17
13 35 17
13 35 17
13 35 17
13 35 17
13 35 17
13 35 17
13 35 17
13 35 17
13 35 17
13 35 17
13 35 17
13 35 17
13 35 17
13 35 17
13 34 17
13 34 17
13 35 17
13 35 17
13 35 17
13 35 17
13 35 17
13 35 17
13 35 17
13 35 17
13 35 17
13 35 17
13 35 17
13 35 17
13 35 17
13 35 17
13 35 17
13 35 17
3 10 5
3 10 5
3 10 5
3 10 5
3 10 5
3 10 5
3 10 5
3 10 5
3 10 5
3 10 5
3 10 5
3 10 5
3 10 5
13 35 17
13 35 17
13 35 17
13 35 17
13 35 17
13 35 17
13 35 17
13 35 17
13 35 17
13 35 17
13 35 17
13 35 17
13 35 17
13 35 17
13 35 17
13 35 17
13 35 17
13 35 17
13 35 17
13 35 17
13 35 17
13 35 17
13 35 17
13 35 17
13 35 17
13 35 17
13 35 17
13 35 17
13 35 17
13 35 17
13 35 17
13 35 17
13 35 17
13 35 17
13 35 17
13 35 17
13 35 17
13 35 17
13 35 17
13 35 17
13 35 17
13 35 17
13 35 17
13 35 17
13 35 17
13 35 17
13 35 17
13 35 17
13 35 17
13 35 17
13 35 17
13 35 17
13 35 17
13 35 17
13 35 17
13 35 17
13 35 17
13 35 17
13 35 17
13 35 17
13 35 17
13 35 17
13 35 17
13 35 17
13 35 17
13 35 17
13 35 17
13 35 17
13 35 17
13 35 17
13 35 17
13 35 17
13 35 17
13 35 17
13 35 17
13 35 17
13 35 17
13 35 17
13 35 17
13 35 17
13 35 17
13 35 17
13 35 17
13 35 17
13 35 17
13 35 17
13 35 17
13 35 17
13 35 17
13 35 17
13 35 17
13 35 17
13 35 17
13 35 17
13 35 17
13 35 17
13 35 17
13 35 17
13 35 17
13 35 17
13 35 17
13 35 17
13 35 17
13 35 17
13 35 17
13 35 17
13 35 17
13 35 17
13 35 17
13 35 17
13 35 17
13 35 17
13 35 17
13 35 17
13 35 17
13 35 17
13 35 17
13 35 17
13 35 17
13 35 17
13 35 17
13 35 17
13 35 17
13 35 17
13 35 17
13 35 17
13 35 17
13 35 17
13 35 17
13 35 17
13 35 17
13 35 17
13 35 17
13 35 17
13 35 17
13 35 17
13 35 17
13 35 17
13 35 17
13 35 17
13 35 17
13 35 17
13 35 17
13 35 17
13 35 17
13 35 17
13 35 17
13 35 17
13 35 17
13 35 17
13 35 17
13 35 17
13 35 17
13 35 17
13 35 17
13 35 17
13 35 17
13 35 17
13 35 17
13 35 17
13 35 17
13 35 17
13 35 17
13 35 17
13 35 17
13 35 17
13 35 17
13 35 17
13 35 17
13 35 17
13 35 17
13 35 17
13 35 17
13 35 17
13 35 17
13 35 17
13 35 17
13 35 17
13 35 17
13 35 17
13 35 17
13 35 17
13 35 17
13 35 17
13 35 17
13 35 17
13 35 17
13 35 17
13 35 17
13 35 17
13 35 17
13 35 17
13 35 17
13 35 17
13 35 17
13 35 17
13 35 17
13 35 17
13 35 17
13 35 17
13 35 17
13 35 17
13 35 17
13 35 17
13 35 17
13 35 17
13 35 17
13 35 17
13 35 17
13 35 17
13 35 17
13 35 17
13 35 17
13 35 17
13 35 17
13 35 17
13 35 17
13 35 17
13 35 17
13 35 17
13 35 17
13 35 17
13 35 17
13 35 17
13 35 17
13 35 17
13 35 17
13 35 17
13 35 17
13 35 17
13 35 17
13 35 17
13 35 17
13 35 17
13 35 17
13 35 17
13 35 17
13 35 17
13 35 17
13 35 17
13 35 17
13 35 17
13 35 17
13 35 17
13 35 17
13 35 17
13 35 17
13 35 17
13 35 17
13 35 17
13 35 17
13 35 17
13 35 17
13 35 17
13 35 17
13 35 17
13 35 17
13 35 17
13 35 17
13 35 17
13 35 17
13 35 17
13 35 17
13 35 17
13 35 17
13 35 17
13 35 17
13 35 17
13 35 17
13 34 17
13 34 17
13 34 17
13 34 17
13 34 17
13 34 17
13 34 17
13 34 17
13 34 17
13 34 17
13 34 17
13 34 17
13 34 17
13 35 17
3 10 5
3 10 5
3 10 5
3 10 5
3 10 5
3 10 5
3 10 5
3 10 5
3 10 5
3 10 5
3 10 5
3 10 5
3 10 5
3 10 5
3 10 5
3 10 5
3 10 5
13 35 17
13 35 17
13 35 17
13 35 17
13 35 17
13 35 17
13 35 17
13 35 17
13 35 17
13 35 17
13 35 17
13 35 17
13 35 17
13 35 17
13 35 17
13 35 17
13 35 17
13 35 17
13 35 17
13 35 17
13 35 17
13 35 17
13 35 17
13 35 17
13 35 17
13 35 17
13 35 17
13 35 17
13 35 17
13 35 17
13 35 17
13 35 17
13 35 17
13 35 17
13 35 17
13 35 17
13 35 17
13 35 17
13 35 17
13 35 17
13 35 17
13 35 17
13 35 17
13 35 17
13 35 17
13 35 17
13 35 17
13 35 17
13 35 17
13 35 17
13 35 17
13 35 17
13 35 17
13 35 17
13 35 17
13 35 17
13 35 17
13 35 17
13 35 17
13 35 17
13 35 17
13 35 17
13 35 17
13 35 17
13 35 17
13 35 17
13 35 17
13 35 17
13 35 17
13 35 17
13 35 17
13 35 17
13 35 17
13 35 17
13 35 17
13 35 17
13 35 17
13 35 17
13 35 17
13 35 17
13 35 17
13 35 17
13 35 17
13 35 17
13 35 17
13 35 17
13 35 17
13 35 17
13 35 17
13 35 17
13 35 17
13 35 17
13 35 17
13 35 17
13 35 17
13 35 17
13 35 17
13 35 17
13 35 17
13 35 17
13 35 17
13 35 17
13 35 17
13 35 17
13 35 17
13 35 17
13 35 17
13 35 17
13 35 17
13 35 17
13 35 17
13 35 17
13 35 17
13 35 17
13 35 17
13 35 17
13 35 17
13 35 17
13 35 17
13 35 17
13 35 17
13 35 17
13 35 17
13 35 17
13 35 17
13 35 17
13 35 17
13 35 17
13 35 17
13 35 17
13 35 17
13 35 17
13 35 17
13 35 17
13 35 17
13 35 17
13 35 17
13 35 17
13 35 17
13 35 17
13 35 17
13 35 17
13 35 17
13 35 17
13 35 17
13 35 17
13 35 17
13 35 17
13 35 17
13 35 17
13 35 17
13 35 17
13 35 17
13 35 17
13 35 17
13 35 17
13 35 17
13 35 17
13 35 17
13 35 17
13 35 17
13 35 17
13 35 17
13 35 17
13 35 17
13 35 17
13 35 17
13 35 17
13 35 17
13 35 17
13 35 17
13 35 17
13 35 17
13 35 17
13 35 17
13 35 17
13 35 17
13 35 17
13 35 17
13 35 17
13 35 17
13 35 17
13 35 17
13 35 17
13 35 17
13 35 17
13 35 17
13 35 17
13 35 17
13 35 17
13 35 17
13 35 17
13 35 17
13 35 17
13 35 17
13 35 17
13 35 17
13 35 17
13 35 17
13 35 17
13 35 17
13 35 17
13 35 17
13 35 17
13 35 17
13 35 17
13 35 17
13 35 17
13 35 17
13 35 17
13 35 17
13 35 17
13 35 17
13 35 17
13 35 17
13 35 17
13 35 17
13 35 17
13 35 17
13 35 17
13 35 17
13 35 17
13 35 17
13 35 17
13 35 17
13 35 17
13 35 17
13 35 17
13 35 17
13 35 17
13 35 17
13 35 17
13 35 17
13 35 17
13 35 17
13 35 17
13 35 17
13 35 17
13 35 17
13 35 17
13 35 17
13 35 17
13 35 17
13 35 17
13 35 17
13 35 17
13 35 17
13 35 17
13 35 17
13 35 17
13 35 17
13 35 17
13 35 17
13 35 17
13 35 17
13 35 17
13 35 17
13 35 17
13 35 17
13 35 17
13 35 17
13 35 17
13 35 17
13 35 17
13 35 17
13 35 17
13 35 17
13 35 17
13 35 17
13 34 17
13 34 17
13 34 17
13 34 17
13 34 17
13 34 17
13 34 17
13 34 17
13 34 17
13 34 17
3 10 5
3 10 5
3 10 5
3 10 5
3 10 5
3 10 5
3 10 5
3 10 5
3 10 5
3 10 5
3 10 5
3 10 5
3 10 5
3 10 5
3 10 5
3 10 5
3 10 5
3 10 5
3 10 5
3 10 5
3 10 5
13 35 17
13 35 17
13 35 17
13 35 17
13 35 17
13 35 17
13 35 17
13 35 17
13 35 17
13 35 17
13 35 17
13 35 17
13 35 17
13 35 17
13 35 17
13 35 17
13 35 17
13 35 17
13 35 17
13 35 17
13 35 17
13 35 17
13 35 17
13 35 17
13 35 17
13 35 17
13 35 17
13 35 17
13 35 17
13 35 17
13 35 17
13 35 17
13 35 17
13 35 17
13 35 17
13 35 17
13 35 17
13 35 17
13 35 17
13 35 17
13 35 17
13 35 17
13 35 17
13 35 17
13 35 17
13 35 17
13 35 17
13 35 17
13 35 17
13 35 17
13 35 17
13 35 17
13 35 17
13 35 17
13 35 17
13 35 17
13 35 17
13 35 17
13 35 17
13 35 17
13 35 17
13 35 17
13 35 17
13 35 17
13 35 17
13 35 17
13 35 17
13 35 17
13 35 17
13 35 17
13 35 17
13 35 17
13 35 17
13 35 17
13 35 17
13 35 17
13 35 17
13 35 17
13 35 17
13 35 17
13 35 17
13 35 17
13 35 17
13 35 17
13 35 17
13 35 17
13 35 17
13 35 17
13 35 17
13 35 17
13 35 17
13 35 17
13 35 17
13 35 17
13 35 17
13 35 17
13 35 17
13 35 17
13 35 17
13 35 17
13 35 17
13 35 17
13 35 17
13 35 17
13 35 17
13 35 17
13 35 17
13 35 17
13 35 17
13 35 17
13 35 17
13 35 17
13 35 17
13 35 17
13 35 17
13 35 17
13 35 17
13 35 17
13 35 17
13 35 17
13 35 17
13 35 17
13 35 17
13 35 17
13 35 17
13 35 17
13 35 17
13 35 17
13 35 17
13 35 17
13 35 17
13 35 17
13 35 17
13 35 17
13 35 17
13 35 17
13 35 17
13 35 17
13 35 17
13 35 17
13 35 17
13 35 17
13 35 17
13 35 17
13 35 17
13 35 17
13 35 17
13 35 17
13 35 17
13 35 17
13 35 17
13 35 17
13 35 17
13 35 17
13 35 17
13 35 17
13 35 17
13 35 17
13 35 17
13 35 17
13 35 17
13 35 17
13 35 17
13 35 17
13 35 17
13 35 17
13 35 17
13 35 17
13 35 17
13 35 17
13 35 17
13 35 17
13 35 17
13 35 17
13 35 17
13 35 17
13 35 17
13 35 17
13 35 17
13 35 17
13 35 17
13 35 17
13 35 17
13 35 17
13 35 17
13 35 17
13 35 17
13 35 17
13 35 17
13 35 17
13 35 17
13 35 17
13 35 17
13 35 17
13 35 17
13 35 17
13 35 17
13 35 17
13 35 17
13 35 17
13 35 17
13 35 17
13 35 17
13 35 17
13 35 17
13 35 17
13 35 17
13 35 17
13 35 17
13 35 17
13 35 17
13 35 17
13 35 17
13 35 17
13 35 17
13 35 17
13 35 17
13 35 17
13 35 17
13 35 17
13 35 17
13 35 17
13 35 17
13 35 17
13 35 17
13 35 17
13 35 17
13 35 17
13 35 17
13 35 17
13 35 17
13 35 17
13 35 17
13 35 17
13 35 17
13 35 17
13 35 17
13 35 17
13 35 17
13 35 17
13 35 17
13 35 17
13 35 17
13 35 17
13 35 17
13 35 17
13 35 17
13 35 17
13 35 17
13 35 17
13 35 17
13 35 17
13 35 17
13 35 17
13 35 17
13 35 17
13 35 17
13 35 17
13 35 17
13 35 17
13 35 17
13 34 17
13 34 17
13 34 17
13 34 17
13 34 17
13 34 17
13 34 17
13 34 17
13 34 17
13 34 17
13 34 17
13 34 17
13 34 17
13 34 17
13 34 17
3 10 5
3 10 5
3 10 5
3 10 5
3 10 5
3 10 5
3 10 5
3 10 5
3 10 5
3 10 5
3 10 5
3 10 5
3 10 5
3 10 5
3 10 5
3 10 5
3 10 5
3 10 5
3 10 5
3 10 5
3 10 5
3 10 5
3 10 5
3 10 5
13 34 17
13 34 17
13 34 17
13 34 17
13 34 17
13 34 17
13 35 17
13 35 17
13 35 17
13 35 17
13 35 17
13 35 17
13 35 17
13 35 17
13 35 17
13 35 17
13 35 17
13 35 17
13 35 17
13 35 17
13 35 17
13 35 17
13 35 17
13 35 17
13 35 17
13 35 17
13 35 17
13 35 17
13 35 17
13 35 17
13 35 17
13 35 17
13 35 17
13 35 17
13 35 17
13 35 17
13 35 17
13 35 17
13 35 17
13 35 17
13 35 17
13 35 17
13 35 17
13 35 17
13 35 17
13 35 17
13 35 17
13 35 17
13 35 17
13 35 17
13 35 17
13 35 17
13 35 17
13 35 17
13 35 17
13 35 17
13 35 17
13 35 17
13 35 17
13 35 17
13 35 17
13 35 17
13 35 17
13 35 17
13 35 17
13 35 17
13 35 17
13 35 17
13 35 17
13 35 17
13 35 17
13 35 17
13 35 17
13 35 17
13 35 17
13 35 17
13 35 17
13 35 17
13 35 17
13 35 17
13 35 17
13 35 17
13 35 17
13 35 17
13 35 17
13 35 17
13 35 17
13 35 17
13 35 17
13 35 17
13 35 17
13 35 17
13 35 17
13 35 17
13 35 17
13 35 17
13 35 17
13 35 17
13 35 17
13 35 17
13 35 17
13 35 17
13 35 17
13 35 17
13 35 17
13 35 17
13 35 17
13 35 17
13 35 17
13 35 17
13 35 17
13 35 17
13 35 17
13 35 17
13 35 17
13 35 17
13 35 17
13 35 17
13 35 17
13 35 17
13 35 17
13 35 17
13 35 17
13 35 17
13 35 17
13 35 17
13 35 17
13 35 17
13 35 17
13 35 17
13 35 17
13 35 17
13 35 17
13 35 17
13 35 17
13 35 17
13 35 17
13 35 17
13 35 17
13 35 17
13 35 17
13 35 17
13 35 17
13 35 17
13 35 17
13 35 17
13 35 17
13 35 17
13 35 17
13 35 17
13 35 17
13 35 17
13 35 17
13 35 17
13 35 17
13 35 17
13 35 17
13 35 17
13 35 17
13 35 17
13 35 17
13 35 17
13 35 17
13 35 17
13 35 17
13 35 17
13 35 17
13 35 17
13 35 17
13 35 17
13 35 17
13 35 17
13 35 17
13 35 17
13 35 17
13 35 17
13 35 17
13 35 17
13 35 17
13 35 17
13 35 17
13 35 17
13 35 17
13 35 17
13 35 17
13 35 17
13 35 17
13 35 17
13 35 17
13 35 17
13 35 17
13 35 17
13 35 17
13 35 17
13 35 17
13 35 17
13 35 17
13 35 17
13 35 17
13 35 17
13 35 17
13 35 17
13 35 17
13 35 17
13 35 17
13 35 17
13 35 17
13 35 17
13 35 17
13 35 17
13 35 17
13 35 17
13 35 17
13 35 17
13 35 17
13 35 17
13 35 17
13 35 17
13 35 17
13 35 17
13 35 17
13 35 17
13 35 17
13 35 17
13 35 17
13 35 17
13 35 17
13 35 17
13 35 17
13 35 17
13 35 17
13 35 17
13 35 17
13 35 17
13 35 17
13 35 17
13 35 17
13 35 17
13 35 17
13 35 17
13 35 17
13 35 17
13 35 17
13 35 17
13 35 17
13 35 17
13 35 17
13 35 17
13 34 17
13 34 17
13 34 17
13 34 17
13 34 17
13 34 17
13 34 17
13 34 17
13 34 17
13 34 17
13 34 17
13 34 17
13 34 17
13 34 17
13 34 17
13 34 17
13 34 17
13 34 17
13 34 17
13 34 17
13 34 17
13 34 17
13 34 17
13 34 17
3 10 5
3 10 5
3 10 5
3 10 5
3 10 5
3 10 5
3 10 5
3 10 5
3 10 5
3 10 5
3 10 5
3 10 5
3 10 5
3 10 5
3 10 5
3 10 5
3 10 5
3 10 5
3 10 5
3 10 5
3 10 5
3 10 5
3 10 5
3 10 5
3 10 5
3 10 5
3 10 5
13 34 17
13 34 17
13 34 17
13 34 17
13 34 17
13 34 17
13 34 17
13 34 17
13 34 17
13 34 17
13 34 17
13 34 17
13 34 17
13 34 17
13 34 17
13 34 17
13 34 17
13 34 17
13 34 17
13 34 17
13 34 17
13 34 17
13 35 17
13 35 17
13 35 17
13 35 17
13 35 17
13 35 17
13 35 17
13 35 17
13 35 17
13 35 17
13 35 17
13 35 17
13 35 17
13 35 17
13 35 17
13 35 17
13 35 17
13 35 17
13 35 17
13 35 17
13 35 17
13 35 17
13 35 17
13 35 17
13 35 17
13 35 17
13 35 17
13 35 17
13 35 17
13 35 17
13 35 17
13 35 17
13 35 17
13 35 17
13 35 17
13 35 17
13 35 17
13 35 17
13 35 17
13 35 17
13 35 17
13 35 17
13 35 17
13 35 17
13 35 17
13 35 17
13 35 17
13 35 17
13 35 17
13 35 17
13 35 17
13 35 17
13 35 17
13 35 17
13 35 17
13 35 17
13 35 17
13 35 17
13 35 17
13 35 17
13 35 17
13 35 17
13 35 17
13 35 17
13 35 17
13 35 17
13 35 17
13 35 17
13 35 17
13 35 17
13 35 17
13 35 17
13 35 17
13 35 17
13 35 17
13 35 17
13 35 17
13 35 17
13 35 17
13 35 17
13 35 17
13 35 17
13 35 17
13 35 17
13 35 17
13 35 17
13 35 17
13 35 17
13 35 17
13 35 17
13 35 17
13 35 17
13 35 17
13 35 17
13 35 17
13 35 17
13 35 17
13 35 17
13 35 17
13 35 17
13 35 17
13 35 17
13 35 17
13 35 17
13 35 17
13 35 17
13 35 17
13 35 17
13 35 17
13 35 17
13 35 17
13 35 17
13 35 17
13 35 17
13 35 17
13 35 17
13 35 17
13 35 17
13 35 17
13 35 17
13 35 17
13 35 17
13 35 17
13 35 17
13 35 17
13 35 17
13 35 17
13 35 17
13 35 17
13 35 17
13 35 17
13 35 17
13 35 17
13 35 17
13 35 17
13 35 17
13 35 17
13 35 17
13 35 17
13 35 17
13 35 17
13 35 17
13 35 17
13 35 17
13 35 17
13 35 17
13 35 17
13 35 17
13 35 17
13 35 17
13 35 17
13 35 17
13 35 17
13 35 17
13 35 17
13 35 17
13 35 17
13 35 17
13 35 17
13 35 17
13 35 17
13 35 17
13 35 17
13 35 17
13 35 17
13 35 17
13 35 17
13 35 17
13 35 17
13 35 17
13 35 17
13 35 17
13 35 17
13 35 17
13 35 17
13 35 17
13 35 17
13 35 17
13 35 17
13 35 17
13 35 17
13 35 17
13 35 17
13 35 17
13 35 17
13 35 17
13 35 17
13 35 17
13 35 17
13 35 17
13 35 17
13 35 17
13 35 17
13 35 17
13 35 17
13 35 17
13 35 17
13 35 17
13 35 17
13 35 17
13 35 17
13 35 17
13 35 17
13 35 17
13 35 17
13 35 17
13 35 17
13 35 17
13 35 17
13 35 17
13 35 17
13 35 17
13 35 17
13 34 17
13 34 17
13 34 17
13 34 17
13 34 17
13 34 17
13 34 17
13 34 17
13 34 17
13 34 17
13 34 17
13 34 17
13 34 17
13 34 17
13 34 17
13 34 17
13 34 17
13 34 17
13 34 17
13 34 17
13 34 17
13 34 17
13 34 17
13 34 17
13 34 17
13 34 17
13 34 17
13 34 17
13 34 17
13 34 17
13 34 17
13 34 17
13 34 17
13 34 17
13 34 17
3 10 5
3 10 5
3 10 5
3 10 5
3 10 5
3 10 5
3 10 5
3 10 5
3 10 5
3 10 5
3 10 5
3 10 5
3 10 5
3 10 5
3 10 5
3 10 5
3 10 5
3 10 5
3 10 5
3 10 5
3 10 5
3 10 5
3 10 5
3 10 5
3 10 5
3 10 5
3 10 5
3 10 5
3 10 5
13 34 17
13 34 17
13 34 17
13 34 17
13 34 17
13 34 17
13 34 17
13 34 17
13 34 17
13 34 17
13 34 17
13 34 17
13 34 17
13 34 17
13 34 17
13 34 17
13 34 17
13 34 17
13 34 17
13 34 17
13 34 17
13 34 17
13 34 17
13 34 17
13 34 17
13 34 17
13 34 17
13 34 17
13 34 17
13 34 17
13 34 17
13 34 17
13 34 17
13 34 17
13 34 17
13 34 17
13 34 17
13 34 17
13 34 17
13 34 17
13 35 17
13 35 17
13 35 17
13 35 17
13 35 17
13 35 17
13 35 17
13 35 17
13 35 17
13 35 17
13 35 17
13 35 17
13 35 17
13 35 17
13 35 17
13 35 17
13 35 17
13 35 17
13 35 17
13 35 17
13 35 17
13 35 17
13 35 17
13 35 17
13 35 17
13 35 17
13 35 17
13 35 17
13 35 17
13 35 17
13 35 17
13 35 17
13 35 17
13 35 17
13 35 17
13 35 17
13 35 17
13 35 17
13 35 17
13 35 17
13 35 17
13 35 17
13 35 17
13 35 17
13 35 17
13 35 17
13 35 17
13 35 17
13 35 17
13 35 17
13 35 17
13 35 17
13 35 17
13 35 17
13 35 17
13 35 17
13 35 17
13 35 17
13 35 17
13 35 17
13 35 17
13 35 17
13 35 17
13 35 17
13 35 17
13 35 17
13 35 17
13 35 17
13 35 17
13 35 17
13 35 17
13 35 17
13 35 17
13 35 17
13 35 17
13 35 17
13 35 17
13 35 17
13 35 17
13 35 17
13 35 17
13 35 17
13 35 17
13 35 17
13 35 17
13 35 17
13 35 17
13 35 17
13 35 17
13 35 17
13 35 17
13 35 17
13 35 17
13 35 17
13 35 17
13 35 17
13 35 17
13 35 17
13 35 17
13 35 17
13 35 17
13 35 17
13 35 17
13 35 17
13 35 17
13 35 17
13 35 17
13 35 17
13 35 17
13 35 17
13 35 17
13 35 17
13 35 17
13 35 17
13 35 17
13 35 17
13 35 17
13 35 17
13 35 17
13 35 17
13 35 17
13 35 17
13 35 17
13 35 17
13 35 17
13 35 17
13 35 17
13 35 17
13 35 17
13 35 17
13 35 17
13 35 17
13 35 17
13 35 17
13 35 17
13 35 17
13 35 17
13 35 17
13 35 17
13 35 17
13 35 17
13 35 17
13 35 17
13 35 17
13 35 17
13 35 17
13 35 17
13 35 17
13 35 17
13 35 17
13 35 17
13 35 17
13 35 17
13 35 17
13 35 17
13 35 17
13 35 17
13 35 17
13 35 17
13 35 17
13 35 17
13 35 17
13 35 17
13 35 17
13 35 17
13 35 17
13 35 17
13 35 17
13 35 17
13 35 17
13 35 17
13 35 17
13 35 17
13 35 17
13 35 17
13 35 17
13 35 17
13 35 17
13 34 17
13 34 17
13 34 17
13 34 17
13 34 17
13 34 17
13 34 17
13 34 17
13 34 17
13 34 17
13 34 17
13 34 17
13 34 17
13 34 17
13 34 17
13 34 17
13 34 17
13 34 17
13 34 17
13 34 17
13 34 17
13 34 17
13 34 17
13 34 17
13 34 17
13 34 17
13 34 17
13 34 17
13 34 17
13 34 17
13 34 17
13 34 17
13 34 17
13 34 17
13 34 17
13 34 17
13 34 17
13 34 17
13 34 17
13 34 17
13 34 17
13 34 17
13 34 17
13 34 17
13 34 17
13 34 17
13 34 17
13 34 17
13 34 17
13 34 17
13 34 17
13 34 17
13 34 17
3 10 5
3 10 5
3 10 5
3 10 5
3 10 5
3 10 5
3 10 5
3 10 5
3 10 5
3 10 5
3 10 5
3 10 5
3 10 5
3 10 5
3 10 5
3 10 5
3 10 5
3 10 5
3 10 5
3 10 5
3 10 5
3 10 5
3 10 5
3 10 5
3 10 5
3 10 5
3 10 5
3 10 5
3 10 5
13 34 17
13 34 17
13 34 17
13 34 17
13 34 17
13 34 17
13 34 17
13 34 17
13 34 17
13 34 17
13 34 17
13 34 17
13 34 17
13 34 17
13 34 17
13 34 17
13 34 17
13 34 17
13 34 17
13 34 17
13 34 17
13 34 17
13 34 17
13 34 17
13 34 17
13 34 17
13 34 17
13 34 17
13 34 17
13 34 17
13 34 17
13 34 17
13 34 17
13 34 17
13 34 17
13 34 17
13 34 17
13 34 17
13 34 17
13 34 17
13 34 17
13 34 17
13 34 17
13 34 17
13 34 17
13 34 17
13 34 17
13 34 17
13 34 17
13 34 17
13 34 17
13 34 17
13 34 17
13 34 17
13 34 17
13 34 17
13 34 17
13 34 17
13 34 17
13 34 17
13 34 17
13 34 17
13 34 17
13 35 17
13 35 17
13 35 17
13 35 17
13 35 17
13 35 17
13 35 17
13 35 17
13 35 17
13 35 17
13 35 17
13 35 17
13 35 17
13 35 17
13 35 17
13 35 17
13 35 17
13 35 17
13 35 17
13 35 17
13 35 17
13 35 17
13 35 17
13 35 17
13 35 17
13 35 17
13 35 17
13 35 17
13 35 17
13 35 17
13 35 17
13 35 17
13 35 17
13 35 17
13 35 17
13 35 17
13 35 17
13 35 17
13 35 17
13 35 17
13 35 17
13 35 17
13 35 17
13 35 17
13 35 17
13 35 17
13 35 17
13 35 17
13 35 17
13 35 17
13 35 17
13 35 17
13 35 17
13 35 17
13 35 17
13 35 17
13 35 17
13 35 17
13 35 17
13 35 17
13 35 17
13 35 17
13 35 17
13 35 17
13 35 17
13 35 17
13 35 17
13 35 17
13 35 17
13 35 17
13 35 17
13 35 17
13 35 17
13 35 17
13 35 17
13 35 17
13 35 17
13 35 17
13 35 17
13 35 17
13 35 17
13 35 17
13 35 17
13 35 17
13 35 17
13 35 17
13 35 17
13 35 17
13 35 17
13 35 17
13 35 17
13 35 17
13 35 17
13 35 17
13 35 17
13 35 17
13 35 17
13 35 17
13 35 17
13 35 17
13 35 17
13 35 17
13 35 17
13 35 17
13 35 17
13 35 17
13 35 17
13 35 17
13 35 17
13 35 17
13 35 17
13 35 17
13 35 17
13 35 17
13 35 17
13 35 17
13 35 17
13 35 17
13 35 17
13 35 17
13 35 17
13 35 17
13 35 17
13 35 17
13 35 17
13 35 17
13 35 17
13 35 17
13 35 17
13 35 17
13 35 17
13 35 17
13 35 17
13 34 17
13 34 17
13 34 17
13 34 17
13 34 17
13 34 17
13 34 17
13 34 17
13 34 17
13 34 17
13 34 17
13 34 17
13 34 17
13 34 17
13 34 17
13 34 17
13 34 17
13 34 17
13 34 17
13 34 17
13 34 17
13 34 17
13 34 17
13 34 17
13 34 17
13 34 17
13 34 17
13 34 17
13 34 17
13 34 17
13 34 17
13 34 17
13 34 17
13 34 17
13 34 17
13 34 17
13 34 17
13 34 17
13 34 17
13 34 17
13 34 17
13 34 17
13 34 17
13 34 17
13 34 17
13 34 17
13 34 17
13 34 17
13 34 17
13 34 17
13 34 17
13 34 17
13 34 17
13 34 17
13 34 17
13 34 17
13 34 17
13 34 17
13 34 17
13 34 17
13 34 17
13 34 17
13 34 17
13 34 17
13 34 17
13 34 17
13 34 17
13 34 17
13 34 17
13 34 17
13 34 17
13 34 17
13 34 17
13 34 17
13 34 17
3 10 5
3 10 5
3 10 5
3 10 5
3 10 5
3 10 5
3 10 5
3 10 5
3 10 5
3 10 5
3 10 5
3 10 5
3 10 5
3 10 5
3 10 5
3 10 5
3 10 5
3 10 5
3 10 5
3 10 5
3 10 5
3 10 5
3 10 5
3 10 5
3 10 5
3 10 5
3 10 5
3 10 5
13 34 17
13 34 17
13 34 17
13 34 17
13 34 17
13 34 17
13 34 17
13 34 17
13 34 17
13 34 17
13 34 17
13 34 17
13 34 17
13 34 17
13 34 17
13 34 17
13 34 17
13 34 17
13 34 17
13 34 17
13 34 17
13 34 17
13 34 17
13 34 17
13 34 17
13 34 17
13 34 17
13 34 17
13 34 17
13 34 17
13 34 17
13 34 17
13 34 17
13 34 17
13 34 17
13 34 17
13 34 17
13 34 17
13 34 17
13 34 17
13 34 17
13 34 17
13 34 17
13 34 17
13 34 17
13 34 17
13 34 17
13 34 17
13 34 17
13 34 17
13 34 17
13 34 17
13 34 17
13 34 17
13 34 17
13 34 17
13 34 17
13 34 17
13 34 17
13 34 17
13 34 17
13 34 17
13 34 17
13 34 17
13 34 17
13 34 17
13 34 17
13 34 17
13 34 17
13 34 17
13 34 17
13 34 17
13 34 17
13 34 17
13 34 17
13 34 17
13 34 17
13 34 17
13 34 17
13 34 17
13 34 17
13 34 17
13 34 17
13 34 17
13 34 17
13 34 17
13 34 17
13 34 17
13 34 17
13 34 17
13 34 17
13 34 17
13 34 17
13 34 17
13 34 17
13 34 17
13 34 17
13 34 17
13 34 17
13 34 17
13 34 17
13 34 17
13 35 17
13 35 17
13 35 17
13 35 17
13 35 17
13 35 17
13 35 17
13 35 17
13 35 17
13 35 17
13 35 17
13 35 17
13 35 17
13 35 17
13 35 17
13 35 17
13 35 17
13 35 17
13 35 17
13 35 17
13 35 17
13 35 17
13 35 17
13 35 17
13 35 17
13 35 17
13 35 17
13 35 17
13 35 17
13 35 17
13 35 17
13 35 17
13 35 17
13 35 17
13 35 17
13 35 17
13 35 17
13 35 17
13 35 17
13 35 17
13 35 17
13 35 17
13 35 17
13 35 17
13 35 17
13 35 17
13 35 17
13 35 17
13 35 17
13 35 17
13 35 17
13 35 17
13 35 17
13 35 17
13 35 17
13 35 17
13 35 17
13 34 17
13 34 17
13 34 17
13 34 17
13 34 17
13 34 17
13 34 17
13 34 17
13 34 17
13 34 17
13 34 17
13 34 17
13 34 17
13 34 17
13 34 17
13 34 17
13 34 17
13 34 17
13 34 17
13 34 17
13 34 17
13 34 17
13 34 17
13 34 17
13 34 17
13 34 17
13 34 17
13 34 17
13 34 17
13 34 17
13 34 17
13 34 17
13 34 17
13 34 17
13 34 17
13 34 17
13 34 17
13 34 17
13 34 17
13 34 17
13 34 17
13 34 17
13 34 17
13 34 17
13 34 17
13 34 17
13 34 17
13 34 17
13 34 17
13 34 17
13 34 17
13 34 17
13 34 17
13 34 17
13 34 17
13 34 17
13 34 17
13 34 17
13 34 17
13 34 17
13 34 17
13 34 17
13 34 17
13 34 17
13 34 17
13 34 17
13 34 17
13 34 17
13 34 17
13 34 17
13 34 17
13 34 17
13 34 17
13 34 17
13 34 17
13 34 17
13 34 17
13 34 17
13 34 17
13 34 17
13 34 17
13 34 17
13 34 17
13 34 17
13 34 17
13 34 17
13 34 17
13 34 17
13 34 17
13 34 17
13 34 17
13 34 17
13 34 17
13 34 17
13 34 17
13 34 17
13 34 17
13 34 17
13 34 17
13 34 17
13 34 17
13 34 17
13 34 17
12 34 17
12 34 17
12 34 17
12 34 17
12 34 17
12 34 17
12 34 17
12 34 17
12 34 17
12 34 17
3 10 5
3 10 5
3 10 5
3 10 5
3 10 5
3 10 5
3 10 5
3 10 5
3 10 5
3 10 5
3 10 5
3 10 5
3 10 5
3 10 5
3 10 5
3 10 5
3 10 5
3 10 5
3 10 5
3 10 5
3 10 5
3 10 5
3 10 5
3 10 5
3 10 5
3 10 5
3 10 5
12 34 17
12 34 17
12 34 17
12 34 17
12 34 17
12 34 17
12 34 17
12 34 17
12 34 17
12 34 17
12 34 17
12 34 17
12 34 17
13 34 17
13 34 17
13 34 17
13 34 17
13 34 17
13 34 17
13 34 17
13 34 17
13 34 17
13 34 17
13 34 17
13 34 17
13 34 17
13 34 17
13 34 17
13 34 17
13 34 17
13 34 17
13 34 17
13 34 17
13 34 17
13 34 17
13 34 17
13 34 17
13 34 17
13 34 17
13 34 17
13 34 17
13 34 17
13 34 17
13 34 17
13 34 17
13 34 17
13 34 17
13 34 17
13 34 17
13 34 17
13 34 17
13 34 17
13 34 17
13 34 17
13 34 17
13 34 17
13 34 17
13 34 17
13 34 17
13 34 17
13 34 17
13 34 17
13 34 17
13 34 17
13 34 17
13 34 17
13 34 17
13 34 17
13 34 17
13 34 17
13 34 17
13 34 17
13 34 17
13 34 17
13 34 17
13 34 17
13 34 17
13 34 17
13 34 17
13 34 17
13 34 17
13 34 17
13 34 17
13 34 17
13 34 17
13 34 17
13 34 17
13 34 17
13 34 17
13 34 17
13 34 17
13 34 17
13 34 17
13 34 17
13 34 17
13 34 17
13 34 17
13 34 17
13 34 17
13 34 17
13 34 17
13 34 17
13 34 17
13 34 17
13 34 17
13 34 17
13 34 17
13 34 17
13 34 17
13 34 17
13 34 17
13 34 17
13 34 17
13 34 17
13 34 17
13 34 17
13 34 17
13 34 17
13 34 17
13 34 17
13 34 17
13 34 17
13 34 17
13 34 17
13 34 17
13 34 17
13 34 17
13 34 17
13 34 17
13 34 17
13 34 17
13 34 17
13 34 17
13 34 17
13 34 17
13 34 17
13 34 17
13 34 17
13 34 17
13 34 17
13 34 17
13 34 17
13 34 17
13 34 17
13 34 17
13 34 17
13 34 17
13 34 17
13 34 17
13 34 17
13 34 17
13 34 17
13 34 17
13 34 17
13 34 17
13 34 17
13 34 17
13 34 17
13 34 17
13 34 17
13 34 17
13 34 17
13 34 17
13 34 17
13 34 17
13 34 17
13 34 17
13 34 17
13 34 17
13 34 17
13 34 17
13 34 17
13 34 17
13 34 17
13 34 17
13 34 17
13 34 17
13 34 17
13 34 17
13 34 17
13 34 17
13 34 17
13 34 17
13 34 17
13 34 17
13 34 17
13 34 17
13 34 17
13 34 17
13 34 17
13 34 17
13 34 17
13 34 17
13 34 17
13 34 17
13 34 17
13 34 17
13 34 17
13 34 17
13 34 17
13 34 17
13 34 17
13 34 17
13 34 17
13 34 17
13 34 17
13 34 17
13 34 17
13 34 17
13 34 17
13 34 17
13 34 17
13 34 17
13 34 17
13 34 17
13 34 17
13 34 17
13 34 17
13 34 17
13 34 17
13 34 17
13 34 17
13 34 17
13 34 17
13 34 17
13 34 17
13 34 17
13 34 17
13 34 17
13 34 17
13 34 17
13 34 17
13 34 17
13 34 17
13 34 17
13 34 17
13 34 17
13 34 17
13 34 17
13 34 17
13 34 17
13 34 17
13 34 17
13 34 17
13 34 17
13 34 17
13 34 17
13 34 17
13 34 17
13 34 17
12 34 17
12 34 17
12 34 17
12 34 17
12 34 17
12 34 17
12 34 17
12 34 17
12 34 17
12 34 17
12 34 17
12 34 17
12 34 17
12 34 17
12 34 17
12 34 17
12 34 17
12 34 17
12 34 17
12 34 17
12 34 17
12 34 17
12 34 17
3 10 5
3 10 5
3 10 5
3 10 5
3 10 5
3 10 5
3 10 5
3 10 5
3 10 5
3 10 5
3 10 5
3 10 5
3 10 5
3 10 5
3 10 5
3 10 5
3 10 5
3 10 5
3 10 5
3 10 5
3 10 5
3 10 5
3 10 5
3 10 5
3 10 5
3 10 5
12 34 17
12 34 17
12 34 17
12 34 17
12 34 17
12 34 17
12 34 17
12 34 17
12 34 17
12 34 17
12 34 17
12 34 17
12 34 17
12 34 17
12 34 17
12 34 17
12 34 17
12 34 17
12 34 17
12 34 17
12 34 17
12 34 17
12 34 17
12 34 17
12 34 17
12 34 17
12 34 17
12 34 17
12 34 17
13 34 17
13 34 17
13 34 17
13 34 17
13 34 17
13 34 17
13 34 17
13 34 17
13 34 17
13 34 17
13 34 17
13 34 17
13 34 17
13 34 17
13 34 17
13 34 17
13 34 17
13 34 17
13 34 17
13 34 17
13 34 17
13 34 17
13 34 17
13 34 17
13 34 17
13 34 17
13 34 17
13 34 17
13 34 17
13 34 17
13 34 17
13 34 17
13 34 17
13 34 17
13 34 17
13 34 17
13 34 17
13 34 17
13 34 17
13 34 17
13 34 17
13 34 17
13 34 17
13 34 17
13 34 17
13 34 17
13 34 17
13 34 17
13 34 17
13 34 17
13 34 17
13 34 17
13 34 17
13 34 17
13 34 17
13 34 17
13 34 17
13 34 17
13 34 17
13 34 17
13 34 17
13 34 17
13 34 17
13 34 17
13 34 17
13 34 17
13 34 17
13 34 17
13 34 17
13 34 17
13 34 17
13 34 17
13 34 17
13 34 17
13 34 17
13 34 17
13 34 17
13 34 17
13 34 17
13 34 17
13 34 17
13 34 17
13 34 17
13 34 17
13 34 17
13 34 17
13 34 17
13 34 17
13 34 17
13 34 17
13 34 17
13 34 17
13 34 17
13 34 17
13 34 17
13 34 17
13 34 17
13 34 17
13 34 17
13 34 17
13 34 17
13 34 17
13 34 17
13 34 17
13 34 17
13 34 17
13 34 17
13 34 17
13 34 17
13 34 17
13 34 17
13 34 17
13 34 17
13 34 17
13 34 17
13 34 17
13 34 17
13 34 17
13 34 17
13 34 17
13 34 17
13 34 17
13 34 17
13 34 17
13 34 17
13 34 17
13 34 17
13 34 17
13 34 17
13 34 17
13 34 17
13 34 17
13 34 17
13 34 17
13 34 17
13 34 17
13 34 17
13 34 17
13 34 17
13 34 17
13 34 17
13 34 17
13 34 17
13 34 17
13 34 17
13 34 17
13 34 17
13 34 17
13 34 17
13 34 17
13 34 17
13 34 17
13 34 17
13 34 17
13 34 17
13 34 17
13 34 17
13 34 17
13 34 17
13 34 17
13 34 17
13 34 17
13 34 17
13 34 17
13 34 17
13 34 17
13 34 17
13 34 17
13 34 17
13 34 17
13 34 17
13 34 17
13 34 17
13 34 17
13 34 17
13 34 17
13 34 17
13 34 17
13 34 17
13 34 17
13 34 17
13 34 17
13 34 17
13 34 17
13 34 17
13 34 17
13 34 17
13 34 17
13 34 17
13 34 17
13 34 17
13 34 17
13 34 17
13 34 17
13 34 17
13 34 17
13 34 17
13 34 17
13 34 17
13 34 17
13 34 17
13 34 17
13 34 17
13 34 17
13 34 17
13 34 17
13 34 17
12 34 17
12 34 17
12 34 17
12 34 17
12 34 17
12 34 17
12 34 17
12 34 17
12 34 17
12 34 17
12 34 17
12 34 17
12 34 17
12 34 17
12 34 17
12 34 17
12 34 17
12 34 17
12 34 17
12 34 17
12 34 17
12 34 17
12 34 17
12 34 17
12 34 17
12 34 17
12 34 17
12 34 17
12 34 17
12 34 17
12 34 17
12 34 17
12 34 17
12 34 17
12 34 17
12 34 17
12 34 17
12 34 17
3 10 5
3 10 5
3 10 5
3 10 5
3 10 5
3 10 5
3 10 5
3 10 5
3 10 5
3 10 5
3 10 5
3 10 5
3 10 5
3 10 5
3 10 5
3 10 5
3 10 5
3 10 5
3 10 5
3 10 5
3 10 5
3 10 5
3 10 5
3 10 5
3 10 5
12 34 17
12 34 17
12 34 17
12 34 17
12 34 17
12 34 17
12 34 17
12 34 17
12 34 17
12 34 17
12 34 17
12 34 17
12 34 17
12 34 17
12 34 17
12 34 17
12 34 17
12 34 17
12 34 17
12 34 17
12 34 17
12 34 17
12 34 17
12 34 17
12 34 17
12 34 17
12 34 17
12 34 17
12 34 17
12 34 17
12 34 17
12 34 17
12 34 17
12 34 17
12 34 17
12 34 17
12 34 17
12 34 17
12 34 17
12 34 17
12 34 17
12 34 17
12 34 17
12 34 17
12 34 17
12 34 17
12 34 17
12 34 17
12 34 17
13 34 17
13 34 17
13 34 17
13 34 17
13 34 17
13 34 17
13 34 17
13 34 17
13 34 17
13 34 17
13 34 17
13 34 17
13 34 17
13 34 17
13 34 17
13 34 17
13 34 17
13 34 17
13 34 17
13 34 17
13 34 17
13 34 17
13 34 17
13 34 17
13 34 17
13 34 17
13 34 17
13 34 17
13 34 17
13 34 17
13 34 17
13 34 17
13 34 17
13 34 17
13 34 17
13 34 17
13 34 17
13 34 17
13 34 17
13 34 17
13 34 17
13 34 17
13 34 17
13 34 17
13 34 17
13 34 17
13 34 17
13 34 17
13 34 17
13 34 17
13 34 17
13 34 17
13 34 17
13 34 17
13 34 17
13 34 17
13 34 17
13 34 17
13 34 17
13 34 17
13 34 17
13 34 17
13 34 17
13 34 17
13 34 17
13 34 17
13 34 17
13 34 17
13 34 17
13 34 17
13 34 17
13 34 17
13 34 17
13 34 17
13 34 17
13 34 17
13 34 17
13 34 17
13 34 17
13 34 17
13 34 17
13 34 17
13 34 17
13 34 17
13 34 17
13 34 17
13 34 17
13 34 17
13 34 17
13 34 17
13 34 17
13 34 17
13 34 17
13 34 17
13 34 17
13 34 17
13 34 17
13 34 17
13 34 17
13 34 17
13 34 17
13 34 17
13 34 17
13 34 17
13 34 17
13 34 17
13 34 17
13 34 17
13 34 17
13 34 17
13 34 17
13 34 17
13 34 17
13 34 17
13 34 17
13 34 17
13 34 17
13 34 17
13 34 17
13 34 17
13 34 17
13 34 17
13 34 17
13 34 17
13 34 17
13 34 17
13 34 17
13 34 17
13 34 17
13 34 17
13 34 17
13 34 17
13 34 17
13 34 17
13 34 17
13 34 17
13 34 17
13 34 17
13 34 17
13 34 17
13 34 17
13 34 17
13 34 17
13 34 17
13 34 17
13 34 17
13 34 17
13 34 17
13 34 17
13 34 17
13 34 17
13 34 17
13 34 17
13 34 17
13 34 17
13 34 17
13 34 17
13 34 17
13 34 17
13 34 17
13 34 17
13 34 17
13 34 17
13 34 17
13 34 17
13 34 17
13 34 17
13 34 17
13 34 17
12 34 17
12 34 17
12 34 17
12 34 17
12 34 17
12 34 17
12 34 17
12 34 17
12 34 17
12 34 17
12 34 17
12 34 17
12 34 17
12 34 17
12 34 17
12 34 17
12 34 17
12 34 17
12 34 17
12 34 17
12 34 17
12 34 17
12 34 17
12 34 17
12 34 17
12 34 17
12 34 17
12 34 17
12 34 17
12 34 17
12 34 17
12 34 17
12 34 17
12 34 17
12 34 17
12 34 17
12 34 17
12 34 17
12 34 17
12 34 17
12 34 17
12 34 17
12 34 17
12 34 17
12 34 17
12 34 17
12 34 17
12 34 17
12 34 17
12 34 17
12 34 17
12 34 17
12 34 17
12 34 17
12 34 17
12 34 17
12 34 17
3 10 5
3 10 5
3 10 5
3 10 5
3 10 5
3 10 5
3 10 5
3 10 5
3 10 5
3 10 5
3 10 5
3 10 5
3 10 5
3 10 5
3 10 5
3 10 5
3 10 5
3 10 5
3 10 5
3 10 5
3 10 5
3 10 5
3 10 5
3 10 5
12 34 17
12 34 17
12 34 17
12 34 17
12 34 17
12 34 17
12 34 17
12 34 17
12 34 17
12 34 17
12 34 17
12 34 17
12 34 17
12 34 17
12 34 17
12 34 17
12 34 17
12 34 17
12 34 17
12 34 17
12 34 17
12 34 17
12 34 17
12 34 17
12 34 17
12 34 17
12 34 17
12 34 17
12 34 17
12 34 17
12 34 17
12 34 17
12 34 17
12 34 17
12 34 17
12 34 17
12 34 17
12 34 17
12 34 17
12 34 17
12 34 17
12 34 17
12 34 17
12 34 17
12 34 17
12 34 17
12 34 17
12 34 17
12 34 17
12 34 17
12 34 17
12 34 17
12 34 17
12 34 17
12 34 17
12 34 17
12 34 17
12 34 17
12 34 17
12 34 17
12 34 17
12 34 17
12 34 17
12 34 17
12 34 17
12 34 17
12 34 17
12 34 17
12 34 17
12 34 17
12 34 17
12 34 17
12 34 17
12 34 17
12 34 17
13 34 17
13 34 17
13 34 17
13 34 17
13 34 17
13 34 17
13 34 17
13 34 17
13 34 17
13 34 17
13 34 17
13 34 17
13 34 17
13 34 17
13 34 17
13 34 17
13 34 17
13 34 17
13 34 17
13 34 17
13 34 17
13 34 17
13 34 17
13 34 17
13 34 17
13 34 17
13 34 17
13 34 17
13 34 17
13 34 17
13 34 17
13 34 17
13 34 17
13 34 17
13 34 17
13 34 17
13 34 17
13 34 17
13 34 17
13 34 17
13 34 17
13 34 17
13 34 17
13 34 17
13 34 17
13 34 17
13 34 17
13 34 17
13 34 17
13 34 17
13 34 17
13 34 17
13 34 17
13 34 17
13 34 17
13 34 17
13 34 17
13 34 17
13 34 17
13 34 17
13 34 17
13 34 17
13 34 17
13 34 17
13 34 17
13 34 17
13 34 17
13 34 17
13 34 17
13 34 17
13 34 17
13 34 17
13 34 17
13 34 17
13 34 17
13 34 17
13 34 17
13 34 17
13 34 17
13 34 17
13 34 17
13 34 17
13 34 17
13 34 17
13 34 17
13 34 17
13 34 17
13 34 17
13 34 17
13 34 17
13 34 17
13 34 17
13 34 17
13 34 17
13 34 17
13 34 17
13 34 17
13 34 17
13 34 17
13 34 17
13 34 17
13 34 17
13 34 17
13 34 17
13 34 17
13 34 17
13 34 17
13 34 17
13 34 17
13 34 17
13 34 17
13 34 17
13 34 17
13 34 17
13 34 17
13 34 17
13 34 17
13 34 17
13 34 17
12 34 17
12 34 17
12 34 17
12 34 17
12 34 17
12 34 17
12 34 17
12 34 17
12 34 17
12 34 17
12 34 17
12 34 17
12 34 17
12 34 17
12 34 17
12 34 17
12 34 17
12 34 17
12 34 17
12 34 17
12 34 17
12 34 17
12 34 17
12 34 17
12 34 17
12 34 17
12 34 17
12 34 17
12 34 17
12 34 17
12 34 17
12 34 17
12 34 17
12 34 17
12 34 17
12 34 17
12 34 17
12 34 17
12 34 17
12 34 17
12 34 17
12 34 17
12 34 17
12 34 17
12 34 17
12 34 17
12 34 17
12 34 17
12 34 17
12 34 17
12 34 17
12 34 17
12 34 17
12 34 17
12 34 17
12 34 17
12 34 17
12 34 17
12 34 17
12 34 17
12 34 17
12 34 17
12 34 17
12 34 17
12 34 17
12 34 17
12 34 17
12 34 17
12 34 17
12 34 17
12 34 17
12 34 17
12 34 17
12 34 17
12 34 17
12 34 17
12 34 17
12 34 17
12 34 17
12 34 17
12 34 17
12 34 17
3 10 5
3 10 5
3 10 5
3 10 5
3 10 5
3 10 5
3 10 5
3 10 5
3 10 5
3 10 5
3 10 5
3 10 5
3 10 5
3 10 5
3 10 5
3 10 5
3 10 5
3 10 5
3 10 5
3 10 5
3 10 5
3 10 5
3 10 5
12 34 17
12 34 17
12 34 17
12 34 17
12 34 17
12 34 17
12 34 17
12 34 17
12 34 17
12 34 17
12 34 17
12 34 17
12 34 17
12 34 17
12 34 17
12 34 17
12 34 17
12 34 17
12 34 17
12 34 17
12 34 17
12 34 17
12 34 17
12 34 17
12 34 17
12 34 17
12 34 17
12 34 17
12 34 17
12 34 17
12 34 17
12 34 17
12 34 17
12 34 17
12 34 17
12 34 17
12 34 17
12 34 17
12 34 17
12 34 17
12 34 17
12 34 17
12 34 17
12 34 17
12 34 17
12 34 17
12 34 17
12 34 17
12 34 17
12 34 17
12 34 17
12 34 17
12 34 17
12 34 17
12 34 17
12 34 17
12 34 17
12 34 17
12 34 17
12 34 17
12 34 17
12 34 17
12 34 17
12 34 17
12 34 17
12 34 17
12 34 17
12 34 17
12 34 17
12 34 17
12 34 17
12 34 17
12 34 17
12 34 17
12 34 17
12 34 17
12 34 17
12 34 17
12 34 17
12 34 17
12 34 17
12 34 17
12 34 17
12 34 17
12 34 17
12 34 17
12 34 17
12 34 17
12 34 17
12 34 17
12 34 17
12 34 17
12 34 17
12 34 17
12 34 17
12 34 17
12 34 17
12 34 17
12 34 17
12 34 17
12 34 17
12 34 17
12 34 17
12 34 17
12 34 17
12 34 17
12 34 17
12 34 17
12 34 17
12 34 17
12 34 17
12 34 17
12 34 17
12 34 17
12 34 17
12 34 17
12 34 17
12 34 17
12 34 17
12 34 17
12 34 17
12 34 17
12 34 17
12 34 17
12 34 17
12 34 17
12 34 17
12 34 17
12 34 17
12 34 17
12 34 17
12 34 17
12 34 17
12 34 17
12 34 17
12 34 17
12 34 17
12 34 17
12 34 17
12 34 17
12 34 17
12 34 17
12 34 17
12 34 17
12 34 17
12 34 17
12 34 17
12 34 17
12 34 17
12 34 17
12 34 17
12 34 17
12 34 17
12 34 17
12 34 17
12 34 17
12 34 17
12 34 17
12 34 17
12 34 17
12 34 17
12 34 17
12 34 17
12 34 17
12 34 17
12 34 17
12 34 17
12 34 17
12 34 17
12 34 17
12 34 17
12 34 17
12 34 17
12 34 17
12 34 17
12 34 17
12 34 17
12 34 17
12 34 17
12 34 17
12 34 17
12 34 17
12 34 17
12 34 17
12 34 17
12 34 17
12 34 17
12 34 17
12 34 17
12 34 17
12 34 17
12 34 17
12 34 17
12 34 17
12 34 17
12 34 17
12 34 17
12 34 17
12 34 17
12 34 17
12 34 17
12 34 17
12 34 17
12 34 17
12 34 17
12 34 17
12 34 17
12 34 17
12 34 17
12 34 17
12 34 17
12 34 17
12 34 17
12 34 17
12 34 17
12 34 17
12 34 17
12 34 17
12 34 17
12 34 17
12 34 17
12 34 17
12 34 17
12 34 17
12 34 17
12 34 17
12 34 17
12 34 17
12 34 17
12 34 17
12 34 17
12 34 17
12 34 17
12 34 17
12 34 17
12 34 17
12 34 17
12 34 17
12 34 17
12 34 17
12 34 17
12 34 17
12 34 17
12 34 17
12 34 17
12 34 17
12 34 17
12 34 17
12 34 17
12 34 17
12 34 17
12 34 17
12 34 17
12 34 17
12 34 17
12 34 17
12 34 17
12 34 17
12 34 17
12 34 17
12 34 17
12 34 17
12 34 17
12 34 17
12 34 17
12 34 17
12 34 17
12 34 17
12 34 17
12 34 17
12 34 17
12 34 17
12 34 17
12 34 17
12 34 17
12 34 17
12 34 17
3 10 5
3 10 5
3 10 5
3 10 5
3 10 5
3 10 5
3 10 5
3 10 5
3 10 5
3 10 5
3 10 5
3 10 5
3 10 5
3 10 5
3 10 5
3 10 5
3 10 5
3 10 5
3 10 5
3 10 5
3 10 5
3 10 5
12 34 17
12 34 17
12 34 17
12 34 17
12 34 17
12 34 17
12 34 17
12 34 17
12 34 17
12 34 17
12 34 17
12 34 17
12 34 17
12 34 17
12 34 17
12 34 17
12 34 17
12 34 17
12 34 17
12 34 17
12 34 17
12 34 17
12 34 17
12 34 17
12 34 17
12 34 17
12 34 17
12 34 17
12 34 17
12 34 17
12 34 17
12 34 17
12 34 17
12 34 17
12 34 17
12 34 17
12 34 17
12 34 17
12 34 17
12 34 17
12 34 17
12 34 17
12 34 17
12 34 17
12 34 17
12 34 17
12 34 17
12 34 17
12 34 17
12 34 17
12 34 17
12 34 17
12 34 17
12 34 17
12 34 17
12 34 17
12 34 17
12 34 17
12 34 17
12 34 17
12 34 17
12 34 17
12 34 17
12 34 17
12 34 17
12 34 17
12 34 17
12 34 17
12 34 17
12 34 17
12 34 17
12 34 17
12 34 17
12 34 17
12 34 17
12 34 17
12 34 17
12 34 17
12 34 17
12 34 17
12 34 17
12 34 17
12 34 17
12 34 17
12 34 17
12 34 17
12 34 17
12 34 17
12 34 17
12 34 17
12 34 17
12 34 17
12 34 17
12 34 17
12 34 17
12 34 17
12 34 17
12 34 17
12 34 17
12 34 17
12 34 17
12 34 17
12 34 17
12 34 17
12 34 17
12 34 17
12 34 17
12 34 17
12 34 17
12 34 17
12 34 17
12 34 17
12 34 17
12 34 17
12 34 17
12 34 17
12 34 17
12 34 17
12 34 17
12 34 17
12 34 17
12 34 17
12 34 17
12 34 17
12 34 17
12 34 17
12 34 17
12 34 17
12 34 17
12 34 17
12 34 17
12 34 17
12 34 17
12 34 17
12 34 17
12 34 17
12 34 17
12 34 17
12 34 17
12 34 17
12 34 17
12 34 17
12 34 17
12 34 17
12 34 17
12 34 17
12 34 17
12 34 17
12 34 17
12 34 17
12 34 17
12 34 17
12 34 17
12 34 17
12 34 17
12 34 17
12 34 17
12 34 17
12 34 17
12 34 17
12 34 17
12 34 17
12 34 17
12 34 17
12 34 17
12 34 17
12 34 17
12 34 17
12 34 17
12 34 17
12 34 17
12 34 17
12 34 17
12 34 17
12 34 17
12 34 17
12 34 17
12 34 17
12 34 17
12 34 17
12 34 17
12 34 17
12 34 17
12 34 17
12 34 17
12 34 17
12 34 17
12 34 17
12 34 17
12 34 17
12 34 17
12 34 17
12 34 17
12 34 17
12 34 17
12 34 17
12 34 17
12 34 17
12 34 17
12 34 17
12 34 17
12 34 17
12 34 17
12 34 17
12 34 17
12 34 17
12 34 17
12 34 17
12 34 17
12 34 17
12 34 17
12 34 17
12 34 17
12 34 17
12 34 17
12 34 17
12 34 17
12 34 17
12 34 17
12 34 17
12 34 17
12 34 17
12 34 17
12 34 17
12 34 17
12 34 17
12 34 17
12 34 17
12 34 17
12 34 17
12 34 17
12 34 17
12 34 17
12 34 17
12 34 17
12 34 17
12 34 17
12 34 17
12 34 17
12 34 17
12 34 17
12 34 17
12 34 17
12 34 17
12 34 17
12 34 17
12 34 17
12 34 17
12 34 17
12 34 17
12 34 17
12 34 17
12 34 17
12 34 17
12 34 17
12 34 17
12 34 17
12 34 17
12 34 17
12 34 17
12 34 17
12 34 17
12 34 17
12 34 17
12 34 17
12 34 17
12 34 17
12 34 17
12 34 17
12 34 17
12 34 17
12 34 17
12 34 17
12 34 17
12 34 17
12 34 17
12 34 17
12 34 17
3 10 5
3 10 5
3 10 5
3 10 5
3 10 5
3 10 5
3 10 5
3 10 5
3 10 5
3 10 5
3 10 5
3 10 5
3 10 5
3 10 5
3 10 5
3 10 5
3 10 5
3 10 5
3 10 5
3 10 5
12 34 17
12 34 17
12 34 17
12 34 17
12 34 17
12 34 17
12 34 17
12 34 17
12 34 17
12 34 17
12 34 17
12 34 17
12 34 17
12 34 17
12 34 17
12 34 17
12 34 17
12 34 17
12 34 17
12 34 17
12 34 17
12 34 17
12 34 17
12 34 17
12 34 17
12 34 17
12 34 17
12 34 17
12 34 17
12 34 17
12 34 17
12 34 17
12 34 17
12 34 17
12 34 17
12 34 17
12 34 17
12 34 17
12 34 17
12 34 17
12 34 17
12 34 17
12 34 17
12 34 17
12 34 17
12 34 17
12 34 17
12 34 17
12 34 17
12 34 17
12 34 17
12 34 17
12 34 17
12 34 17
12 34 17
12 34 17
12 34 17
12 34 17
12 34 17
12 34 17
12 34 17
12 34 17
12 34 17
12 34 17
12 34 17
12 34 17
12 34 17
12 34 17
12 34 17
12 34 17
12 34 17
12 34 17
12 34 17
12 34 17
12 34 17
12 34 17
12 34 17
12 34 17
12 34 17
12 34 17
12 34 17
12 34 17
12 34 17
12 34 17
12 34 17
12 34 17
12 34 17
12 34 17
12 34 17
12 34 17
12 34 17
12 34 17
12 34 17
12 34 17
12 34 17
12 34 17
12 34 17
12 34 17
12 34 17
12 34 17
12 34 17
12 34 17
12 34 17
12 34 17
12 34 17
12 34 17
12 34 17
12 34 17
12 34 17
12 34 17
12 34 17
12 34 17
12 34 17
12 34 17
12 34 17
12 34 17
12 34 17
12 34 17
12 34 17
12 34 17
12 34 17
12 34 17
12 34 17
12 34 17
12 34 17
12 34 17
12 34 17
12 34 17
12 34 17
12 34 17
12 34 17
12 34 17
12 34 17
12 34 17
12 34 17
12 34 17
12 34 17
12 34 17
12 34 17
12 34 17
12 34 17
12 34 17
12 34 17
12 34 17
12 34 17
12 34 17
12 34 17
12 34 17
12 34 17
12 34 17
12 34 17
12 34 17
12 34 17
12 34 17
12 34 17
12 34 17
12 34 17
12 34 17
12 34 17
12 34 17
12 34 17
12 34 17
12 34 17
12 34 17
12 34 17
12 34 17
12 34 17
12 34 17
12 34 17
12 34 17
12 34 17
12 34 17
12 34 17
12 34 17
12 34 17
12 34 17
12 34 17
12 34 17
12 34 17
12 34 17
12 34 17
12 34 17
12 34 17
12 34 17
12 34 17
12 34 17
12 34 17
12 34 17
12 34 17
12 34 17
12 34 17
12 34 17
12 34 17
12 34 17
12 34 17
12 34 17
12 34 17
12 34 17
12 34 17
12 34 17
12 34 17
12 34 17
12 34 17
12 34 17
12 34 17
12 34 17
12 34 17
12 34 17
12 34 17
12 34 17
12 34 17
12 34 17
12 34 17
12 34 17
12 34 17
12 34 17
12 34 17
12 34 17
12 34 17
12 34 17
12 34 17
12 34 17
12 34 17
12 34 17
12 34 17
12 34 17
12 34 17
12 34 17
12 34 17
12 34 17
12 34 17
12 34 17
12 34 17
12 34 17
12 34 17
12 34 17
12 34 17
12 34 17
12 34 17
12 34 17
12 34 17
12 34 17
12 34 17
12 34 17
12 34 17
12 34 17
12 34 17
12 34 17
12 34 17
12 34 17
12 34 17
12 34 17
12 34 17
12 34 17
12 34 17
12 34 17
12 34 17
12 34 17
12 34 17
12 34 17
12 34 17
12 34 17
12 34 17
12 34 17
12 34 17
12 34 17
12 34 17
12 34 17
12 34 17
12 34 17
12 34 17
12 34 17
12 34 17
12 34 17
12 34 17
12 34 17
12 34 17
12 34 17
12 34 17
12 34 17
3 10 5
3 10 5
3 10 5
3 10 5
3 10 5
3 10 5
3 10 5
3 10 5
3 10 5
3 10 5
3 10 5
3 10 5
3 10 5
3 10 5
3 10 5
3 10 5
3 10 5
3 10 5
3 10 5
12 34 17
12 34 17
12 34 17
12 34 17
12 34 17
12 34 17
12 34 17
12 34 17
12 34 17
12 34 17
12 34 17
12 34 17
12 34 17
12 34 17
12 34 17
12 34 17
12 34 17
12 34 17
12 34 17
12 34 17
12 34 17
12 34 17
12 34 17
12 34 17
12 34 17
12 34 17
12 34 17
12 34 17
12 34 17
12 34 17
12 34 17
12 34 17
12 34 17
12 34 17
12 34 17
12 34 17
12 34 17
12 34 17
12 34 17
12 34 17
12 34 17
12 34 17
12 34 17
12 34 17
12 34 17
12 34 17
12 34 17
12 34 17
12 34 17
12 34 17
12 34 17
12 34 17
12 34 17
12 34 17
12 34 17
12 34 17
12 34 17
12 34 17
12 34 17
12 34 17
12 34 17
12 34 17
12 34 17
12 34 17
12 34 17
12 34 17
12 34 17
12 34 17
12 34 17
12 34 17
12 34 17
12 34 17
12 34 17
12 34 17
12 34 17
12 34 17
12 34 17
12 34 17
12 34 17
12 34 17
12 34 17
12 34 17
12 34 17
12 34 17
12 34 17
12 34 17
12 34 17
12 34 17
12 34 17
12 34 17
12 34 17
12 34 17
12 34 17
12 34 17
12 34 17
12 34 17
12 34 17
12 34 17
12 34 17
12 34 17
12 34 17
12 34 17
12 34 17
12 34 17
12 34 17
12 34 17
12 34 17
12 34 17
12 34 17
12 34 17
12 34 17
12 34 17
12 34 17
12 34 17
12 34 17
12 34 17
12 34 17
12 34 17
12 34 17
12 34 17
12 34 17
12 34 17
12 34 17
12 34 17
12 34 17
12 34 17
12 34 17
12 34 17
12 34 17
12 34 17
12 34 17
12 34 17
12 34 17
12 34 17
12 34 17
12 34 17
12 34 17
12 34 17
12 34 17
12 34 17
12 34 17
12 34 17
12 34 17
12 34 17
12 34 17
12 34 17
12 34 17
12 34 17
12 34 17
12 34 17
12 34 17
12 34 17
12 34 17
12 34 17
12 34 17
12 34 17
12 34 17
12 34 17
12 34 17
12 34 17
12 34 17
12 34 17
12 34 17
12 34 17
12 34 17
12 34 17
12 34 17
12 34 17
12 34 17
12 34 17
12 34 17
12 34 17
12 34 17
12 34 17
12 34 17
12 34 17
12 34 17
12 34 17
12 34 17
12 34 17
12 34 17
12 34 17
12 34 17
12 34 17
12 34 17
12 34 17
12 34 17
12 34 17
12 34 17
12 34 17
12 34 17
12 34 17
12 34 17
12 34 17
12 34 17
12 34 17
12 34 17
12 34 17
12 34 17
12 34 17
12 34 17
12 34 17
12 34 17
12 34 17
12 34 17
12 34 17
12 34 17
12 34 17
12 34 17
12 34 17
12 34 17
12 34 17
12 34 17
12 34 17
12 34 17
12 34 17
12 34 17
12 34 17
12 34 17
12 34 17
12 34 17
12 34 17
12 34 17
12 34 17
12 34 17
12 34 17
12 34 17
12 34 17
12 34 17
12 34 17
12 34 17
12 34 17
12 34 17
12 34 17
12 34 17
12 34 17
12 34 17
12 34 17
12 34 17
12 34 17
12 34 17
12 34 17
12 34 17
12 34 17
12 34 17
12 34 17
12 34 17
12 34 17
12 34 17
12 34 17
12 34 17
12 34 17
12 34 17
12 34 17
12 34 17
12 34 17
12 34 17
12 34 17
12 34 17
12 34 17
12 34 17
12 34 17
12 34 17
12 34 17
12 34 17
12 34 17
12 34 17
12 34 17
12 34 17
12 34 17
12 34 17
12 34 17
12 34 17
12 34 17
12 34 17
12 34 17
12 34 17
12 34 17
12 34 17
12 34 17
12 34 17
3 10 5
3 10 5
3 10 5
3 10 5
3 10 5
3 10 5
3 10 5
3 10 5
3 10 5
3 10 5
3 10 5
3 10 5
3 10 5
3 10 5
3 10 5
3 10 5
3 10 5
3 10 5
12 34 17
12 34 17
12 34 17
12 34 17
12 34 17
12 34 17
12 34 17
12 34 17
12 34 17
12 34 17
12 34 17
12 34 17
12 34 17
12 34 17
12 34 17
12 34 17
12 34 17
12 34 17
12 34 17
12 34 17
12 34 17
12 34 17
12 34 17
12 34 17
12 34 17
12 34 17
12 34 17
12 34 17
12 34 17
12 34 17
12 34 17
12 34 17
12 34 17
12 34 17
12 34 17
12 34 17
12 34 17
12 34 17
12 34 17
12 34 17
12 34 17
12 34 17
12 34 17
12 34 17
12 34 17
12 34 17
12 34 17
12 34 17
12 34 17
12 34 17
12 34 17
12 34 17
12 34 17
12 34 17
12 34 17
12 34 17
12 34 17
12 34 17
12 34 17
12 34 17
12 34 17
12 34 17
12 34 17
12 34 17
12 34 17
12 34 17
12 34 17
12 34 17
12 34 17
12 34 17
12 34 17
12 34 17
12 34 17
12 34 17
12 34 17
12 34 17
12 34 17
12 34 17
12 34 17
12 34 17
12 34 17
12 34 17
12 34 17
12 34 17
12 34 17
12 34 17
12 34 17
12 34 17
12 34 17
12 34 17
12 34 17
12 34 17
12 34 17
12 34 17
12 34 17
12 34 17
12 34 17
12 34 17
12 34 17
12 34 17
12 34 17
12 34 17
12 34 17
12 34 17
12 34 17
12 34 17
12 34 17
12 34 17
12 34 17
12 34 17
12 34 17
12 34 17
12 34 17
12 34 17
12 34 17
12 34 17
12 34 17
12 34 17
12 34 17
12 34 17
12 34 17
12 34 17
12 34 17
12 34 17
12 34 17
12 34 17
12 34 17
12 34 17
12 34 17
12 34 17
12 34 17
12 34 17
12 34 17
12 34 17
12 34 17
12 34 17
12 34 17
12 34 17
12 34 17
12 34 17
12 34 17
12 34 17
12 34 17
12 34 17
12 34 17
12 34 17
12 34 17
12 34 17
12 34 17
12 34 17
12 34 17
12 34 17
12 34 17
12 34 17
12 34 17
12 34 17
12 34 17
12 34 17
12 34 17
12 34 17
12 34 17
12 34 17
12 34 17
12 34 17
12 34 17
12 34 17
12 34 17
12 34 17
12 34 17
12 34 17
12 34 17
12 34 17
12 34 17
12 34 17
12 34 17
12 34 17
12 34 17
12 34 17
12 34 17
12 34 17
12 34 17
12 34 17
12 34 17
12 34 17
12 34 17
12 34 17
12 34 17
12 34 17
12 34 17
12 34 17
12 34 17
12 34 17
12 34 17
12 34 17
12 34 17
12 34 17
12 34 17
12 34 17
12 34 17
12 34 17
12 34 17
12 34 17
12 34 17
12 34 17
12 34 17
12 34 17
12 34 17
12 34 17
12 34 17
12 34 17
12 34 17
12 34 17
12 34 17
12 34 17
12 34 17
12 34 17
12 34 17
12 34 17
12 34 17
12 34 17
12 34 17
12 34 17
12 34 17
12 34 17
12 34 17
12 34 17
12 34 17
12 34 17
12 34 17
12 34 17
12 34 17
12 34 17
12 34 17
12 34 17
12 34 17
12 34 17
12 34 17
12 34 17
12 34 17
12 34 17
12 34 17
12 34 17
12 34 17
12 34 17
12 34 17
12 34 17
12 34 17
12 34 17
12 34 17
12 34 17
12 34 17
12 34 17
12 34 17
12 34 17
12 34 17
12 34 17
12 34 17
12 34 17
12 34 17
12 34 17
12 34 17
12 34 17
12 34 17
12 34 17
12 34 17
12 34 17
12 34 17
12 34 17
12 34 17
12 34 17
12 34 17
12 34 17
12 34 17
12 34 17
12 34 17
12 34 17
12 34 17
12 34 17
12 34 17
12 34 17
12 34 17
12 34 17
3 10 5
3 10 5
3 10 5
3 10 5
3 10 5
3 10 5
3 10 5
3 10 5
3 10 5
3 10 5
3 10 5
3 10 5
3 10 5
3 10 5
3 10 5
3 10 5
3 10 5
12 34 17
12 34 17
12 34 17
12 34 17
12 34 17
12 34 17
12 34 17
12 34 17
12 34 17
12 34 17
12 34 17
12 34 17
12 34 17
12 34 17
12 34 17
12 34 17
12 34 17
12 34 17
12 34 17
12 34 17
12 34 17
12 34 17
12 34 17
12 34 17
12 34 17
12 34 17
12 34 17
12 34 17
12 34 17
12 34 17
12 34 17
12 34 17
12 34 17
12 34 17
12 34 17
12 34 17
12 34 17
12 34 17
12 34 17
12 34 17
12 34 17
12 34 17
12 34 17
12 34 17
12 34 17
12 34 17
12 34 17
12 34 17
12 34 17
12 34 17
12 34 17
12 34 17
12 34 17
12 34 17
12 34 17
12 34 17
12 34 17
12 34 17
12 34 17
12 34 17
12 34 17
12 34 17
12 34 17
12 34 17
12 34 17
12 34 17
12 34 17
12 34 17
12 34 17
12 34 17
12 34 17
12 34 17
12 34 17
12 34 17
12 34 17
12 34 17
12 34 17
12 34 17
12 34 17
12 34 17
12 34 17
12 34 17
12 34 17
12 34 17
12 34 17
12 34 17
12 34 17
12 34 17
12 34 17
12 34 17
12 34 17
12 34 17
12 34 17
12 34 17
12 34 17
12 34 17
12 34 17
12 34 17
12 34 17
12 34 17
12 34 17
12 34 17
12 34 17
12 34 17
12 34 17
12 34 17
12 34 17
12 34 17
12 34 17
12 34 17
12 34 17
12 34 17
12 34 17
12 34 17
12 34 17
12 34 17
12 34 17
12 34 17
12 34 17
12 34 17
12 34 17
12 34 17
12 34 17
12 34 17
12 34 17
12 34 17
12 34 17
12 34 17
12 34 17
12 34 17
12 34 17
12 34 17
12 34 17
12 34 17
12 34 17
12 34 17
12 34 17
12 34 17
12 34 17
12 34 17
12 34 17
12 34 17
12 34 17
12 34 17
12 34 17
12 34 17
12 34 17
12 34 17
12 34 17
12 34 17
12 34 17
12 34 17
12 34 17
12 34 17
12 34 17
12 34 17
12 34 17
12 34 17
12 34 17
12 34 17
12 34 17
12 34 17
12 34 17
12 34 17
12 34 17
12 34 17
12 34 17
12 34 17
12 34 17
12 34 17
12 34 17
12 34 17
12 34 17
12 34 17
12 34 17
12 34 17
12 34 17
12 34 17
12 34 17
12 34 17
12 34 17
12 34 17
12 34 17
12 34 17
12 34 17
12 34 17
12 34 17
12 34 17
12 34 17
12 34 17
12 34 17
12 34 17
12 34 17
12 34 17
12 34 17
12 34 17
12 34 17
12 34 17
12 34 17
12 34 17
12 34 17
12 34 17
12 34 17
12 34 17
12 34 17
12 34 17
12 34 17
12 34 17
12 34 17
12 34 17
12 34 17
12 34 17
12 34 17
12 34 17
12 34 17
12 34 17
12 34 17
12 34 17
12 34 17
12 34 17
12 34 17
12 34 17
12 34 17
12 34 17
12 34 17
12 34 17
12 34 17
12 34 17
12 34 17
12 34 17
12 34 17
12 34 17
12 34 17
12 34 17
12 34 17
12 34 17
12 34 17
12 34 17
12 34 17
12 34 17
12 34 17
12 34 17
12 34 17
12 34 17
12 34 17
12 34 17
12 34 17
12 34 17
12 34 17
12 34 17
12 34 17
12 34 17
12 34 17
12 34 17
12 34 17
12 34 17
12 34 17
12 34 17
12 34 17
12 34 17
12 34 17
12 34 17
12 34 17
12 34 17
12 34 17
12 34 17
12 34 17
12 34 17
12 34 17
12 34 17
12 34 17
12 34 17
12 34 17
12 34 17
12 34 17
12 34 17
12 34 17
12 34 17
12 34 17
12 34 17
12 34 17
12 34 17
12 34 17
3 10 5
3 10 5
3 10 5
3 10 5
3 10 5
3 10 5
3 10 5
3 10 5
3 10 5
3 10 5
3 10 5
3 10 5
3 10 5
3 10 5
3 10 5
3 10 5
12 33 16
12 33 16
12 34 17
12 34 17
12 34 17
12 34 17
12 34 17
12 34 17
12 34 17
12 34 17
12 34 17
12 34 17
12 34 17
12 34 17
12 34 17
12 34 17
12 34 17
12 34 17
12 34 17
12 34 17
12 34 17
12 34 17
12 34 17
12 34 17
12 34 17
12 34 17
12 34 17
12 34 17
12 34 17
12 34 17
12 34 17
12 34 17
12 34 17
12 34 17
12 34 17
12 34 17
12 34 17
12 34 17
12 34 17
12 34 17
12 34 17
12 34 17
12 34 17
12 34 17
12 34 17
12 34 17
12 34 17
12 34 17
12 34 17
12 34 17
12 34 17
12 34 17
12 34 17
12 34 17
12 34 17
12 34 17
12 34 17
12 34 17
12 34 17
12 34 17
12 34 17
12 34 17
12 34 17
12 34 17
12 34 17
12 34 17
12 34 17
12 34 17
12 34 17
12 34 17
12 34 17
12 34 17
12 34 17
12 34 17
12 34 17
12 34 17
12 34 17
12 34 17
12 34 17
12 34 17
12 34 17
12 34 17
12 34 17
12 34 17
12 34 17
12 34 17
12 34 17
12 34 17
12 34 17
12 34 17
12 34 17
12 34 17
12 34 17
12 34 17
12 34 17
12 34 17
12 34 17
12 34 17
12 34 17
12 34 17
12 34 17
12 34 17
12 34 17
12 34 17
12 34 17
12 34 17
12 34 17
12 34 17
12 34 17
12 34 17
12 34 17
12 34 17
12 34 17
12 34 17
12 34 17
12 34 17
12 34 17
12 34 17
12 34 17
12 34 17
12 34 17
12 34 17
12 34 17
12 34 17
12 34 17
12 34 17
12 34 17
12 34 17
12 34 17
12 34 17
12 34 17
12 34 17
12 34 17
12 34 17
12 34 17
12 34 17
12 34 17
12 34 17
12 34 17
12 34 17
12 34 17
12 34 17
12 34 17
12 34 17
12 34 17
12 34 17
12 34 17
12 34 17
12 34 17
12 34 17
12 34 17
12 34 17
12 34 17
12 34 17
12 34 17
12 34 17
12 34 17
12 34 17
12 34 17
12 34 17
12 34 17
12 34 17
12 34 17
12 34 17
12 34 17
12 34 17
12 34 17
12 34 17
12 34 17
12 34 17
12 34 17
12 34 17
12 34 17
12 34 17
12 34 17
12 34 17
12 34 17
12 34 17
12 34 17
12 34 17
12 34 17
12 34 17
12 34 17
12 34 17
12 34 17
12 34 17
12 34 17
12 34 17
12 34 17
12 34 17
12 34 17
12 34 17
12 34 17
12 34 17
12 34 17
12 34 17
12 34 17
12 34 17
12 34 17
12 34 17
12 34 17
12 34 17
12 34 17
12 34 17
12 34 17
12 34 17
12 34 17
12 34 17
12 34 17
12 34 17
12 34 17
12 34 17
12 34 17
12 34 17
12 34 17
12 34 17
12 34 17
12 34 17
12 34 17
12 34 17
12 34 17
12 34 17
12 34 17
12 34 17
12 34 17
12 34 17
12 34 17
12 34 17
12 34 17
12 34 17
12 34 17
12 34 17
12 34 17
12 34 17
12 34 17
12 34 17
12 34 17
12 34 17
12 34 17
12 34 17
12 34 17
12 34 17
12 34 17
12 34 17
12 34 17
12 34 17
12 34 17
12 34 17
12 34 17
12 34 17
12 34 17
12 34 17
12 34 17
12 34 17
12 34 17
12 34 17
12 34 17
12 34 17
12 34 17
12 34 17
12 34 17
12 34 17
12 34 17
12 34 17
12 34 17
12 34 17
12 34 17
12 34 17
12 34 17
12 34 17
12 34 17
12 34 17
12 34 17
12 34 17
12 34 17
12 34 17
12 34 17
12 34 17
12 34 17
12 34 17
12 34 17
12 34 17
12 34 17
12 34 17
3 10 5
3 10 5
3 10 5
3 10 5
3 10 5
3 10 5
3 10 5
3 10 5
3 10 5
3 10 5
3 10 5
3 10 5
3 10 5
3 10 5
12 33 16
12 33 16
12 33 16
12 33 16
12 33 16
12 33 16
12 33 16
12 33 16
12 33 16
12 33 16
12 33 16
12 33 16
12 33 16
12 33 16
12 33 16
12 33 16
12 34 17
12 34 17
12 34 17
12 34 17
12 34 17
12 34 17
12 34 17
12 34 17
12 34 17
12 34 17
12 34 17
12 34 17
12 34 17
12 34 17
12 34 17
12 34 17
12 34 17
12 34 17
12 34 17
12 34 17
12 34 17
12 34 17
12 34 17
12 34 17
12 34 17
12 34 17
12 34 17
12 34 17
12 34 17
12 34 17
12 34 17
12 34 17
12 34 17
12 34 17
12 34 17
12 34 17
12 34 17
12 34 17
12 34 17
12 34 17
12 34 17
12 34 17
12 34 17
12 34 17
12 34 17
12 34 17
12 34 17
12 34 17
12 34 17
12 34 17
12 34 17
12 34 17
12 34 17
12 34 17
12 34 17
12 34 17
12 34 17
12 34 17
12 34 17
12 34 17
12 34 17
12 34 17
12 34 17
12 34 17
12 34 17
12 34 17
12 34 17
12 34 17
12 34 17
12 34 17
12 34 17
12 34 17
12 34 17
12 34 17
12 34 17
12 34 17
12 34 17
12 34 17
12 34 17
12 34 17
12 34 17
12 34 17
12 34 17
12 34 17
12 34 17
12 34 17
12 34 17
12 34 17
12 34 17
12 34 17
12 34 17
12 34 17
12 34 17
12 34 17
12 34 17
12 34 17
12 34 17
12 34 17
12 34 17
12 34 17
12 34 17
12 34 17
12 34 17
12 34 17
12 34 17
12 34 17
12 34 17
12 34 17
12 34 17
12 34 17
12 34 17
12 34 17
12 34 17
12 34 17
12 34 17
12 34 17
12 34 17
12 34 17
12 34 17
12 34 17
12 34 17
12 34 17
12 34 17
12 34 17
12 34 17
12 34 17
12 34 17
12 34 17
12 34 17
12 34 17
12 34 17
12 34 17
12 34 17
12 34 17
12 34 17
12 34 17
12 34 17
12 34 17
12 34 17
12 34 17
12 34 17
12 34 17
12 34 17
12 34 17
12 34 17
12 34 17
12 34 17
12 34 17
12 34 17
12 34 17
12 34 17
12 34 17
12 34 17
12 34 17
12 34 17
12 34 17
12 34 17
12 34 17
12 34 17
12 34 17
12 34 17
12 34 17
12 34 17
12 34 17
12 34 17
12 34 17
12 34 17
12 34 17
12 34 17
12 34 17
12 34 17
12 34 17
12 34 17
12 34 17
12 34 17
12 34 17
12 34 17
12 34 17
12 34 17
12 34 17
12 34 17
12 34 17
12 34 17
12 34 17
12 34 17
12 34 17
12 34 17
12 34 17
12 34 17
12 34 17
12 34 17
12 34 17
12 34 17
12 34 17
12 34 17
12 34 17
12 34 17
12 34 17
12 34 17
12 34 17
12 34 17
12 34 17
12 34 17
12 34 17
12 34 17
12 34 17
12 34 17
12 34 17
12 34 17
12 34 17
12 34 17
12 34 17
12 34 17
12 34 17
12 34 17
12 34 17
12 34 17
12 34 17
12 34 17
12 34 17
12 34 17
12 34 17
12 34 17
12 34 17
12 34 17
12 34 17
12 34 17
12 34 17
12 34 17
12 34 17
12 34 17
12 34 17
12 34 17
12 34 17
12 34 17
12 34 17
12 34 17
12 34 17
12 34 17
12 34 17
12 34 17
12 34 17
12 34 17
12 34 17
12 34 17
12 34 17
12 34 17
12 34 17
12 34 17
12 34 17
12 34 17
12 34 17
12 34 17
12 34 17
12 34 17
12 34 17
12 34 17
12 34 17
12 33 16
12 33 16
12 33 16
12 33 16
12 33 16
12 33 16
12 33 16
12 33 16
12 33 16
12 33 16
12 33 16
12 33 16
3 10 5
3 10 5
3 10 5
3 10 5
3 10 5
3 10 5
3 10 5
3 10 5
3 10 5
3 10 5
3 10 5
3 10 5
3 10 5
12 33 16
12 33 16
12 33 16
12 33 16
12 33 16
12 33 16
12 33 16
12 33 16
12 33 16
12 33 16
12 33 16
12 33 16
12 33 16
12 33 16
12 33 16
12 33 16
12 33 16
12 33 16
12 33 16
12 33 16
12 33 16
12 33 16
12 33 16
12 33 16
12 33 16
12 33 16
12 33 16
12 33 16
12 33 16
12 33 16
12 33 16
12 33 16
12 34 17
12 34 17
12 34 17
12 34 17
12 34 17
12 34 17
12 34 17
12 34 17
12 34 17
12 34 17
12 34 17
12 34 17
12 34 17
12 34 17
12 34 17
12 34 17
12 34 17
12 34 17
12 34 17
12 34 17
12 34 17
12 34 17
12 34 17
12 34 17
12 34 17
12 34 17
12 34 17
12 34 17
12 34 17
12 34 17
12 34 17
12 34 17
12 34 17
12 34 17
12 34 17
12 34 17
12 34 17
12 34 17
12 34 17
12 34 17
12 34 17
12 34 17
12 34 17
12 34 17
12 34 17
12 34 17
12 34 17
12 34 17
12 34 17
12 34 17
12 34 17
12 34 17
12 34 17
12 34 17
12 34 17
12 34 17
12 34 17
12 34 17
12 34 17
12 34 17
12 34 17
12 34 17
12 34 17
12 34 17
12 34 17
12 34 17
12 34 17
12 34 17
12 34 17
12 34 17
12 34 17
12 34 17
12 34 17
12 34 17
12 34 17
12 34 17
12 34 17
12 34 17
12 34 17
12 34 17
12 34 17
12 34 17
12 34 17
12 34 17
12 34 17
12 34 17
12 34 17
12 34 17
12 34 17
12 34 17
12 34 17
12 34 17
12 34 17
12 34 17
12 34 17
12 34 17
12 34 17
12 34 17
12 34 17
12 34 17
12 34 17
12 34 17
12 34 17
12 34 17
12 34 17
12 34 17
12 34 17
12 34 17
12 34 17
12 34 17
12 34 17
12 34 17
12 34 17
12 34 17
12 34 17
12 34 17
12 34 17
12 34 17
12 34 17
12 34 17
12 34 17
12 34 17
12 34 17
12 34 17
12 34 17
12 34 17
12 34 17
12 34 17
12 34 17
12 34 17
12 34 17
12 34 17
12 34 17
12 34 17
12 34 17
12 34 17
12 34 17
12 34 17
12 34 17
12 34 17
12 34 17
12 34 17
12 34 17
12 34 17
12 34 17
12 34 17
12 34 17
12 34 17
12 34 17
12 34 17
12 34 17
12 34 17
12 34 17
12 34 17
12 34 17
12 34 17
12 34 17
12 34 17
12 34 17
12 34 17
12 34 17
12 34 17
12 34 17
12 34 17
12 34 17
12 34 17
12 34 17
12 34 17
12 34 17
12 34 17
12 34 17
12 34 17
12 34 17
12 34 17
12 34 17
12 34 17
12 34 17
12 34 17
12 34 17
12 34 17
12 34 17
12 34 17
12 34 17
12 34 17
12 34 17
12 34 17
12 34 17
12 34 17
12 34 17
12 34 17
12 34 17
12 34 17
12 34 17
12 34 17
12 34 17
12 34 17
12 34 17
12 34 17
12 34 17
12 34 17
12 34 17
12 34 17
12 34 17
12 34 17
12 34 17
12 34 17
12 34 17
12 34 17
12 34 17
12 34 17
12 34 17
12 34 17
12 34 17
12 34 17
12 34 17
12 34 17
12 34 17
12 34 17
12 34 17
12 34 17
12 34 17
12 34 17
12 34 17
12 34 17
12 34 17
12 34 17
12 34 17
12 34 17
12 34 17
12 33 16
12 33 16
12 33 16
12 33 16
12 33 16
12 33 16
12 33 16
12 33 16
12 33 16
12 33 16
12 33 16
12 33 16
12 33 16
12 33 16
12 33 16
12 33 16
12 33 16
12 33 16
12 33 16
12 33 16
12 33 16
12 33 16
12 33 16
12 33 16
12 33 16
12 33 16
3 10 5
3 10 5
3 10 5
3 10 5
3 10 5
3 10 5
3 10 5
3 10 5
3 10 5
3 10 5
3 10 5
3 10 5
12 33 16
12 33 16
12 33 16
12 33 16
12 33 16
12 33 16
12 33 16
12 33 16
12 33 16
12 33 16
12 33 16
12 33 16
12 33 16
12 33 16
12 33 16
12 33 16
12 33 16
12 33 16
12 33 16
12 33 16
12 33 16
12 33 16
12 33 16
12 33 16
12 33 16
12 33 16
12 33 16
12 33 16
12 33 16
12 33 16
12 33 16
12 33 16
12 33 16
12 33 16
12 33 16
12 33 16
12 33 16
12 33 16
12 33 16
12 33 16
12 33 16
12 33 16
12 33 16
12 33 16
12 33 16
12 33 16
12 33 16
12 33 16
12 33 16
12 33 16
12 34 17
12 34 17
12 34 17
12 34 17
12 34 17
12 34 17
12 34 17
12 34 17
12 34 17
12 34 17
12 34 17
12 34 17
12 34 17
12 34 17
12 34 17
12 34 17
12 34 17
12 34 17
12 34 17
12 34 17
12 34 17
12 34 17
12 34 17
12 34 17
12 34 17
12 34 17
12 34 17
12 34 17
12 34 17
12 34 17
12 34 17
12 34 17
12 34 17
12 34 17
12 34 17
12 34 17
12 34 17
12 34 17
12 34 17
12 34 17
12 34 17
12 34 17
12 34 17
12 34 17
12 34 17
12 34 17
12 34 17
12 34 17
12 34 17
12 34 17
12 34 17
12 34 17
12 34 17
12 34 17
12 34 17
12 34 17
12 34 17
12 34 17
12 34 17
12 34 17
12 34 17
12 34 17
12 34 17
12 34 17
12 34 17
12 34 17
12 34 17
12 34 17
12 34 17
12 34 17
12 34 17
12 34 17
12 34 17
12 34 17
12 34 17
12 34 17
12 34 17
12 34 17
12 34 17
12 34 17
12 34 17
12 34 17
12 34 17
12 34 17
12 34 17
12 34 17
12 34 17
12 34 17
12 34 17
12 34 17
12 34 17
12 34 17
12 34 17
12 34 17
12 34 17
12 34 17
12 34 17
12 34 17
12 34 17
12 34 17
12 34 17
12 34 17
12 34 17
12 34 17
12 34 17
12 34 17
12 34 17
12 34 17
12 34 17
12 34 17
12 34 17
12 34 17
12 34 17
12 34 17
12 34 17
12 34 17
12 34 17
12 34 17
12 34 17
12 34 17
12 34 17
12 34 17
12 34 17
12 34 17
12 34 17
12 34 17
12 34 17
12 34 17
12 34 17
12 34 17
12 34 17
12 34 17
12 34 17
12 34 17
12 34 17
12 34 17
12 34 17
12 34 17
12 34 17
12 34 17
12 34 17
12 34 17
12 34 17
12 34 17
12 34 17
12 34 17
12 34 17
12 34 17
12 34 17
12 34 17
12 34 17
12 34 17
12 34 17
12 34 17
12 34 17
12 34 17
12 34 17
12 34 17
12 34 17
12 34 17
12 34 17
12 34 17
12 34 17
12 34 17
12 34 17
12 34 17
12 34 17
12 34 17
12 34 17
12 34 17
12 34 17
12 34 17
12 34 17
12 34 17
12 34 17
12 34 17
12 34 17
12 34 17
12 34 17
12 34 17
12 34 17
12 34 17
12 34 17
12 34 17
12 34 17
12 34 17
12 34 17
12 34 17
12 34 17
12 34 17
12 34 17
12 34 17
12 34 17
12 34 17
12 34 17
12 33 16
12 33 16
12 33 16
12 33 16
12 33 16
12 33 16
12 33 16
12 33 16
12 33 16
12 33 16
12 33 16
12 33 16
12 33 16
12 33 16
12 33 16
12 33 16
12 33 16
12 33 16
12 33 16
12 33 16
12 33 16
12 33 16
12 33 16
12 33 16
12 33 16
12 33 16
12 33 16
12 33 16
12 33 16
12 33 16
12 33 16
12 33 16
12 33 16
12 33 16
12 33 16
12 33 16
12 33 16
12 33 16
12 33 16
12 33 16
12 33 16
12 33 16
12 33 16
3 10 5
3 10 5
3 10 5
3 10 5
3 10 5
3 10 5
3 10 5
3 10 5
3 10 5
3 10 5
12 33 16
12 33 16
12 33 16
12 33 16
12 33 16
12 33 16
12 33 16
12 33 16
12 33 16
12 33 16
12 33 16
12 33 16
12 33 16
12 33 16
12 33 16
12 33 16
12 33 16
12 33 16
12 33 16
12 33 16
12 33 16
12 33 16
12 33 16
12 33 16
12 33 16
12 33 16
12 33 16
12 33 16
12 33 16
12 33 16
12 33 16
12 33 16
12 33 16
12 33 16
12 33 16
12 33 16
12 33 16
12 33 16
12 33 16
12 33 16
12 33 16
12 33 16
12 33 16
12 33 16
12 33 16
12 33 16
12 33 16
12 33 16
12 33 16
12 33 16
12 33 16
12 33 16
12 33 16
12 33 16
12 33 16
12 33 16
12 33 16
12 33 16
12 33 16
12 33 16
12 33 16
12 33 16
12 33 16
12 33 16
12 33 16
12 33 16
12 33 16
12 33 16
12 33 16
12 33 16
12 33 16
12 33 16
12 33 16
12 34 17
12 34 17
12 34 17
12 34 17
12 34 17
12 34 17
12 34 17
12 34 17
12 34 17
12 34 17
12 34 17
12 34 17
12 34 17
12 34 17
12 34 17
12 34 17
12 34 17
12 34 17
12 34 17
12 34 17
12 34 17
12 34 17
12 34 17
12 34 17
12 34 17
12 34 17
12 34 17
12 34 17
12 34 17
12 34 17
12 34 17
12 34 17
12 34 17
12 34 17
12 34 17
12 34 17
12 34 17
12 34 17
12 34 17
12 34 17
12 34 17
12 34 17
12 34 17
12 34 17
12 34 17
12 34 17
12 34 17
12 34 17
12 34 17
12 34 17
12 34 17
12 34 17
12 34 17
12 34 17
12 34 17
12 34 17
12 34 17
12 34 17
12 34 17
12 34 17
12 34 17
12 34 17
12 34 17
12 34 17
12 34 17
12 34 17
12 34 17
12 34 17
12 34 17
12 34 17
12 34 17
12 34 17
12 34 17
12 34 17
12 34 17
12 34 17
12 34 17
12 34 17
12 34 17
12 34 17
12 34 17
12 34 17
12 34 17
12 34 17
12 34 17
12 34 17
12 34 17
12 34 17
12 34 17
12 34 17
12 34 17
12 34 17
12 34 17
12 34 17
12 34 17
12 34 17
12 34 17
12 34 17
12 34 17
12 34 17
12 34 17
12 34 17
12 34 17
12 34 17
12 34 17
12 34 17
12 34 17
12 34 17
12 34 17
12 34 17
12 34 17
12 34 17
12 34 17
12 34 17
12 34 17
12 34 17
12 34 17
12 34 17
12 34 17
12 34 17
12 34 17
12 34 17
12 34 17
12 34 17
12 34 17
12 34 17
12 34 17
12 34 17
12 34 17
12 34 17
12 34 17
12 34 17
12 34 17
12 34 17
12 34 17
12 34 17
12 34 17
12 34 17
12 34 17
12 34 17
12 34 17
12 34 17
12 34 17
12 34 17
12 34 17
12 34 17
12 34 17
12 34 17
12 34 17
12 34 17
12 34 17
12 34 17
12 34 17
12 33 16
12 33 16
12 33 16
12 33 16
12 33 16
12 33 16
12 33 16
12 33 16
12 33 16
12 33 16
12 33 16
12 33 16
12 33 16
12 33 16
12 33 16
12 33 16
12 33 16
12 33 16
12 33 16
12 33 16
12 33 16
12 33 16
12 33 16
12 33 16
12 33 16
12 33 16
12 33 16
12 33 16
12 33 16
12 33 16
12 33 16
12 33 16
12 33 16
12 33 16
12 33 16
12 33 16
12 33 16
12 33 16
12 33 16
12 33 16
12 33 16
12 33 16
12 33 16
12 33 16
12 33 16
12 33 16
12 33 16
12 33 16
12 33 16
12 33 16
12 33 16
12 33 16
12 33 16
12 33 16
12 33 16
12 33 16
12 33 16
12 33 16
12 33 16
12 33 16
12 33 16
12 33 16
12 33 16
12 33 16
3 10 5
3 10 5
3 10 5
3 10 5
3 10 5
3 10 5
3 10 5
3 10 5
3 10 5
12 33 16
12 33 16
12 33 16
12 33 16
12 33 16
12 33 16
12 33 16
12 33 16
12 33 16
12 33 16
12 33 16
12 33 16
12 33 16
12 33 16
12 33 16
12 33 16
12 33 16
12 33 16
12 33 16
12 33 16
12 33 16
12 33 16
12 33 16
12 33 16
12 33 16
12 33 16
12 33 16
12 33 16
12 33 16
12 33 16
12 33 16
12 33 16
12 33 16
12 33 16
12 33 16
12 33 16
12 33 16
12 33 16
12 33 16
12 33 16
12 33 16
12 33 16
12 33 16
12 33 16
12 33 16
12 33 16
12 33 16
12 33 16
12 33 16
12 33 16
12 33 16
12 33 16
12 33 16
12 33 16
12 33 16
12 33 16
12 33 16
12 33 16
12 33 16
12 33 16
12 33 16
12 33 16
12 33 16
12 33 16
12 33 16
12 33 16
12 33 16
12 33 16
12 33 16
12 33 16
12 33 16
12 33 16
12 33 16
12 33 16
12 33 16
12 33 16
12 33 16
12 33 16
12 33 16
12 33 16
12 33 16
12 33 16
12 33 16
12 33 16
12 33 16
12 33 16
12 33 16
12 33 16
12 33 16
12 33 16
12 33 16
12 33 16
12 33 16
12 33 16
12 33 16
12 33 16
12 33 16
12 33 16
12 33 16
12 33 16
12 33 16
12 33 16
12 33 16
12 33 16
12 34 17
12 34 17
12 34 17
12 34 17
12 34 17
12 34 17
12 34 17
12 34 17
12 34 17
12 34 17
12 34 17
12 34 17
12 34 17
12 34 17
12 34 17
12 34 17
12 34 17
12 34 17
12 34 17
12 34 17
12 34 17
12 34 17
12 34 17
12 34 17
12 34 17
12 34 17
12 34 17
12 34 17
12 34 17
12 34 17
12 34 17
12 34 17
12 34 17
12 34 17
12 34 17
12 34 17
12 34 17
12 34 17
12 34 17
12 34 17
12 34 17
12 34 17
12 34 17
12 34 17
12 34 17
12 34 17
12 34 17
12 34 17
12 34 17
12 34 17
12 34 17
12 34 17
12 34 17
12 34 17
12 34 17
12 34 17
12 34 17
12 34 17
12 34 17
12 34 17
12 34 17
12 34 17
12 34 17
12 34 17
12 34 17
12 34 17
12 34 17
12 34 17
12 34 17
12 34 17
12 34 17
12 34 17
12 34 17
12 34 17
12 34 17
12 34 17
12 34 17
12 34 17
12 34 17
12 34 17
12 34 17
12 34 17
12 34 17
12 34 17
12 34 17
12 34 17
12 34 17
12 34 17
12 34 17
12 34 17
12 34 17
12 34 17
12 34 17
12 33 16
12 33 16
12 33 16
12 33 16
12 33 16
12 33 16
12 33 16
12 33 16
12 33 16
12 33 16
12 33 16
12 33 16
12 33 16
12 33 16
12 33 16
12 33 16
12 33 16
12 33 16
12 33 16
12 33 16
12 33 16
12 33 16
12 33 16
12 33 16
12 33 16
12 33 16
12 33 16
12 33 16
12 33 16
12 33 16
12 33 16
12 33 16
12 33 16
12 33 16
12 33 16
12 33 16
12 33 16
12 33 16
12 33 16
12 33 16
12 33 16
12 33 16
12 33 16
12 33 16
12 33 16
12 33 16
12 33 16
12 33 16
12 33 16
12 33 16
12 33 16
12 33 16
12 33 16
12 33 16
12 33 16
12 33 16
12 33 16
12 33 16
12 33 16
12 33 16
12 33 16
12 33 16
12 33 16
12 33 16
12 33 16
12 33 16
12 33 16
12 33 16
12 33 16
12 33 16
12 33 16
12 33 16
12 33 16
12 33 16
12 33 16
12 33 16
12 33 16
12 33 16
12 33 16
12 33 16
12 33 16
12 33 16
12 33 16
12 33 16
12 33 16
12 33 16
12 33 16
12 33 16
12 33 16
12 33 16
12 33 16
12 33 16
12 33 16
12 33 16
3 10 5
3 10 5
3 10 5
3 10 5
3 10 5
3 10 5
3 10 5
3 10 5
12 33 16
12 33 16
12 33 16
12 33 16
12 33 16
12 33 16
12 33 16
12 33 16
12 33 16
12 33 16
12 33 16
12 33 16
12 33 16
12 33 16
12 33 16
12 33 16
12 33 16
12 33 16
12 33 16
12 33 16
12 33 16
12 33 16
12 33 16
12 33 16
12 33 16
12 33 16
12 33 16
12 33 16
12 33 16
12 33 16
12 33 16
12 33 16
12 33 16
12 33 16
12 33 16
12 33 16
12 33 16
12 33 16
12 33 16
12 33 16
12 33 16
12 33 16
12 33 16
12 33 16
12 33 16
12 33 16
12 33 16
12 33 16
12 33 16
12 33 16
12 33 16
12 33 16
12 33 16
12 33 16
12 33 16
12 33 16
12 33 16
12 33 16
12 33 16
12 33 16
12 33 16
12 33 16
12 33 16
12 33 16
12 33 16
12 33 16
12 33 16
12 33 16
12 33 16
12 33 16
12 33 16
12 33 16
12 33 16
12 33 16
12 33 16
12 33 16
12 33 16
12 33 16
12 33 16
12 33 16
12 33 16
12 33 16
12 33 16
12 33 16
12 33 16
12 33 16
12 33 16
12 33 16
12 33 16
12 33 16
12 33 16
12 33 16
12 33 16
12 33 16
12 33 16
12 33 16
12 33 16
12 33 16
12 33 16
12 33 16
12 33 16
12 33 16
12 33 16
12 33 16
12 33 16
12 33 16
12 33 16
12 33 16
12 33 16
12 33 16
12 33 16
12 33 16
12 33 16
12 33 16
12 33 16
12 33 16
12 33 16
12 33 16
12 33 16
12 33 16
12 33 16
12 33 16
12 33 16
12 33 16
12 33 16
12 33 16
12 33 16
12 33 16
12 33 16
12 33 16
12 33 16
12 33 16
12 33 16
12 33 16
12 33 16
12 33 16
12 33 16
12 33 16
12 33 16
12 33 16
12 33 16
12 33 16
12 33 16
12 33 16
12 33 16
12 33 16
12 33 16
12 33 16
12 33 16
12 33 16
12 33 16
12 33 16
12 33 16
12 33 16
12 33 16
12 33 16
12 33 16
12 33 16
12 33 16
12 33 16
12 33 16
12 33 16
12 33 16
12 33 16
12 33 16
12 33 16
12 33 16
12 33 16
12 33 16
12 33 16
12 33 16
12 33 16
12 33 16
12 33 16
12 33 16
12 33 16
12 33 16
12 33 16
12 33 16
12 33 16
12 33 16
12 33 16
12 33 16
12 33 16
12 33 16
12 33 16
12 33 16
12 33 16
12 33 16
12 33 16
12 33 16
12 33 16
12 33 16
12 33 16
12 33 16
12 33 16
12 33 16
12 33 16
12 33 16
12 33 16
12 33 16
12 33 16
12 33 16
12 33 16
12 33 16
12 33 16
12 33 16
12 33 16
12 33 16
12 33 16
12 33 16
12 33 16
12 33 16
12 33 16
12 33 16
12 33 16
12 33 16
12 33 16
12 33 16
12 33 16
12 33 16
12 33 16
12 33 16
12 33 16
12 33 16
12 33 16
12 33 16
12 33 16
12 33 16
12 33 16
12 33 16
12 33 16
12 33 16
12 33 16
12 33 16
12 33 16
12 33 16
12 33 16
12 33 16
12 33 16
12 33 16
12 33 16
12 33 16
12 33 16
12 33 16
12 33 16
12 33 16
12 33 16
12 33 16
12 33 16
12 33 16
12 33 16
12 33 16
12 33 16
12 33 16
12 33 16
12 33 16
12 33 16
12 33 16
12 33 16
12 33 16
12 33 16
12 33 16
12 33 16
12 33 16
12 33 16
12 33 16
12 33 16
12 33 16
12 33 16
12 33 16
12 33 16
12 33 16
12 33 16
12 33 16
12 33 16
12 33 16
12 33 16
12 33 16
12 33 16
12 33 16
12 33 16
12 33 16
12 33 16
12 33 16
12 33 16
12 33 16
12 33 16
12 33 16
12 33 16
12 33 16
12 33 16
3 10 5
3 10 5
3 10 5
3 10 5
3 10 5
3 10 5
12 33 16
12 33 16
12 33 16
12 33 16
12 33 16
12 33 16
12 33 16
12 33 16
12 33 16
12 33 16
12 33 16
12 33 16
12 33 16
12 33 16
12 33 16
12 33 16
12 33 16
12 33 16
12 33 16
12 33 16
12 33 16
12 33 16
12 33 16
12 33 16
12 33 16
12 33 16
12 33 16
12 33 16
12 33 16
12 33 16
12 33 16
12 33 16
12 33 16
12 33 16
12 33 16
12 33 16
12 33 16
12 33 16
12 33 16
12 33 16
12 33 16
12 33 16
12 33 16
12 33 16
12 33 16
12 33 16
12 33 16
12 33 16
12 33 16
12 33 16
12 33 16
12 33 16
12 33 16
12 33 16
12 33 16
12 33 16
12 33 16
12 33 16
12 33 16
12 33 16
12 33 16
12 33 16
12 33 16
12 33 16
12 33 16
12 33 16
12 33 16
12 33 16
12 33 16
12 33 16
12 33 16
12 33 16
12 33 16
12 33 16
12 33 16
12 33 16
12 33 16
12 33 16
12 33 16
12 33 16
12 33 16
12 33 16
12 33 16
12 33 16
12 33 16
12 33 16
12 33 16
12 33 16
12 33 16
12 33 16
12 33 16
12 33 16
12 33 16
12 33 16
12 33 16
12 33 16
12 33 16
12 33 16
12 33 16
12 33 16
12 33 16
12 33 16
12 33 16
12 33 16
12 33 16
12 33 16
12 33 16
12 33 16
12 33 16
12 33 16
12 33 16
12 33 16
12 33 16
12 33 16
12 33 16
12 33 16
12 33 16
12 33 16
12 33 16
12 33 16
12 33 16
12 33 16
12 33 16
12 33 16
12 33 16
12 33 16
12 33 16
12 33 16
12 33 16
12 33 16
12 33 16
12 33 16
12 33 16
12 33 16
12 33 16
12 33 16
12 33 16
12 33 16
12 33 16
12 33 16
12 33 16
12 33 16
12 33 16
12 33 16
12 33 16
12 33 16
12 33 16
12 33 16
12 33 16
12 33 16
12 33 16
12 33 16
12 33 16
12 33 16
12 33 16
12 33 16
12 33 16
12 33 16
12 33 16
12 33 16
12 33 16
12 33 16
12 33 16
12 33 16
12 33 16
12 33 16
12 33 16
12 33 16
12 33 16
12 33 16
12 33 16
12 33 16
12 33 16
12 33 16
12 33 16
12 33 16
12 33 16
12 33 16
12 33 16
12 33 16
12 33 16
12 33 16
12 33 16
12 33 16
12 33 16
12 33 16
12 33 16
12 33 16
12 33 16
12 33 16
12 33 16
12 33 16
12 33 16
12 33 16
12 33 16
12 33 16
12 33 16
12 33 16
12 33 16
12 33 16
12 33 16
12 33 16
12 33 16
12 33 16
12 33 16
12 33 16
12 33 16
12 33 16
12 33 16
12 33 16
12 33 16
12 33 16
12 33 16
12 33 16
12 33 16
12 33 16
12 33 16
12 33 16
12 33 16
12 33 16
12 33 16
12 33 16
12 33 16
12 33 16
12 33 16
12 33 16
12 33 16
12 33 16
12 33 16
12 33 16
12 33 16
12 33 16
12 33 16
12 33 16
12 33 16
12 33 16
12 33 16
12 33 16
12 33 16
12 33 16
12 33 16
12 33 16
12 33 16
12 33 16
12 33 16
12 33 16
12 33 16
12 33 16
12 33 16
12 33 16
12 33 16
12 33 16
12 33 16
12 33 16
12 33 16
12 33 16
12 33 16
12 33 16
12 33 16
12 33 16
12 33 16
12 33 16
12 33 16
12 33 16
12 33 16
12 33 16
12 33 16
12 33 16
12 33 16
12 33 16
12 33 16
12 33 16
12 33 16
12 33 16
12 33 16
12 33 16
12 33 16
12 33 16
12 33 16
12 33 16
12 33 16
12 33 16
12 33 16
12 33 16
12 33 16
12 33 16
12 33 16
12 33 16
12 33 16
12 33 16
12 33 16
12 33 16
12 33 16
12 33 16
3 10 5
3 10 5
3 10 5
3 10 5
3 10 5
12 33 16
12 33 16
12 33 16
12 33 16
12 33 16
12 33 16
12 33 16
12 33 16
12 33 16
12 33 16
12 33 16
12 33 16
12 33 16
12 33 16
12 33 16
12 33 16
12 33 16
12 33 16
12 33 16
12 33 16
12 33 16
12 33 16
12 33 16
12 33 16
12 33 16
12 33 16
12 33 16
12 33 16
12 33 16
12 33 16
12 33 16
12 33 16
12 33 16
12 33 16
12 33 16
12 33 16
12 33 16
12 33 16
12 33 16
12 33 16
12 33 16
12 33 16
12 33 16
12 33 16
12 33 16
12 33 16
12 33 16
12 33 16
12 33 16
12 33 16
12 33 16
12 33 16
12 33 16
12 33 16
12 33 16
12 33 16
12 33 16
12 33 16
12 33 16
12 33 16
12 33 16
12 33 16
12 33 16
12 33 16
12 33 16
12 33 16
12 33 16
12 33 16
12 33 16
12 33 16
12 33 16
12 33 16
12 33 16
12 33 16
12 33 16
12 33 16
12 33 16
12 33 16
12 33 16
12 33 16
12 33 16
12 33 16
12 33 16
12 33 16
12 33 16
12 33 16
12 33 16
12 33 16
12 33 16
12 33 16
12 33 16
12 33 16
12 33 16
12 33 16
12 33 16
12 33 16
12 33 16
12 33 16
12 33 16
12 33 16
12 33 16
12 33 16
12 33 16
12 33 16
12 33 16
12 33 16
12 33 16
12 33 16
12 33 16
12 33 16
12 33 16
12 33 16
12 33 16
12 33 16
12 33 16
12 33 16
12 33 16
12 33 16
12 33 16
12 33 16
12 33 16
12 33 16
12 33 16
12 33 16
12 33 16
12 33 16
12 33 16
12 33 16
12 33 16
12 33 16
12 33 16
12 33 16
12 33 16
12 33 16
12 33 16
12 33 16
12 33 16
12 33 16
12 33 16
12 33 16
12 33 16
12 33 16
12 33 16
12 33 16
12 33 16
12 33 16
12 33 16
12 33 16
12 33 16
12 33 16
12 33 16
12 33 16
12 33 16
12 33 16
12 33 16
12 33 16
12 33 16
12 33 16
12 33 16
12 33 16
12 33 16
12 33 16
12 33 16
12 33 16
12 33 16
12 33 16
12 33 16
12 33 16
12 33 16
12 33 16
12 33 16
12 33 16
12 33 16
12 33 16
12 33 16
12 33 16
12 33 16
12 33 16
12 33 16
12 33 16
12 33 16
12 33 16
12 33 16
12 33 16
12 33 16
12 33 16
12 33 16
12 33 16
12 33 16
12 33 16
12 33 16
12 33 16
12 33 16
12 33 16
12 33 16
12 33 16
12 33 16
12 33 16
12 33 16
12 33 16
12 33 16
12 33 16
12 33 16
12 33 16
12 33 16
12 33 16
12 33 16
12 33 16
12 33 16
12 33 16
12 33 16
12 33 16
12 33 16
12 33 16
12 33 16
12 33 16
12 33 16
12 33 16
12 33 16
12 33 16
12 33 16
12 33 16
12 33 16
12 33 16
12 33 16
12 33 16
12 33 16
12 33 16
12 33 16
12 33 16
12 33 16
12 33 16
12 33 16
12 33 16
12 33 16
12 33 16
12 33 16
12 33 16
12 33 16
12 33 16
12 33 16
12 33 16
12 33 16
12 33 16
12 33 16
12 33 16
12 33 16
12 33 16
12 33 16
12 33 16
12 33 16
12 33 16
12 33 16
12 33 16
12 33 16
12 33 16
12 33 16
12 33 16
12 33 16
12 33 16
12 33 16
12 33 16
12 33 16
12 33 16
12 33 16
12 33 16
12 33 16
12 33 16
12 33 16
12 33 16
12 33 16
12 33 16
12 33 16
12 33 16
12 33 16
12 33 16
12 33 16
12 33 16
12 33 16
12 33 16
12 33 16
12 33 16
12 33 16
12 33 16
12 33 16
12 33 16
12 33 16
12 33 16
12 33 16
12 33 16
12 33 16
12 33 16
12 33 16
12 33 16
12 33 16
3 10 5
3 10 5
3 10 5
3 10 5
12 33 16
12 33 16
12 33 16
12 33 16
12 33 16
12 33 16
12 33 16
12 33 16
12 33 16
12 33 16
12 33 16
12 33 16
12 33 16
12 33 16
12 33 16
12 33 16
12 33 16
12 33 16
12 33 16
12 33 16
12 33 16
12 33 16
12 33 16
12 33 16
12 33 16
12 33 16
12 33 16
12 33 16
12 33 16
12 33 16
12 33 16
12 33 16
12 33 16
12 33 16
12 33 16
12 33 16
12 33 16
12 33 16
12 33 16
12 33 16
12 33 16
12 33 16
12 33 16
12 33 16
12 33 16
12 33 16
12 33 16
12 33 16
12 33 16
12 33 16
12 33 16
12 33 16
12 33 16
12 33 16
12 33 16
12 33 16
12 33 16
12 33 16
12 33 16
12 33 16
12 33 16
12 33 16
12 33 16
12 33 16
12 33 16
12 33 16
12 33 16
12 33 16
12 33 16
12 33 16
12 33 16
12 33 16
12 33 16
12 33 16
12 33 16
12 33 16
12 33 16
12 33 16
12 33 16
12 33 16
12 33 16
12 33 16
12 33 16
12 33 16
12 33 16
12 33 16
12 33 16
12 33 16
12 33 16
12 33 16
12 33 16
12 33 16
12 33 16
12 33 16
12 33 16
12 33 16
12 33 16
12 33 16
12 33 16
12 33 16
12 33 16
12 33 16
12 33 16
12 33 16
12 33 16
12 33 16
12 33 16
12 33 16
12 33 16
12 33 16
12 33 16
12 33 16
12 33 16
12 33 16
12 33 16
12 33 16
12 33 16
12 33 16
12 33 16
12 33 16
12 33 16
12 33 16
12 33 16
12 33 16
12 33 16
12 33 16
12 33 16
12 33 16
12 33 16
12 33 16
12 33 16
12 33 16
12 33 16
12 33 16
12 33 16
12 33 16
12 33 16
12 33 16
12 33 16
12 33 16
12 33 16
12 33 16
12 33 16
12 33 16
12 33 16
12 33 16
12 33 16
12 33 16
12 33 16
12 33 16
12 33 16
12 33 16
12 33 16
12 33 16
12 33 16
12 33 16
12 33 16
12 33 16
12 33 16
12 33 16
12 33 16
12 33 16
12 33 16
12 33 16
12 33 16
12 33 16
12 33 16
12 33 16
12 33 16
12 33 16
12 33 16
12 33 16
12 33 16
12 33 16
12 33 16
12 33 16
12 33 16
12 33 16
12 33 16
12 33 16
12 33 16
12 33 16
12 33 16
12 33 16
12 33 16
12 33 16
12 33 16
12 33 16
12 33 16
12 33 16
12 33 16
12 33 16
12 33 16
12 33 16
12 33 16
12 33 16
12 33 16
12 33 16
12 33 16
12 33 16
12 33 16
12 33 16
12 33 16
12 33 16
12 33 16
12 33 16
12 33 16
12 33 16
12 33 16
12 33 16
12 33 16
12 33 16
12 33 16
12 33 16
12 33 16
12 33 16
12 33 16
12 33 16
12 33 16
12 33 16
12 33 16
12 33 16
12 33 16
12 33 16
12 33 16
12 33 16
12 33 16
12 33 16
12 33 16
12 33 16
12 33 16
12 33 16
12 33 16
12 33 16
12 33 16
12 33 16
12 33 16
12 33 16
12 33 16
12 33 16
12 33 16
12 33 16
12 33 16
12 33 16
12 33 16
12 33 16
12 33 16
12 33 16
12 33 16
12 33 16
12 33 16
12 33 16
12 33 16
12 33 16
12 33 16
12 33 16
12 33 16
12 33 16
12 33 16
12 33 16
12 33 16
12 33 16
12 33 16
12 33 16
12 33 16
12 33 16
12 33 16
12 33 16
12 33 16
12 33 16
12 33 16
12 33 16
12 33 16
12 33 16
12 33 16
12 33 16
12 33 16
12 33 16
12 33 16
12 33 16
12 33 16
12 33 16
12 33 16
12 33 16
12 33 16
12 33 16
12 33 16
12 33 16
12 33 16
12 33 16
12 33 16
12 33 16
12 33 16
12 33 16
12 33 16
12 33 16
3 10 5
3 10 5
12 33 16
12 33 16
12 33 16
12 33 16
12 33 16
12 33 16
12 33 16
12 33 16
12 33 16
12 33 16
12 33 16
12 33 16
12 33 16
12 33 16
12 33 16
12 33 16
12 33 16
12 33 16
12 33 16
12 33 16
12 33 16
12 33 16
12 33 16
12 33 16
12 33 16
12 33 16
12 33 16
12 33 16
12 33 16
12 33 16
12 33 16
12 33 16
12 33 16
12 33 16
12 33 16
12 33 16
12 33 16
12 33 16
12 33 16
12 33 16
12 33 16
12 33 16
12 33 16
12 33 16
12 33 16
12 33 16
12 33 16
12 33 16
12 33 16
12 33 16
12 33 16
12 33 16
12 33 16
12 33 16
12 33 16
12 33 16
12 33 16
12 33 16
12 33 16
12 33 16
12 33 16
12 33 16
12 33 16
12 33 16
12 33 16
12 33 16
12 33 16
12 33 16
12 33 16
12 33 16
12 33 16
12 33 16
12 33 16
12 33 16
12 33 16
12 33 16
12 33 16
12 33 16
12 33 16
12 33 16
12 33 16
12 33 16
12 33 16
12 33 16
12 33 16
12 33 16
12 33 16
12 33 16
12 33 16
12 33 16
12 33 16
12 33 16
12 33 16
12 33 16
12 33 16
12 33 16
12 33 16
12 33 16
12 33 16
12 33 16
12 33 16
12 33 16
12 33 16
12 33 16
12 33 16
12 33 16
12 33 16
12 33 16
12 33 16
12 33 16
12 33 16
12 33 16
12 33 16
12 33 16
12 33 16
12 33 16
12 33 16
12 33 16
12 33 16
12 33 16
12 33 16
12 33 16
12 33 16
12 33 16
12 33 16
12 33 16
12 33 16
12 33 16
12 33 16
12 33 16
12 33 16
12 33 16
12 33 16
12 33 16
12 33 16
12 33 16
12 33 16
12 33 16
12 33 16
12 33 16
12 33 16
12 33 16
12 33 16
12 33 16
12 33 16
12 33 16
12 33 16
12 33 16
12 33 16
12 33 16
12 33 16
12 33 16
12 33 16
12 33 16
12 33 16
12 33 16
12 33 16
12 33 16
12 33 16
12 33 16
12 33 16
12 33 16
12 33 16
12 33 16
12 33 16
12 33 16
12 33 16
12 33 16
12 33 16
12 33 16
12 33 16
12 33 16
12 33 16
12 33 16
12 33 16
12 33 16
12 33 16
12 33 16
12 33 16
12 33 16
12 33 16
12 33 16
12 33 16
12 33 16
12 33 16
12 33 16
12 33 16
12 33 16
12 33 16
12 33 16
12 33 16
12 33 16
12 33 16
12 33 16
12 33 16
12 33 16
12 33 16
12 33 16
12 33 16
12 33 16
12 33 16
12 33 16
12 33 16
12 33 16
12 33 16
12 33 16
12 33 16
12 33 16
12 33 16
12 33 16
12 33 16
12 33 16
12 33 16
12 33 16
12 33 16
12 33 16
12 33 16
12 33 16
12 33 16
12 33 16
12 33 16
12 33 16
12 33 16
12 33 16
12 33 16
12 33 16
12 33 16
12 33 16
12 33 16
12 33 16
12 33 16
12 33 16
12 33 16
12 33 16
12 33 16
12 33 16
12 33 16
12 33 16
12 33 16
12 33 16
12 33 16
12 33 16
12 33 16
12 33 16
12 33 16
12 33 16
12 33 16
12 33 16
12 33 16
12 33 16
12 33 16
12 33 16
12 33 16
12 33 16
12 33 16
12 33 16
12 33 16
12 33 16
12 33 16
12 33 16
12 33 16
12 33 16
12 33 16
12 33 16
12 33 16
12 33 16
12 33 16
12 33 16
12 33 16
12 33 16
12 33 16
12 33 16
12 33 16
12 33 16
12 33 16
12 33 16
12 33 16
12 33 16
12 33 16
12 33 16
12 33 16
12 33 16
12 33 16
12 33 16
12 33 16
12 33 16
12 33 16
12 33 16
12 33 16
12 33 16
12 33 16
12 33 16
12 33 16
12 33 16
12 33 16
12 33 16
12 33 16
12 33 16
3 10 5
12 33 16
12 33 16
12 33 16
12 33 16
12 33 16
12 33 16
12 33 16
12 33 16
12 33 16
12 33 16
12 33 16
12 33 16
12 33 16
12 33 16
12 33 16
12 33 16
12 33 16
12 33 16
12 33 16
12 33 16
12 33 16
12 33 16
12 33 16
12 33 16
12 33 16
12 33 16
12 33 16
12 33 16
12 33 16
12 33 16
12 33 16
12 33 16
12 33 16
12 33 16
12 33 16
12 33 16
12 33 16
12 33 16
12 33 16
12 33 16
12 33 16
12 33 16
12 33 16
12 33 16
12 33 16
12 33 16
12 33 16
12 33 16
12 33 16
12 33 16
12 33 16
12 33 16
12 33 16
12 33 16
12 33 16
12 33 16
12 33 16
12 33 16
12 33 16
12 33 16
12 33 16
12 33 16
12 33 16
12 33 16
12 33 16
12 33 16
12 33 16
12 33 16
12 33 16
12 33 16
12 33 16
12 33 16
12 33 16
12 33 16
12 33 16
12 33 16
12 33 16
12 33 16
12 33 16
12 33 16
12 33 16
12 33 16
12 33 16
12 33 16
12 33 16
12 33 16
12 33 16
12 33 16
12 33 16
12 33 16
12 33 16
12 33 16
12 33 16
12 33 16
12 33 16
12 33 16
12 33 16
12 33 16
12 33 16
12 33 16
12 33 16
12 33 16
12 33 16
12 33 16
12 33 16
12 33 16
12 33 16
12 33 16
12 33 16
12 33 16
12 33 16
12 33 16
12 33 16
12 33 16
12 33 16
12 33 16
12 33 16
12 33 16
12 33 16
12 33 16
12 33 16
12 33 16
12 33 16
12 33 16
12 33 16
12 33 16
12 33 16
12 33 16
12 33 16
12 33 16
12 33 16
12 33 16
12 33 16
12 33 16
12 33 16
12 33 16
12 33 16
12 33 16
12 33 16
12 33 16
12 33 16
12 33 16
12 33 16
12 33 16
12 33 16
12 33 16
12 33 16
12 33 16
12 33 16
12 33 16
12 33 16
12 33 16
12 33 16
12 33 16
12 33 16
12 33 16
12 33 16
12 33 16
12 33 16
12 33 16
12 33 16
12 33 16
12 33 16
12 33 16
12 33 16
12 33 16
12 33 16
12 33 16
12 33 16
12 33 16
12 33 16
12 33 16
12 33 16
12 33 16
12 33 16
12 33 16
12 33 16
12 33 16
12 33 16
12 33 16
12 33 16
12 33 16
12 33 16
12 33 16
12 33 16
12 33 16
12 33 16
12 33 16
12 33 16
12 33 16
12 33 16
12 33 16
12 33 16
12 33 16
12 33 16
12 33 16
12 33 16
12 33 16
12 33 16
12 33 16
12 33 16
12 33 16
12 33 16
12 33 16
12 33 16
12 33 16
12 33 16
12 33 16
12 33 16
12 33 16
12 33 16
12 33 16
12 33 16
12 33 16
12 33 16
12 33 16
12 33 16
12 33 16
12 33 16
12 33 16
12 33 16
12 33 16
12 33 16
12 33 16
12 33 16
12 33 16
12 33 16
12 33 16
12 33 16
12 33 16
12 33 16
12 33 16
12 33 16
12 33 16
12 33 16
12 33 16
12 33 16
12 33 16
12 33 16
12 33 16
12 33 16
12 33 16
12 33 16
12 33 16
12 33 16
12 33 16
12 33 16
12 33 16
12 33 16
12 33 16
12 33 16
12 33 16
12 33 16
12 33 16
12 33 16
12 33 16
12 33 16
12 33 16
12 33 16
12 33 16
12 33 16
12 33 16
12 33 16
12 33 16
12 33 16
12 33 16
12 33 16
12 33 16
12 33 16
12 33 16
12 33 16
12 33 16
12 33 16
12 33 16
12 33 16
12 33 16
12 33 16
12 33 16
12 33 16
12 33 16
12 33 16
12 33 16
12 33 16
12 33 16
12 33 16
12 33 16
12 33 16
12 33 16
12 33 16
12 33 16
12 33 16
12 33 16
12 33 16
12 33 16
12 33 16
12 33 16
12 33 16
12 33 16
12 33 16
12 33 16
12 33 16
12 33 16
12 33 16
12 33 16
12 33 16
12 33 16
12 33 16
12 33 16
12 33 16
12 33 16
12 33 16
12 33 16
12 33 16
12 33 16
12 33 16
12 33 16
12 33 16
12 33 16
12 33 16
12 33 16
12 33 16
12 33 16
12 33 16
12 33 16
12 33 16
12 33 16
12 33 16
12 33 16
12 33 16
12 33 16
12 33 16
12 33 16
12 33 16
12 33 16
12 33 16
12 33 16
12 33 16
12 33 16
12 33 16
12 33 16
12 33 16
12 33 16
12 33 16
12 33 16
12 33 16
12 33 16
12 33 16
12 33 16
12 33 16
12 33 16
12 33 16
12 33 16
12 33 16
12 33 16
12 33 16
12 33 16
12 33 16
12 33 16
12 33 16
12 33 16
12 33 16
12 33 16
12 33 16
12 33 16
12 33 16
12 33 16
12 33 16
12 33 16
12 33 16
12 33 16
12 33 16
12 33 16
12 33 16
12 33 16
12 33 16
12 33 16
12 33 16
12 33 16
12 33 16
12 33 16
12 33 16
12 33 16
12 33 16
12 33 16
12 33 16
12 33 16
12 33 16
12 33 16
12 33 16
12 33 16
12 33 16
12 33 16
12 33 16
12 33 16
12 33 16
12 33 16
12 33 16
12 33 16
12 33 16
12 33 16
12 33 16
12 33 16
12 33 16
12 33 16
12 33 16
12 33 16
12 33 16
12 33 16
12 33 16
12 33 16
12 33 16
12 33 16
12 33 16
12 33 16
12 33 16
12 33 16
12 33 16
12 33 16
12 33 16
12 33 16
12 33 16
12 33 16
12 33 16
12 33 16
12 33 16
12 33 16
12 33 16
12 33 16
12 33 16
12 33 16
12 33 16
12 33 16
12 33 16
12 33 16
12 33 16
12 33 16
12 33 16
12 33 16
12 33 16
12 33 16
12 33 16
12 33 16
12 33 16
12 33 16
12 33 16
12 33 16
12 33 16
12 33 16
12 33 16
12 33 16
12 33 16
12 33 16
12 33 16
12 33 16
12 33 16
12 33 16
12 33 16
12 33 16
12 33 16
12 33 16
12 33 16
12 33 16
12 33 16
12 33 16
12 33 16
12 33 16
12 33 16
12 33 16
12 33 16
12 33 16
12 33 16
12 33 16
12 33 16
12 33 16
12 33 16
12 33 16
12 33 16
12 33 16
12 33 16
12 33 16
12 33 16
12 33 16
12 33 16
12 33 16
12 33 16
12 33 16
12 33 16
12 33 16
12 33 16
12 33 16
12 33 16
12 33 16
12 33 16
12 33 16
12 33 16
12 33 16
12 33 16
12 33 16
12 33 16
12 33 16
12 33 16
12 33 16
12 33 16
12 33 16
12 33 16
12 33 16
12 33 16
12 33 16
12 33 16
12 33 16
12 33 16
12 33 16
12 33 16
12 33 16
12 33 16
12 33 16
12 33 16
12 33 16
12 33 16
12 33 16
12 33 16
12 33 16
12 33 16
12 33 16
12 33 16
12 33 16
12 33 16
12 33 16
12 33 16
12 33 16
12 33 16
12 33 16
12 33 16
12 33 16
12 33 16
12 33 16
12 33 16
12 33 16
12 33 16
12 33 16
12 33 16
12 33 16
12 33 16
12 33 16
12 33 16
12 33 16
12 33 16
12 33 16
12 33 16
12 33 16
12 33 16
12 33 16
12 33 16
12 33 16
12 33 16
12 33 16
12 33 16
12 33 16
12 33 16
12 33 16
12 33 16
12 33 16
12 33 16
12 33 16
12 33 16
12 33 16
12 33 16
12 33 16
12 33 16
12 33 16
12 33 16
12 33 16
12 33 16
12 33 16
12 33 16
12 33 16
12 33 16
12 33 16
12 33 16
12 33 16
12 33 16
12 33 16
12 33 16
12 33 16
12 33 16
12 33 16
12 33 16
12 33 16
12 33 16
12 33 16
12 33 16
12 33 16
12 33 16
12 33 16
12 33 16
12 33 16
12 33 16
12 33 16
12 33 16
12 33 16
12 33 16
12 33 16
12 33 16
12 33 16
12 33 16
12 33 16
12 33 16
12 33 16
12 33 16
12 33 16
12 33 16
12 33 16
12 33 16
12 33 16
12 33 16
12 33 16
12 33 16
12 33 16
12 33 16
12 33 16
12 33 16
12 33 16
12 33 16
12 33 16
12 33 16
12 33 16
12 33 16
12 33 16
12 33 16
12 33 16
12 33 16
12 33 16
12 33 16
12 33 16
12 33 16
12 33 16
12 33 16
12 33 16
12 33 16
12 33 16
12 33 16
12 33 16
12 33 16
12 33 16
12 33 16
12 33 16
12 33 16
12 33 16
12 33 16
12 33 16
12 33 16
12 33 16
12 33 16
12 33 16
12 33 16
12 33 16
12 33 16
12 33 16
12 33 16
12 33 16
12 33 16
12 33 16
12 33 16
12 33 16
12 33 16
12 33 16
12 33 16
12 33 16
12 33 16
12 33 16
12 33 16
12 33 16
12 33 16
12 33 16
12 33 16
12 33 16
12 33 16
12 33 16
12 33 16
12 33 16
12 33 16
12 33 16
12 33 16
12 33 16
12 33 16
12 33 16
12 33 16
12 33 16
12 33 16
12 33 16
12 33 16
12 33 16
12 33 16
12 33 16
12 33 16
12 33 16
12 33 16
12 33 16
12 33 16
12 33 16
12 33 16
12 33 16
12 33 16
12 33 16
12 33 16
12 33 16
12 33 16
12 33 16
12 33 16
12 33 16
12 33 16
12 33 16
12 33 16
12 33 16
12 33 16
12 33 16
12 33 16
12 33 16
12 33 16
12 33 16
12 33 16
12 33 16
12 33 16
12 33 16
12 33 16
12 33 16
12 33 16
12 33 16
12 33 16
12 33 16
12 33 16
12 33 16
12 33 16
12 33 16
12 33 16
12 33 16
12 33 16
12 33 16
12 33 16
12 33 16
12 33 16
12 33 16
12 33 16
12 33 16
12 33 16
12 33 16
12 33 16
12 33 16
12 33 16
12 33 16
12 33 16
12 33 16
12 33 16
12 33 16
12 33 16
12 33 16
12 33 16
12 33 16
12 33 16
12 33 16
12 33 16
12 33 16
12 33 16
12 33 16
12 33 16
12 33 16
12 33 16
12 33 16
12 33 16
12 33 16
12 33 16
12 33 16
12 33 16
12 33 16
12 33 16
12 33 16
12 33 16
12 33 16
12 33 16
12 33 16
12 33 16
12 33 16
12 33 16
12 33 16
12 33 16
12 33 16
12 33 16
12 33 16
12 33 16
12 33 16
12 33 16
12 33 16
12 33 16
12 33 16
12 33 16
12 33 16
12 33 16
12 33 16
12 33 16
12 33 16
12 33 16
12 33 16
12 33 16
12 33 16
12 33 16
12 33 16
12 33 16
12 33 16
12 33 16
12 33 16
12 33 16
12 33 16
12 33 16
12 33 16
12 33 16
12 33 16
12 33 16
12 33 16
12 33 16
12 33 16
12 33 16
12 33 16
12 33 16
12 33 16
12 33 16
12 33 16
12 33 16
12 33 16
12 33 16
12 33 16
12 33 16
12 33 16
12 33 16
12 33 16
12 33 16
12 33 16
12 33 16
12 33 16
12 33 16
12 33 16
12 33 16
12 33 16
12 33 16
12 33 16
12 33 16
12 33 16
12 33 16
12 33 16
12 33 16
12 33 16
12 33 16
12 33 16
12 33 16
12 33 16
12 33 16
12 33 16
12 33 16
12 33 16
12 33 16
12 33 16
12 33 16
12 33 16
12 33 16
12 33 16
12 33 16
12 33 16
12 33 16
12 33 16
12 33 16
12 33 16
12 33 16
12 33 16
12 33 16
12 33 16
12 33 16
12 33 16
12 33 16
12 33 16
12 33 16
12 33 16
12 33 16
12 33 16
12 33 16
12 33 16
12 33 16
12 33 16
12 33 16
12 33 16
12 33 16
12 33 16
12 33 16
12 33 16
12 33 16
12 33 16
12 33 16
12 33 16
12 33 16
12 33 16
12 33 16
12 33 16
12 33 16
12 33 16
12 33 16
12 33 16
12 33 16
12 33 16
12 33 16
12 33 16
12 33 16
12 33 16
12 33 16
12 33 16
12 33 16
12 33 16
12 33 16
12 33 16
12 33 16
12 33 16
12 33 16
12 33 16
12 33 16
12 33 16
12 33 16
12 33 16
12 33 16
12 33 16
12 33 16
12 33 16
12 33 16
12 33 16
12 33 16
12 33 16
12 33 16
12 33 16
12 33 16
12 33 16
12 33 16
12 33 16
12 33 16
12 33 16
12 33 16
12 33 16
12 33 16
12 33 16
12 33 16
12 33 16
12 33 16
12 33 16
12 33 16
12 33 16
12 33 16
12 33 16
12 33 16
12 33 16
12 33 16
12 33 16
12 33 16
12 33 16
12 33 16
12 33 16
12 33 16
12 33 16
12 33 16
12 33 16
12 33 16
12 33 16
12 33 16
12 33 16
12 33 16
12 33 16
12 33 16
12 33 16
12 33 16
12 33 16
12 33 16
12 33 16
12 33 16
12 33 16
12 33 16
12 33 16
12 33 16
12 33 16
12 33 16
12 33 16
12 33 16
12 33 16
12 33 16
12 33 16
12 33 16
12 33 16
12 33 16
12 33 16
12 33 16
12 33 16
12 33 16
12 33 16
12 33 16
12 33 16
12 33 16
12 33 16
12 33 16
12 33 16
12 33 16
12 33 16
12 33 16
12 33 16
12 33 16
12 33 16
12 33 16
12 33 16
12 33 16
12 33 16
12 33 16
12 33 16
12 33 16
12 33 16
12 33 16
12 33 16
12 33 16
12 33 16
12 33 16
12 33 16
12 33 16
12 33 16
12 33 16
12 33 16
12 33 16
12 33 16
12 33 16
12 33 16
12 33 16
12 33 16
12 33 16
12 33 16
12 33 16
12 33 16
12 33 16
12 33 16
12 33 16
12 33 16
12 33 16
12 33 16
12 33 16
12 33 16
12 33 16
12 33 16
12 33 16
12 33 16
12 33 16
12 33 16
12 33 16
12 33 16
12 33 16
12 33 16
12 33 16
12 33 16
12 33 16
12 33 16
12 33 16
12 33 16
12 33 16
12 33 16
12 33 16
12 33 16
12 33 16
12 33 16
12 33 16
12 33 16
12 33 16
12 33 16
12 33 16
12 33 16
12 33 16
12 33 16
12 33 16
12 33 16
12 33 16
12 33 16
12 33 16
12 33 16
12 33 16
12 33 16
12 33 16
12 33 16
12 33 16
12 33 16
12 33 16
12 33 16
12 33 16
12 33 16
12 33 16
12 33 16
12 33 16
12 33 16
12 33 16
12 33 16
12 33 16
12 33 16
12 33 16
12 33 16
12 33 16
12 33 16
12 33 16
12 33 16
12 33 16
12 33 16
12 33 16
12 33 16
12 33 16
12 33 16
12 33 16
12 33 16
12 33 16
12 33 16
12 33 16
12 33 16
12 33 16
12 33 16
12 33 16
12 33 16
12 33 16
12 33 16
12 33 16
12 33 16
12 33 16
12 33 16
12 33 16
12 33 16
12 33 16
12 33 16
12 33 16
12 33 16
12 33 16
12 33 16
12 33 16
12 33 16
12 33 16
12 33 16
12 33 16
12 33 16
12 33 16
12 33 16
12 33 16
12 33 16
12 33 16
12 33 16
12 33 16
12 33 16
12 33 16
12 33 16
12 33 16
12 33 16
12 33 16
12 33 16
12 33 16
12 33 16
12 33 16
12 33 16
12 33 16
12 33 16
12 33 16
12 33 16
12 33 16
12 33 16
12 33 16
12 33 16
12 33 16
12 33 16
12 33 16
12 33 16
12 33 16
12 33 16
12 33 16
12 33 16
12 33 16
12 33 16
12 33 16
12 33 16
12 33 16
12 33 16
12 33 16
12 33 16
12 33 16
12 33 16
12 33 16
12 33 16
12 33 16
12 33 16
12 33 16
12 33 16
12 33 16
12 33 16
12 33 16
12 33 16
12 33 16
12 33 16
12 33 16
12 33 16
12 33 16
12 33 16
12 33 16
12 33 16
12 33 16
12 33 16
12 33 16
12 33 16
12 33 16
12 33 16
12 33 16
12 33 16
12 33 16
12 33 16
12 33 16
12 33 16
12 33 16
12 33 16
12 33 16
12 33 16
12 33 16
12 33 16
12 33 16
12 33 16
12 33 16
12 33 16
12 33 16
12 33 16
12 33 16
12 33 16
12 33 16
12 33 16
12 33 16
12 33 16
12 33 16
12 33 16
12 33 16
12 33 16
12 33 16
12 33 16
12 33 16
12 33 16
12 33 16
12 33 16
12 33 16
12 33 16
12 33 16
12 33 16
12 33 16
12 33 16
12 33 16
12 33 16
12 33 16
12 33 16
12 33 16
12 33 16
12 33 16
12 33 16
12 33 16
12 33 16
12 33 16
12 33 16
12 33 16
12 33 16
12 33 16
12 33 16
12 33 16
12 33 16
12 33 16
12 33 16
12 33 16
12 33 16
12 33 16
12 33 16
12 33 16
12 33 16
12 33 16
12 33 16
12 33 16
12 33 16
12 33 16
12 33 16
12 33 16
12 33 16
12 33 16
12 33 16
12 33 16
12 33 16
12 33 16
12 33 16
12 33 16
12 33 16
12 33 16
12 33 16
12 33 16
12 33 16
12 33 16
12 33 16
12 33 16
12 33 16
12 33 16
12 33 16
12 33 16
12 33 16
12 33 16
12 33 16
12 33 16
12 33 16
12 33 16
12 33 16
12 33 16
12 33 16
12 33 16
12 33 16
12 33 16
12 33 16
12 33 16
12 33 16
12 33 16
12 33 16
12 33 16
12 33 16
12 33 16
12 33 16
12 33 16
12 33 16
12 33 16
12 33 16
12 33 16
12 33 16
12 33 16
12 33 16
12 33 16
12 33 16
12 33 16
12 33 16
12 33 16
12 33 16
12 33 16
12 33 16
12 33 16
12 33 16
12 33 16
12 33 16
12 33 16
12 33 16
12 33 16
12 33 16
12 33 16
12 33 16
12 33 16
12 33 16
12 33 16
12 33 16
12 33 16
12 33 16
12 33 16
12 33 16
12 33 16
12 33 16
12 33 16
12 33 16
12 33 16
12 33 16
12 33 16
12 33 16
12 33 16
12 33 16
12 33 16
12 33 16
12 33 16
12 33 16
12 33 16
12 33 16
12 33 16
12 33 16
12 33 16
12 33 16
12 33 16
12 33 16
12 33 16
12 33 16
12 33 16
12 33 16
12 33 16
12 33 16
12 33 16
12 33 16
12 33 16
12 33 16
12 33 16
12 33 16
12 33 16
12 33 16
12 33 16
12 33 16
12 33 16
12 33 16
12 33 16
12 33 16
12 33 16
12 33 16
12 33 16
12 33 16
12 33 16
12 33 16
12 33 16
12 33 16
12 33 16
12 33 16
12 33 16
12 33 16
12 33 16
12 33 16
12 33 16
12 33 16
12 33 16
12 33 16
12 33 16
12 33 16
12 33 16
12 33 16
12 33 16
12 33 16
12 33 16
12 33 16
12 33 16
12 33 16
12 33 16
12 33 16
12 33 16
12 33 16
12 33 16
12 33 16
12 33 16
12 33 16
12 33 16
12 33 16
12 33 16
12 33 16
12 33 16
12 33 16
12 33 16
12 33 16
12 33 16
12 33 16
12 33 16
12 33 16
12 33 16
12 33 16
12 33 16
12 33 16
12 33 16
12 33 16
12 33 16
12 33 16
12 33 16
12 33 16
12 33 16
12 33 16
12 33 16
12 33 16
12 33 16
12 33 16
12 33 16
12 33 16
12 33 16
12 33 16
12 33 16
12 33 16
12 33 16
12 33 16
12 33 16
12 33 16
12 33 16
12 33 16
12 33 16
12 33 16
12 33 16
12 33 16
12 33 16
12 33 16
12 33 16
12 33 16
12 33 16
12 33 16
12 33 16
12 33 16
12 33 16
12 33 16
12 33 16
12 33 16
12 33 16
12 33 16
12 33 16
12 33 16
12 33 16
12 33 16
12 33 16
12 33 16
12 33 16
12 33 16
12 33 16
12 33 16
12 33 16
12 33 16
12 33 16
12 33 16
12 33 16
12 33 16
12 33 16
12 33 16
12 33 16
12 33 16
12 33 16
12 33 16
12 33 16
12 33 16
12 33 16
12 33 16
12 33 16
12 33 16
12 33 16
12 33 16
12 33 16
12 33 16
12 33 16
12 33 16
12 33 16
12 33 16
12 33 16
12 33 16
12 33 16
12 33 16
12 33 16
12 33 16
12 33 16
12 33 16
12 33 16
12 33 16
12 33 16
12 33 16
12 33 16
12 33 16
12 33 16
12 33 16
12 33 16
12 33 16
12 33 16
12 33 16
12 33 16
12 33 16
12 33 16
12 33 16
12 33 16
12 33 16
12 33 16
12 33 16
12 33 16
12 33 16
12 33 16
12 33 16
12 33 16
12 33 16
12 33 16
12 33 16
12 33 16
12 33 16
12 33 16
12 33 16
12 33 16
12 33 16
12 33 16
12 33 16
12 33 16
12 33 16
12 33 16
12 33 16
12 33 16
12 33 16
12 33 16
12 33 16
12 33 16
12 33 16
12 33 16
12 33 16
12 33 16
12 33 16
12 33 16
12 33 16
12 33 16
12 33 16
12 33 16
12 33 16
12 33 16
12 33 16
12 33 16
12 33 16
12 33 16
12 33 16
12 33 16
12 33 16
12 33 16
12 33 16
12 33 16
12 33 16
12 33 16
12 33 16
12 33 16
12 33 16
12 33 16
12 33 16
12 33 16
12 33 16
12 33 16
12 33 16
12 33 16
12 33 16
12 33 16
12 33 16
12 33 16
12 33 16
12 33 16
12 33 16
12 33 16
12 33 16
12 33 16
12 33 16
12 33 16
12 33 16
12 33 16
12 33 16
12 33 16
12 33 16
12 33 16
12 33 16
12 33 16
12 33 16
12 33 16
12 33 16
12 33 16
12 33 16
12 33 16
12 33 16
12 33 16
12 33 16
12 33 16
12 33 16
12 33 16
12 33 16
12 33 16
12 33 16
12 33 16
12 33 16
12 33 16
12 33 16
12 33 16
12 33 16
12 33 16
12 33 16
12 33 16
12 33 16
12 33 16
12 33 16
12 33 16
12 33 16
12 33 16
12 33 16
12 33 16
12 33 16
12 33 16
12 33 16
12 33 16
12 33 16
12 33 16
12 33 16
12 33 16
12 33 16
12 33 16
12 33 16
12 33 16
12 33 16
12 33 16
12 33 16
12 33 16
12 33 16
12 33 16
12 33 16
12 33 16
12 33 16
12 33 16
12 33 16
12 33 16
12 33 16
12 33 16
12 33 16
12 33 16
12 33 16
12 33 16
12 33 16
12 33 16
12 33 16
12 33 16
12 33 16
12 33 16
12 33 16
12 33 16
12 33 16
12 33 16
12 33 16
12 33 16
12 33 16
12 33 16
12 33 16
12 33 16
12 33 16
12 33 16
12 33 16
12 33 16
12 33 16
12 33 16
12 33 16
12 33 16
12 33 16
12 33 16
12 33 16
12 33 16
12 33 16
12 33 16
12 33 16
12 33 16
12 33 16
12 33 16
12 33 16
12 33 16
12 33 16
12 33 16
12 33 16
12 33 16
12 33 16
12 33 16
12 33 16
12 33 16
12 33 16
12 33 16
12 33 16
12 33 16
12 33 16
12 33 16
12 33 16
12 33 16
12 33 16
12 33 16
12 33 16
12 33 16
12 33 16
12 33 16
12 33 16
12 33 16
12 33 16
12 33 16
12 33 16
12 33 16
12 33 16
12 33 16
12 33 16
12 33 16
12 33 16
12 33 16
12 33 16
12 33 16
12 33 16
12 33 16
12 33 16
12 33 16
12 33 16
12 33 16
12 33 16
12 33 16
12 33 16
12 33 16
12 33 16
12 33 16
12 33 16
12 33 16
12 33 16
12 33 16
12 33 16
12 33 16
12 33 16
12 33 16
12 33 16
12 33 16
12 33 16
12 33 16
12 33 16
12 33 16
12 33 16
12 33 16
12 33 16
12 33 16
12 33 16
12 33 16
12 33 16
12 33 16
12 33 16
12 33 16
12 33 16
12 33 16
12 33 16
12 33 16
12 33 16
12 33 16
12 33 16
12 33 16
12 33 16
12 33 16
12 33 16
12 33 16
12 33 16
12 33 16
12 33 16
12 33 16
12 33 16
12 33 16
12 33 16
12 33 16
12 33 16
12 33 16
12 33 16
12 33 16
12 33 16
12 33 16
12 33 16
12 33 16
12 33 16
12 33 16
12 33 16
12 33 16
12 33 16
12 33 16
12 33 16
12 33 16
12 33 16
12 33 16
12 33 16
12 33 16
12 33 16
12 33 16
12 33 16
12 33 16
12 33 16
12 33 16
12 33 16
12 33 16
12 33 16
12 33 16
12 33 16
12 33 16
12 33 16
12 33 16
12 33 16
12 33 16
12 33 16
12 33 16
12 33 16
12 33 16
12 33 16
12 33 16
12 33 16
12 33 16
12 33 16
12 33 16
12 33 16
12 33 16
12 33 16
12 33 16
12 33 16
12 33 16
12 33 16
12 33 16
12 33 16
12 33 16
12 33 16
12 33 16
12 33 16
12 33 16
12 33 16
12 33 16
12 33 16
12 33 16
12 33 16
12 33 16
12 33 16
12 33 16
12 33 16
12 33 16
12 33 16
12 33 16
12 33 16
12 33 16
12 33 16
12 33 16
12 33 16
12 33 16
12 33 16
12 33 16
12 33 16
12 33 16
12 33 16
12 33 16
12 33 16
12 33 16
12 33 16
12 33 16
12 33 16
12 33 16
12 33 16
12 33 16
12 33 16
12 33 16
12 33 16
12 33 16
12 33 16
12 33 16
12 33 16
12 33 16
12 33 16
12 33 16
12 33 16
12 33 16
12 33 16
12 33 16
12 33 16
12 33 16
12 33 16
12 33 16
12 33 16
12 33 16
12 33 16
12 33 16
12 33 16
12 33 16
12 33 16
12 33 16
12 33 16
12 33 16
12 33 16
12 33 16
12 33 16
12 33 16
12 33 16
12 33 16
12 33 16
12 33 16
12 33 16
12 33 16
12 33 16
12 33 16
12 33 16
12 33 16
12 33 16
12 33 16
12 33 16
12 33 16
12 33 16
12 33 16
12 33 16
12 33 16
12 33 16
12 33 16
12 33 16
12 33 16
12 33 16
12 33 16
12 33 16
12 33 16
12 33 16
12 33 16
12 33 16
12 33 16
12 33 16
12 33 16
12 33 16
12 33 16
12 33 16
12 33 16
12 33 16
12 33 16
12 33 16
12 33 16
12 33 16
12 33 16
12 33 16
12 33 16
12 33 16
12 33 16
12 33 16
12 33 16
12 33 16
12 33 16
12 33 16
12 33 16
12 33 16
12 33 16
12 33 16
12 33 16
12 33 16
12 33 16
12 33 16
12 33 16
12 33 16
12 33 16
12 33 16
12 33 16
12 33 16
12 33 16
12 33 16
12 33 16
12 33 16
12 33 16
12 33 16
12 33 16
12 33 16
12 33 16
12 33 16
12 33 16
12 33 16
12 33 16
12 33 16
12 33 16
12 33 16
12 33 16
12 33 16
12 33 16
12 33 16
12 33 16
12 33 16
12 33 16
12 33 16
12 33 16
12 33 16
12 33 16
12 33 16
12 33 16
12 33 16
12 33 16
12 33 16
12 33 16
12 33 16
12 33 16
12 33 16
12 33 16
12 33 16
12 33 16
12 33 16
12 33 16
12 33 16
12 33 16
12 33 16
12 33 16
12 33 16
12 33 16
12 33 16
12 33 16
12 33 16
12 33 16
12 33 16
12 33 16
12 33 16
12 33 16
12 33 16
12 33 16
12 33 16
12 33 16
12 33 16
12 33 16
12 33 16
12 33 16
12 33 16
12 33 16
12 33 16
12 33 16
12 33 16
12 33 16
12 33 16
12 33 16
12 33 16
12 33 16
12 33 16
12 33 16
12 33 16
12 33 16
12 33 16
12 33 16
12 33 16
12 33 16
12 33 16
12 33 16
12 33 16
12 33 16
12 33 16
12 33 16
12 33 16
12 33 16
12 33 16
12 33 16
12 33 16
12 33 16
12 33 16
12 33 16
12 33 16
12 33 16
12 33 16
12 33 16
12 33 16
12 33 16
12 33 16
12 33 16
12 33 16
12 33 16
12 33 16
12 33 16
12 33 16
12 33 16
12 33 16
12 33 16
12 33 16
12 33 16
12 33 16
12 33 16
12 33 16
12 33 16
12 33 16
12 33 16
12 33 16
12 33 16
12 33 16
12 33 16
12 33 16
12 33 16
12 33 16
12 33 16
12 33 16
12 33 16
12 33 16
12 33 16
12 33 16
12 33 16
12 33 16
12 33 16
12 33 16
12 33 16
12 33 16
12 33 16
12 33 16
12 33 16
12 33 16
12 33 16
12 33 16
12 33 16
12 33 16
12 33 16
12 33 16
12 33 16
12 33 16
12 33 16
12 33 16
12 33 16
12 33 16
12 33 16
12 33 16
12 33 16
12 33 16
12 33 16
12 33 16
12 33 16
12 33 16
12 33 16
12 33 16
12 33 16
12 33 16
12 33 16
12 33 16
12 33 16
12 33 16
12 33 16
12 33 16
12 33 16
12 33 16
12 33 16
12 33 16
12 33 16
12 33 16
12 33 16
12 33 16
12 33 16
12 33 16
12 33 16
12 33 16
12 33 16
12 33 16
12 33 16
12 33 16
12 33 16
12 33 16
12 33 16
12 33 16
12 33 16
12 33 16
12 33 16
12 33 16
12 33 16
12 33 16
12 33 16
12 33 16
12 33 16
12 33 16
12 33 16
12 33 16
12 33 16
12 33 16
12 33 16
12 33 16
12 33 16
12 33 16
12 33 16
12 33 16
12 33 16
12 33 16
12 33 16
12 33 16
12 33 16
12 33 16
12 33 16
12 33 16
12 33 16
12 33 16
12 33 16
12 33 16
12 33 16
12 33 16
12 33 16
12 33 16
12 33 16
12 33 16
12 33 16
12 33 16
12 33 16
12 33 16
12 33 16
12 33 16
12 33 16
12 33 16
12 33 16
12 33 16
12 33 16
12 33 16
12 33 16
12 33 16
12 33 16
12 33 16
12 33 16
12 33 16
12 33 16
12 33 16
12 33 16
12 33 16
12 33 16
12 33 16
12 33 16
12 33 16
12 33 16
12 33 16
12 33 16
12 33 16
12 33 16
12 33 16
12 33 16
12 33 16
12 33 16
12 33 16
12 33 16
12 33 16
12 33 16
12 33 16
12 33 16
12 33 16
12 33 16
12 33 16
12 33 16
12 33 16
12 33 16
12 33 16
12 33 16
12 33 16
12 33 16
12 33 16
12 33 16
12 33 16
12 33 16
12 33 16
12 33 16
12 33 16
12 33 16
12 33 16
12 33 16
12 33 16
12 33 16
12 33 16
12 33 16
12 33 16
12 33 16
12 33 16
12 33 16
12 33 16
12 33 16
12 33 16
12 33 16
12 33 16
12 33 16
12 33 16
12 33 16
12 33 16
12 33 16
12 33 16
12 33 16
12 33 16
12 33 16
12 33 16
12 33 16
12 33 16
12 33 16
12 33 16
12 33 16
12 33 16
12 33 16
12 33 16
12 33 16
12 33 16
12 33 16
12 33 16
12 33 16
12 33 16
12 33 16
12 33 16
12 33 16
12 33 16
12 33 16
12 33 16
12 33 16
12 33 16
12 33 16
12 33 16
12 33 16
12 33 16
12 33 16
12 33 16
12 33 16
12 33 16
12 33 16
12 33 16
12 33 16
12 33 16
12 33 16
12 33 16
12 33 16
12 33 16
12 33 16
12 33 16
12 33 16
12 33 16
12 33 16
12 33 16
12 33 16
12 33 16
12 33 16
12 33 16
12 33 16
12 33 16
12 33 16
12 33 16
12 33 16
12 33 16
12 33 16
12 33 16
12 33 16
12 33 16
12 33 16
12 33 16
12 33 16
12 33 16
12 33 16
12 33 16
12 33 16
12 33 16
12 33 16
12 33 16
12 33 16
12 33 16
12 33 16
12 33 16
12 33 16
12 33 16
12 33 16
12 33 16
12 33 16
12 33 16
12 33 16
12 33 16
12 33 16
12 33 16
12 33 16
12 33 16
12 33 16
12 33 16
12 33 16
12 33 16
12 33 16
12 33 16
12 33 16
12 33 16
12 33 16
12 33 16
12 33 16
12 33 16
12 33 16
12 33 16
12 33 16
12 33 16
12 33 16
12 33 16
12 33 16
12 33 16
12 33 16
12 33 16
12 33 16
12 33 16
12 33 16
12 33 16
12 33 16
12 33 16
12 33 16
12 33 16
12 33 16
12 33 16
12 33 16
12 33 16
12 33 16
12 33 16
12 33 16
12 33 16
12 33 16
12 33 16
12 33 16
12 33 16
12 33 16
12 33 16
12 33 16
12 33 16
12 33 16
12 33 16
12 33 16
12 33 16
12 33 16
12 33 16
12 33 16
12 33 16
12 33 16
12 33 16
12 33 16
12 33 16
12 33 16
12 33 16
12 33 16
12 33 16
12 33 16
12 33 16
12 33 16
12 33 16
12 33 16
12 33 16
12 33 16
12 33 16
12 33 16
12 33 16
12 33 16
12 33 16
12 33 16
12 33 16
12 33 16
12 33 16
12 33 16
12 33 16
12 33 16
12 33 16
12 33 16
12 33 16
12 33 16
12 33 16
12 33 16
12 33 16
12 33 16
12 33 16
12 33 16
12 33 16
12 33 16
12 33 16
12 33 16
12 33 16
12 33 16
12 33 16
12 33 16
12 33 16
12 33 16
12 33 16
12 33 16
12 33 16
12 33 16
12 33 16
12 33 16
12 33 16
12 33 16
12 33 16
12 33 16
12 33 16
12 33 16
12 33 16
12 33 16
12 33 16
12 33 16
12 33 16
12 33 16
12 33 16
12 33 16
12 33 16
12 33 16
12 33 16
12 33 16
12 33 16
12 33 16
12 33 16
12 33 16
12 33 16
12 33 16
12 33 16
12 33 16
12 33 16
12 33 16
12 33 16
12 33 16
12 33 16
12 33 16
12 33 16
12 33 16
12 33 16
12 33 16
12 33 16
12 33 16
12 33 16
12 33 16
12 33 16
12 33 16
12 33 16
12 33 16
12 33 16
12 33 16
12 33 16
12 33 16
12 33 16
12 33 16
12 33 16
12 33 16
12 33 16
12 33 16
12 33 16
12 33 16
12 33 16
12 33 16
12 33 16
12 33 16
12 33 16
12 33 16
12 33 16
12 33 16
12 33 16
12 33 16
12 33 16
12 33 16
12 33 16
12 33 16
12 33 16
12 33 16
12 33 16
12 33 16
12 33 16
12 33 16
12 33 16
12 33 16
12 33 16
12 33 16
12 33 16
12 33 16
12 33 16
12 33 16
12 33 16
12 33 16
12 33 16
12 33 16
12 33 16
12 33 16
12 33 16
12 33 16
12 33 16
12 33 16
12 33 16
12 33 16
12 33 16
12 33 16
12 33 16
12 33 16
12 33 16
12 33 16
12 33 16
12 33 16
12 33 16
12 33 16
12 33 16
12 33 16
12 33 16
12 33 16
12 33 16
12 33 16
12 33 16
12 33 16
12 33 16
12 33 16
12 33 16
12 33 16
12 33 16
12 33 16
12 33 16
12 33 16
12 33 16
12 33 16
12 33 16
12 33 16
12 33 16
12 33 16
12 33 16
12 33 16
12 33 16
12 33 16
12 33 16
12 33 16
12 33 16
12 33 16
12 33 16
12 33 16
12 33 16
12 33 16
12 33 16
12 33 16
12 33 16
12 33 16
12 33 16
12 33 16
12 33 16
12 33 16
12 33 16
12 33 16
12 33 16
12 33 16
12 33 16
12 33 16
12 33 16
12 33 16
12 33 16
12 33 16
12 33 16
12 33 16
12 33 16
12 33 16
12 33 16
12 33 16
12 33 16
12 33 16
12 33 16
12 33 16
12 33 16
12 33 16
12 33 16
12 33 16
12 33 16
12 33 16
12 33 16
12 33 16
12 33 16
12 33 16
12 33 16
12 33 16
12 33 16
12 33 16
12 33 16
12 33 16
12 33 16
12 33 16
12 33 16
12 33 16
12 33 16
12 33 16
12 33 16
12 33 16
12 33 16
12 33 16
12 33 16
12 33 16
12 33 16
12 33 16
12 33 16
12 33 16
12 33 16
12 33 16
12 33 16
12 33 16
12 33 16
12 33 16
12 33 16
12 33 16
12 33 16
12 33 16
12 33 16
12 33 16
12 33 16
12 33 16
12 33 16
12 33 16
12 33 16
12 33 16
12 33 16
12 33 16
12 33 16
12 33 16
12 33 16
12 33 16
12 33 16
12 33 16
12 33 16
12 33 16
12 33 16
12 33 16
12 33 16
12 33 16
12 33 16
12 33 16
12 33 16
12 33 16
12 33 16
12 33 16
12 33 16
12 33 16
12 33 16
12 33 16
12 33 16
12 33 16
12 33 16
12 33 16
12 33 16
12 33 16
12 33 16
12 33 16
12 33 16
12 33 16
12 33 16
12 33 16
12 33 16
12 33 16
12 33 16
12 33 16
12 33 16
12 33 16
12 33 16
12 33 16
12 33 16
12 33 16
12 33 16
12 33 16
12 33 16
12 33 16
12 33 16
12 33 16
12 33 16
12 33 16
12 33 16
12 33 16
12 33 16
12 33 16
12 33 16
12 33 16
12 33 16
12 33 16
12 33 16
12 33 16
12 33 16
12 33 16
12 33 16
12 33 16
12 33 16
12 33 16
12 33 16
12 33 16
12 33 16
12 33 16
12 33 16
12 33 16
12 33 16
12 33 16
12 33 16
12 33 16
12 33 16
12 33 16
12 33 16
12 33 16
12 33 16
12 33 16
12 33 16
12 33 16
12 33 16
12 33 16
12 33 16
12 33 16
12 33 16
12 33 16
12 33 16
12 33 16
12 33 16
12 33 16
12 33 16
12 33 16
12 33 16
12 33 16
12 33 16
12 33 16
12 33 16
12 33 16
12 33 16
12 33 16
12 33 16
12 33 16
12 33 16
12 33 16
12 33 16
12 33 16
12 33 16
12 33 16
12 33 16
12 33 16
12 33 16
12 33 16
12 33 16
12 33 16
12 33 16
12 33 16
12 33 16
12 33 16
12 33 16
12 33 16
12 33 16
12 33 16
12 33 16
12 33 16
12 33 16
12 33 16
12 33 16
12 33 16
12 33 16
12 33 16
12 33 16
12 33 16
12 33 16
12 33 16
12 33 16
12 33 16
12 33 16
12 33 16
12 33 16
12 33 16
12 33 16
12 33 16
12 33 16
12 33 16
12 33 16
12 33 16
12 33 16
12 33 16
12 33 16
12 33 16
12 33 16
12 33 16
12 33 16
12 33 16
12 33 16
12 33 16
12 33 16
12 33 16
12 33 16
12 33 16
12 33 16
12 33 16
12 33 16
12 33 16
12 33 16
12 33 16
12 33 16
12 33 16
12 33 16
12 33 16
12 33 16
12 33 16
12 33 16
12 33 16
12 33 16
12 33 16
12 33 16
12 33 16
12 33 16
12 33 16
12 33 16
12 33 16
12 33 16
12 33 16
12 33 16
12 33 16
12 33 16
12 33 16
12 33 16
12 33 16
12 33 16
12 33 16
12 33 16
12 33 16
12 33 16
12 33 16
12 33 16
12 33 16
12 33 16
12 33 16
12 33 16
12 33 16
12 33 16
12 33 16
12 33 16
12 33 16
12 33 16
12 33 16
12 33 16
12 33 16
12 33 16
12 33 16
12 33 16
12 33 16
12 33 16
12 33 16
12 33 16
12 33 16
12 33 16
12 33 16
12 33 16
12 33 16
12 33 16
12 33 16
12 33 16
12 33 16
12 33 16
12 33 16
12 33 16
12 33 16
12 33 16
12 33 16
12 33 16
12 33 16
12 33 16
12 33 16
12 33 16
12 33 16
12 33 16
12 33 16
12 33 16
12 33 16
12 33 16
12 33 16
12 33 16
12 33 16
12 33 16
12 33 16
12 33 16
12 33 16
12 33 16
12 33 16
12 33 16
12 33 16
12 33 16
12 33 16
12 33 16
12 33 16
12 33 16
12 33 16
12 33 16
12 33 16
12 33 16
12 33 16
12 33 16
12 33 16
12 33 16
12 33 16
12 33 16
12 33 16
12 33 16
12 33 16
12 33 16
12 33 16
12 33 16
12 33 16
12 33 16
12 33 16
12 33 16
12 33 16
12 33 16
12 33 16
12 33 16
12 33 16
12 33 16
12 33 16
12 33 16
12 33 16
12 33 16
12 33 16
12 33 16
12 33 16
12 33 16
12 33 16
12 33 16
12 33 16
12 33 16
12 33 16
12 33 16
12 33 16
12 33 16
12 33 16
12 33 16
12 33 16
12 33 16
12 33 16
12 33 16
12 33 16
12 33 16
12 33 16
12 33 16
12 33 16
12 33 16
12 33 16
12 33 16
12 33 16
12 33 16
12 33 16
12 33 16
12 33 16
12 33 16
12 33 16
12 33 16
12 33 16
12 33 16
12 33 16
12 33 16
12 33 16
12 33 16
12 33 16
12 33 16
12 33 16
12 33 16
12 33 16
12 33 16
12 33 16
12 33 16
12 33 16
12 33 16
12 33 16
12 33 16
12 33 16
12 33 16
12 33 16
12 33 16
12 33 16
12 33 16
12 33 16
12 33 16
12 33 16
12 33 16
12 33 16
12 33 16
12 33 16
12 33 16
12 33 16
12 33 16
12 33 16
12 33 16
12 33 16
12 33 16
12 33 16
12 33 16
12 33 16
12 33 16
12 33 16
12 33 16
12 33 16
12 33 16
12 33 16
12 33 16
12 33 16
12 33 16
12 33 16
12 33 16
12 33 16
12 33 16
12 33 16
12 33 16
12 33 16
12 33 16
12 33 16
12 33 16
12 33 16
12 33 16
12 33 16
12 33 16
12 33 16
12 33 16
12 33 16
12 33 16
12 33 16
12 33 16
12 33 16
12 33 16
12 33 16
12 33 16
12 33 16
12 33 16
12 33 16
12 33 16
12 33 16
12 33 16
12 33 16
12 33 16
12 33 16
12 33 16
12 33 16
12 33 16
12 33 16
12 33 16
12 33 16
12 33 16
12 33 16
12 33 16
12 33 16
12 33 16
12 33 16
12 33 16
12 33 16
12 33 16
12 33 16
12 33 16
12 33 16
12 33 16
12 33 16
12 33 16
12 33 16
12 33 16
12 33 16
12 33 16
12 33 16
12 33 16
12 33 16
12 33 16
12 33 16
12 33 16
12 33 16
12 33 16
12 33 16
12 33 16
12 33 16
12 33 16
12 33 16
12 33 16
12 33 16
12 33 16
12 33 16
12 33 16
12 33 16
12 33 16
12 33 16
12 33 16
12 33 16
12 33 16
12 33 16
12 33 16
12 33 16
12 33 16
12 33 16
12 33 16
12 33 16
12 33 16
12 33 16
12 33 16
12 33 16
12 33 16
12 33 16
12 33 16
12 33 16
12 33 16
12 33 16
12 33 16
12 33 16
12 33 16
12 33 16
12 33 16
12 33 16
12 33 16
12 33 16
12 33 16
12 33 16
12 33 16
12 33 16
12 33 16
12 33 16
12 33 16
12 33 16
12 33 16
12 33 16
12 33 16
12 33 16
12 33 16
12 33 16
12 33 16
12 33 16
12 33 16
12 33 16
12 33 16
12 33 16
12 33 16
12 33 16
12 33 16
12 33 16
12 33 16
12 33 16
12 33 16
12 33 16
12 33 16
12 33 16
12 33 16
12 33 16
12 33 16
12 33 16
12 33 16
12 33 16
12 33 16
12 33 16
12 33 16
12 33 16
12 33 16
12 33 16
12 33 16
12 33 16
12 33 16
12 33 16
12 33 16
12 33 16
12 33 16
12 33 16
12 33 16
12 33 16
12 33 16
12 33 16
12 33 16
12 33 16
12 33 16
12 33 16
12 33 16
12 33 16
12 33 16
12 33 16
12 33 16
12 33 16
12 33 16
12 33 16
12 33 16
12 33 16
12 33 16
12 33 16
12 33 16
12 33 16
12 33 16
12 33 16
12 33 16
12 33 16
12 33 16
12 33 16
12 33 16
12 33 16
12 33 16
12 33 16
12 33 16
12 33 16
12 33 16
12 33 16
12 33 16
12 33 16
12 33 16
12 33 16
12 33 16
12 33 16
12 33 16
12 33 16
12 33 16
12 33 16
12 33 16
12 33 16
12 33 16
12 33 16
12 33 16
12 33 16
12 33 16
12 33 16
12 33 16
12 33 16
12 33 16
12 33 16
12 33 16
12 33 16
12 33 16
12 33 16
12 33 16
12 33 16
12 33 16
12 33 16
12 33 16
12 33 16
12 33 16
12 33 16
12 33 16
12 33 16
12 33 16
12 33 16
12 33 16
12 33 16
12 33 16
12 33 16
12 33 16
12 33 16
12 33 16
12 33 16
12 33 16
12 33 16
12 33 16
12 33 16
12 33 16
12 33 16
12 33 16
12 33 16
12 33 16
12 33 16
12 33 16
12 33 16
12 33 16
12 33 16
12 33 16
12 33 16
12 33 16
12 33 16
12 33 16
12 33 16
12 33 16
12 33 16
12 33 16
12 33 16
12 33 16
12 33 16
12 33 16
12 33 16
12 33 16
12 33 16
12 33 16
12 33 16
12 33 16
12 33 16
12 33 16
12 33 16
12 33 16
12 33 16
12 33 16
12 33 16
12 33 16
12 33 16
12 33 16
12 33 16
12 33 16
12 33 16
12 33 16
12 33 16
12 33 16
12 33 16
12 33 16
12 33 16
12 33 16
12 33 16
12 33 16
12 33 16
12 33 16
12 33 16
12 33 16
12 33 16
12 33 16
12 33 16
12 33 16
12 33 16
12 33 16
12 33 16
12 33 16
12 33 16
12 33 16
12 33 16
12 33 16
12 33 16
12 33 16
12 33 16
12 33 16
12 33 16
12 33 16
12 33 16
12 33 16
12 33 16
12 33 16
12 33 16
12 33 16
12 33 16
12 33 16
12 33 16
12 33 16
12 33 16
12 33 16
12 33 16
12 33 16
12 33 16
12 33 16
12 33 16
12 33 16
12 33 16
12 33 16
12 33 16
12 33 16
12 33 16
12 33 16
12 33 16
12 33 16
12 33 16
12 33 16
12 33 16
12 33 16
12 33 16
12 33 16
12 33 16
12 33 16
12 33 16
12 33 16
12 33 16
12 33 16
12 33 16
12 33 16
12 33 16
12 33 16
12 33 16
12 33 16
12 33 16
12 33 16
12 33 16
12 33 16
12 33 16
12 33 16
12 33 16
12 33 16
12 33 16
12 33 16
12 33 16
12 33 16
12 33 16
12 33 16
12 33 16
12 33 16
12 33 16
12 33 16
12 33 16
12 33 16
12 33 16
12 33 16
12 33 16
12 33 16
12 33 16
12 33 16
12 33 16
12 33 16
12 33 16
12 33 16
12 33 16
12 33 16
12 33 16
12 33 16
12 33 16
12 33 16
12 33 16
12 33 16
12 33 16
12 33 16
12 33 16
12 33 16
12 33 16
12 33 16
12 33 16
12 33 16
12 33 16
12 33 16
12 33 16
12 33 16
12 33 16
12 33 16
12 33 16
12 33 16
12 33 16
12 33 16
12 33 16
12 33 16
12 33 16
12 33 16
12 33 16
12 33 16
12 33 16
12 33 16
12 33 16
12 33 16
12 33 16
12 33 16
12 33 16
12 33 16
12 33 16
12 33 16
12 33 16
12 33 16
12 33 16
12 33 16
12 33 16
12 33 16
12 33 16
12 33 16
12 33 16
12 33 16
12 33 16
12 33 16
12 33 16
12 33 16
12 33 16
12 33 16
12 33 16
12 33 16
12 33 16
12 33 16
12 33 16
12 33 16
12 33 16
12 33 16
12 33 16
12 33 16
12 33 16
12 33 16
12 33 16
12 33 16
12 33 16
12 33 16
12 33 16
12 33 16
12 33 16
12 33 16
12 33 16
12 33 16
12 33 16
12 33 16
12 33 16
12 33 16
12 33 16
12 33 16
12 33 16
12 33 16
12 33 16
12 33 16
12 33 16
12 33 16
12 33 16
12 33 16
12 33 16
12 33 16
12 33 16
12 33 16
12 33 16
12 33 16
12 33 16
12 33 16
12 33 16
12 33 16
12 33 16
12 33 16
12 33 16
12 33 16
12 33 16
12 33 16
12 33 16
12 33 16
12 33 16
12 33 16
12 33 16
12 33 16
12 33 16
12 33 16
12 33 16
12 33 16
12 33 16
12 33 16
12 33 16
12 33 16
12 33 16
12 33 16
12 33 16
12 33 16
12 33 16
12 33 16
12 33 16
12 33 16
12 33 16
12 33 16
12 33 16
12 33 16
12 33 16
12 33 16
12 33 16
12 33 16
12 33 16
12 33 16
12 33 16
12 33 16
12 33 16
12 33 16
12 33 16
12 33 16
12 33 16
12 33 16
12 33 16
12 33 16
12 33 16
12 33 16
12 33 16
12 33 16
12 33 16
12 33 16
12 33 16
12 33 16
12 33 16
12 33 16
12 33 16
12 33 16
12 33 16
12 33 16
12 33 16
12 33 16
12 33 16
12 33 16
12 33 16
12 33 16
12 33 16
12 33 16
12 33 16
12 33 16
12 33 16
12 33 16
12 33 16
12 33 16
12 33 16
12 33 16
12 33 16
12 33 16
12 33 16
12 33 16
12 33 16
12 33 16
12 33 16
12 33 16
12 33 16
12 33 16
12 33 16
12 33 16
12 33 16
12 33 16
12 33 16
12 33 16
12 33 16
12 33 16
12 33 16
12 33 16
12 33 16
12 33 16
12 33 16
12 33 16
12 33 16
12 33 16
12 33 16
12 33 16
12 33 16
12 33 16
12 33 16
12 33 16
12 33 16
12 33 16
12 33 16
12 33 16
12 33 16
12 33 16
12 33 16
12 33 16
12 33 16
12 33 16
12 33 16
12 33 16
12 33 16
12 33 16
12 33 16
12 33 16
12 33 16
12 33 16
12 33 16
12 33 16
12 33 16
12 33 16
12 33 16
12 33 16
12 33 16
12 33 16
12 33 16
12 33 16
12 33 16
12 33 16
12 33 16
12 33 16
12 33 16
12 33 16
12 33 16
12 33 16
12 33 16
12 33 16
12 33 16
12 33 16
12 33 16
12 33 16
12 33 16
12 33 16
12 33 16
12 33 16
12 33 16
12 33 16
12 33 16
12 33 16
12 33 16
12 33 16
12 33 16
12 33 16
12 33 16
12 33 16
12 33 16
12 33 16
12 33 16
12 33 16
12 33 16
12 33 16
12 33 16
12 33 16
12 33 16
12 33 16
12 33 16
12 33 16
12 33 16
12 33 16
12 33 16
12 33 16
12 33 16
12 33 16
12 33 16
12 33 16
12 33 16
12 33 16
12 33 16
12 33 16
12 33 16
12 33 16
12 33 16
12 33 16
12 33 16
12 33 16
12 33 16
12 33 16
12 33 16
12 33 16
12 33 16
12 33 16
12 33 16
12 33 16
12 33 16
12 33 16
12 33 16
12 33 16
12 33 16
12 33 16
12 33 16
12 33 16
12 33 16
12 33 16
12 33 16
12 33 16
12 33 16
12 33 16
12 33 16
12 33 16
12 33 16
12 33 16
12 33 16
12 33 16
12 33 16
12 33 16
12 33 16
12 33 16
12 33 16
12 33 16
12 33 16
12 33 16
12 33 16
12 33 16
12 33 16
12 33 16
12 33 16
12 33 16
12 33 16
12 33 16
12 33 16
12 33 16
12 33 16
12 33 16
12 33 16
12 33 16
12 33 16
12 33 16
12 33 16
12 33 16
12 33 16
12 33 16
12 33 16
12 33 16
12 33 16
12 33 16
12 33 16
12 33 16
12 33 16
12 33 16
12 33 16
12 33 16
12 33 16
12 33 16
12 33 16
12 33 16
12 33 16
12 33 16
12 33 16
12 33 16
12 33 16
12 33 16
12 33 16
12 33 16
12 33 16
12 33 16
12 33 16
12 33 16
12 33 16
12 33 16
12 33 16
12 33 16
12 33 16
12 33 16
12 33 16
12 33 16
12 33 16
12 33 16
12 33 16
12 33 16
12 33 16
12 33 16
12 33 16
12 33 16
12 33 16
12 33 16
12 33 16
12 33 16
12 33 16
12 33 16
12 33 16
12 33 16
12 33 16
12 33 16
12 33 16
12 33 16
12 33 16
12 33 16
12 33 16
12 33 16
12 33 16
12 33 16
12 33 16
12 33 16
12 33 16
12 33 16
12 33 16
12 33 16
12 33 16
12 33 16
12 33 16
12 33 16
12 33 16
12 33 16
12 33 16
12 33 16
12 33 16
12 33 16
12 33 16
12 33 16
12 33 16
12 33 16
12 33 16
12 33 16
12 33 16
12 33 16
12 33 16
12 33 16
12 33 16
12 33 16
12 33 16
12 33 16
12 33 16
12 33 16
12 33 16
12 33 16
12 33 16
12 33 16
12 33 16
12 33 16
12 33 16
12 33 16
12 33 16
12 33 16
12 33 16
12 33 16
12 33 16
12 33 16
12 33 16
12 33 16
12 33 16
12 33 16
12 33 16
12 33 16
12 33 16
12 33 16
12 33 16
12 33 16
12 33 16
12 33 16
12 33 16
12 33 16
12 33 16
12 33 16
12 33 16
12 33 16
12 33 16
12 33 16
12 33 16
12 33 16
12 33 16
12 33 16
12 33 16
12 33 16
12 33 16
12 33 16
12 33 16
12 33 16
12 33 16
12 33 16
12 33 16
12 33 16
12 33 16
12 33 16
12 33 16
12 33 16
12 33 16
12 33 16
12 33 16
12 33 16
12 33 16
12 33 16
12 33 16
12 33 16
12 33 16
12 33 16
12 33 16
12 33 16
12 33 16
12 33 16
12 33 16
12 33 16
12 33 16
12 33 16
12 33 16
12 33 16
12 33 16
12 33 16
12 33 16
12 33 16
12 33 16
12 33 16
12 33 16
12 33 16
12 33 16
12 33 16
12 33 16
12 33 16
12 33 16
12 33 16
12 33 16
12 33 16
12 33 16
12 33 16
12 33 16
12 33 16
12 33 16
12 33 16
12 33 16
12 33 16
12 33 16
12 33 16
12 33 16
12 33 16
12 33 16
12 33 16
12 33 16
12 33 16
12 33 16
12 33 16
12 33 16
12 33 16
12 33 16
12 33 16
12 33 16
12 33 16
12 33 16
12 33 16
12 33 16
12 33 16
12 33 16
12 33 16
12 33 16
12 33 16
12 33 16
12 33 16
12 33 16
12 33 16
12 33 16
12 33 16
12 33 16
12 33 16
12 33 16
12 33 16
12 33 16
12 33 16
12 33 16
12 33 16
12 33 16
12 33 16
12 33 16
12 33 16
12 33 16
12 33 16
12 33 16
12 33 16
12 33 16
12 33 16
12 33 16
12 33 16
12 33 16
12 33 16
12 33 16
12 33 16
12 33 16
12 33 16
12 33 16
12 33 16
12 33 16
12 33 16
12 33 16
12 33 16
12 33 16
12 33 16
12 33 16
12 33 16
12 33 16
12 33 16
12 33 16
12 33 16
12 33 16
12 33 16
12 33 16
12 33 16
12 33 16
12 33 16
12 33 16
12 33 16
12 33 16
12 33 16
12 33 16
12 33 16
12 33 16
12 33 16
12 33 16
12 33 16
12 33 16
12 33 16
12 33 16
12 33 16
12 33 16
12 33 16
12 33 16
12 33 16
12 33 16
12 33 16
12 33 16
12 33 16
12 33 16
12 33 16
12 33 16
12 33 16
12 33 16
12 33 16
12 33 16
12 33 16
12 33 16
12 33 16
12 33 16
12 33 16
12 33 16
12 33 16
12 33 16
12 33 16
12 33 16
12 33 16
12 33 16
12 33 16
12 33 16
12 33 16
12 33 16
12 33 16
12 33 16
12 33 16
12 33 16
12 33 16
12 33 16
12 33 16
12 33 16
12 33 16
12 33 16
12 33 16
12 33 16
12 33 16
12 33 16
12 33 16
12 33 16
12 33 16
12 33 16
12 33 16
12 33 16
12 33 16
12 33 16
12 33 16
12 33 16
12 33 16
12 33 16
12 32 16
12 32 16
12 32 16
12 32 16
12 32 16
12 32 16
12 33 16
12 33 16
12 33 16
12 33 16
12 33 16
12 33 16
12 33 16
12 33 16
12 33 16
12 33 16
12 33 16
12 33 16
12 33 16
12 33 16
12 33 16
12 33 16
12 33 16
12 33 16
12 33 16
12 33 16
12 33 16
12 33 16
12 33 16
12 33 16
12 33 16
12 33 16
12 33 16
12 33 16
12 33 16
12 33 16
12 33 16
12 33 16
12 33 16
12 33 16
12 33 16
12 33 16
12 33 16
12 33 16
12 33 16
12 33 16
12 33 16
12 33 16
12 33 16
12 33 16
12 33 16
12 33 16
12 33 16
12 33 16
12 33 16
12 33 16
12 33 16
12 33 16
12 33 16
12 33 16
12 33 16
12 33 16
12 33 16
12 33 16
12 33 16
12 33 16
12 33 16
12 33 16
12 33 16
12 33 16
12 33 16
12 33 16
12 33 16
12 33 16
12 33 16
12 33 16
12 33 16
12 33 16
12 33 16
12 33 16
12 33 16
12 33 16
12 33 16
12 33 16
12 33 16
12 33 16
12 33 16
12 33 16
12 33 16
12 33 16
12 33 16
12 33 16
12 33 16
12 33 16
12 33 16
12 33 16
12 33 16
12 33 16
12 33 16
12 33 16
12 33 16
12 33 16
12 33 16
12 33 16
12 33 16
12 33 16
12 33 16
12 33 16
12 33 16
12 33 16
12 33 16
12 33 16
12 33 16
12 33 16
12 33 16
12 33 16
12 33 16
12 33 16
12 33 16
12 33 16
12 33 16
12 33 16
12 33 16
12 33 16
12 33 16
12 33 16
12 33 16
12 33 16
12 33 16
12 33 16
12 33 16
12 33 16
12 33 16
12 33 16
12 33 16
12 33 16
12 33 16
12 33 16
12 33 16
12 33 16
12 33 16
12 33 16
12 33 16
12 33 16
12 33 16
12 33 16
12 33 16
12 33 16
12 33 16
12 33 16
12 33 16
12 33 16
12 33 16
12 33 16
12 33 16
12 33 16
12 33 16
12 33 16
12 33 16
12 33 16
12 33 16
12 33 16
12 33 16
12 33 16
12 33 16
12 33 16
12 33 16
12 33 16
12 33 16
12 33 16
12 33 16
12 33 16
12 33 16
12 33 16
12 33 16
12 33 16
12 33 16
12 33 16
12 33 16
12 33 16
12 33 16
12 33 16
12 33 16
12 33 16
12 33 16
12 33 16
12 33 16
12 33 16
12 33 16
12 33 16
12 33 16
12 33 16
12 33 16
12 33 16
12 33 16
12 33 16
12 33 16
12 33 16
12 33 16
12 33 16
12 33 16
12 33 16
12 33 16
12 33 16
12 33 16
12 33 16
12 33 16
12 33 16
12 33 16
12 33 16
12 33 16
12 33 16
12 33 16
12 33 16
12 33 16
12 33 16
12 33 16
12 33 16
12 33 16
12 33 16
12 33 16
12 33 16
12 33 16
12 33 16
12 33 16
12 33 16
12 33 16
12 33 16
12 33 16
12 33 16
12 33 16
12 33 16
12 33 16
12 33 16
12 33 16
12 33 16
12 33 16
12 33 16
12 33 16
12 33 16
12 33 16
12 33 16
12 33 16
12 33 16
12 33 16
12 33 16
12 33 16
12 33 16
12 33 16
12 33 16
12 33 16
12 33 16
12 33 16
12 33 16
12 33 16
12 33 16
12 33 16
12 33 16
12 33 16
12 33 16
12 33 16
12 33 16
12 33 16
12 33 16
12 33 16
12 33 16
12 33 16
12 33 16
12 33 16
12 33 16
12 33 16
12 33 16
12 33 16
12 33 16
12 33 16
12 33 16
12 33 16
12 33 16
12 33 16
12 33 16
12 33 16
12 33 16
12 33 16
12 33 16
12 33 16
12 33 16
12 33 16
12 33 16
12 33 16
12 33 16
12 33 16
12 33 16
12 33 16
12 33 16
12 33 16
12 33 16
12 33 16
12 33 16
12 33 16
12 33 16
12 32 16
12 32 16
12 32 16
12 32 16
12 32 16
12 32 16
12 32 16
12 32 16
12 32 16
12 32 16
12 32 16
12 32 16
12 32 16
12 32 16
12 32 16
12 32 16
12 32 16
12 32 16
12 32 16
12 33 16
12 33 16
12 33 16
12 33 16
12 33 16
12 33 16
12 33 16
12 33 16
12 33 16
12 33 16
12 33 16
12 33 16
12 33 16
12 33 16
12 33 16
12 33 16
12 33 16
12 33 16
12 33 16
12 33 16
12 33 16
12 33 16
12 33 16
12 33 16
12 33 16
12 33 16
12 33 16
12 33 16
12 33 16
12 33 16
12 33 16
12 33 16
12 33 16
12 33 16
12 33 16
12 33 16
12 33 16
12 33 16
12 33 16
12 33 16
12 33 16
12 33 16
12 33 16
12 33 16
12 33 16
12 33 16
12 33 16
12 33 16
12 33 16
12 33 16
12 33 16
12 33 16
12 33 16
12 33 16
12 33 16
12 33 16
12 33 16
12 33 16
12 33 16
12 33 16
12 33 16
12 33 16
12 33 16
12 33 16
12 33 16
12 33 16
12 33 16
12 33 16
12 33 16
12 33 16
12 33 16
12 33 16
12 33 16
12 33 16
12 33 16
12 33 16
12 33 16
12 33 16
12 33 16
12 33 16
12 33 16
12 33 16
12 33 16
12 33 16
12 33 16
12 33 16
12 33 16
12 33 16
12 33 16
12 33 16
12 33 16
12 33 16
12 33 16
12 33 16
12 33 16
12 33 16
12 33 16
12 33 16
12 33 16
12 33 16
12 33 16
12 33 16
12 33 16
12 33 16
12 33 16
12 33 16
12 33 16
12 33 16
12 33 16
12 33 16
12 33 16
12 33 16
12 33 16
12 33 16
12 33 16
12 33 16
12 33 16
12 33 16
12 33 16
12 33 16
12 33 16
12 33 16
12 33 16
12 33 16
12 33 16
12 33 16
12 33 16
12 33 16
12 33 16
12 33 16
12 33 16
12 33 16
12 33 16
12 33 16
12 33 16
12 33 16
12 33 16
12 33 16
12 33 16
12 33 16
12 33 16
12 33 16
12 33 16
12 33 16
12 33 16
12 33 16
12 33 16
12 33 16
12 33 16
12 33 16
12 33 16
12 33 16
12 33 16
12 33 16
12 33 16
12 33 16
12 33 16
12 33 16
12 33 16
12 33 16
12 33 16
12 33 16
12 33 16
12 33 16
12 33 16
12 33 16
12 33 16
12 33 16
12 33 16
12 33 16
12 33 16
12 33 16
12 33 16
12 33 16
12 33 16
12 33 16
12 33 16
12 33 16
12 33 16
12 33 16
12 33 16
12 33 16
12 33 16
12 33 16
12 33 16
12 33 16
12 33 16
12 33 16
12 33 16
12 33 16
12 33 16
12 33 16
12 33 16
12 33 16
12 33 16
12 33 16
12 33 16
12 33 16
12 33 16
12 33 16
12 33 16
12 33 16
12 33 16
12 33 16
12 33 16
12 33 16
12 33 16
12 33 16
12 33 16
12 33 16
12 33 16
12 33 16
12 33 16
12 33 16
12 33 16
12 33 16
12 33 16
12 33 16
12 33 16
12 33 16
12 33 16
12 33 16
12 33 16
12 33 16
12 33 16
12 33 16
12 33 16
12 33 16
12 33 16
12 33 16
12 33 16
12 33 16
12 33 16
12 33 16
12 33 16
12 33 16
12 33 16
12 33 16
12 33 16
12 33 16
12 33 16
12 33 16
12 33 16
12 33 16
12 33 16
12 33 16
12 33 16
12 33 16
12 33 16
12 33 16
12 33 16
12 33 16
12 33 16
12 33 16
12 33 16
12 33 16
12 33 16
12 33 16
12 33 16
12 33 16
12 33 16
12 33 16
12 33 16
12 33 16
12 33 16
12 33 16
12 33 16
12 33 16
12 33 16
12 33 16
12 33 16
12 33 16
12 33 16
12 33 16
12 33 16
12 33 16
12 33 16
12 33 16
12 33 16
12 33 16
12 33 16
12 32 16
12 32 16
12 32 16
12 32 16
12 32 16
12 32 16
12 32 16
12 32 16
12 32 16
12 32 16
12 32 16
12 32 16
12 32 16
12 32 16
12 32 16
12 32 16
12 32 16
12 32 16
12 32 16
12 32 16
12 32 16
12 32 16
12 32 16
12 32 16
12 32 16
12 32 16
12 32 16
12 32 16
12 32 16
12 32 16
12 32 16
12 32 16
12 33 16
12 33 16
12 33 16
12 33 16
12 33 16
12 33 16
12 33 16
12 33 16
12 33 16
12 33 16
12 33 16
12 33 16
12 33 16
12 33 16
12 33 16
12 33 16
12 33 16
12 33 16
12 33 16
12 33 16
12 33 16
12 33 16
12 33 16
12 33 16
12 33 16
12 33 16
12 33 16
12 33 16
12 33 16
12 33 16
12 33 16
12 33 16
12 33 16
12 33 16
12 33 16
12 33 16
12 33 16
12 33 16
12 33 16
12 33 16
12 33 16
12 33 16
12 33 16
12 33 16
12 33 16
12 33 16
12 33 16
12 33 16
12 33 16
12 33 16
12 33 16
12 33 16
12 33 16
12 33 16
12 33 16
12 33 16
12 33 16
12 33 16
12 33 16
12 33 16
12 33 16
12 33 16
12 33 16
12 33 16
12 33 16
12 33 16
12 33 16
12 33 16
12 33 16
12 33 16
12 33 16
12 33 16
12 33 16
12 33 16
12 33 16
12 33 16
12 33 16
12 33 16
12 33 16
12 33 16
12 33 16
12 33 16
12 33 16
12 33 16
12 33 16
12 33 16
12 33 16
12 33 16
12 33 16
12 33 16
12 33 16
12 33 16
12 33 16
12 33 16
12 33 16
12 33 16
12 33 16
12 33 16
12 33 16
12 33 16
12 33 16
12 33 16
12 33 16
12 33 16
12 33 16
12 33 16
12 33 16
12 33 16
12 33 16
12 33 16
12 33 16
12 33 16
12 33 16
12 33 16
12 33 16
12 33 16
12 33 16
12 33 16
12 33 16
12 33 16
12 33 16
12 33 16
12 33 16
12 33 16
12 33 16
12 33 16
12 33 16
12 33 16
12 33 16
12 33 16
12 33 16
12 33 16
12 33 16
12 33 16
12 33 16
12 33 16
12 33 16
12 33 16
12 33 16
12 33 16
12 33 16
12 33 16
12 33 16
12 33 16
12 33 16
12 33 16
12 33 16
12 33 16
12 33 16
12 33 16
12 33 16
12 33 16
12 33 16
12 33 16
12 33 16
12 33 16
12 33 16
12 33 16
12 33 16
12 33 16
12 33 16
12 33 16
12 33 16
12 33 16
12 33 16
12 33 16
12 33 16
12 33 16
12 33 16
12 33 16
12 33 16
12 33 16
12 33 16
12 33 16
12 33 16
12 33 16
12 33 16
12 33 16
12 33 16
12 33 16
12 33 16
12 33 16
12 33 16
12 33 16
12 33 16
12 33 16
12 33 16
12 33 16
12 33 16
12 33 16
12 33 16
12 33 16
12 33 16
12 33 16
12 33 16
12 33 16
12 33 16
12 33 16
12 33 16
12 33 16
12 33 16
12 33 16
12 33 16
12 33 16
12 33 16
12 33 16
12 33 16
12 33 16
12 33 16
12 33 16
12 33 16
12 33 16
12 33 16
12 33 16
12 33 16
12 33 16
12 33 16
12 33 16
12 33 16
12 33 16
12 33 16
12 33 16
12 33 16
12 33 16
12 33 16
12 33 16
12 33 16
12 33 16
12 33 16
12 33 16
12 33 16
12 33 16
12 33 16
12 33 16
12 33 16
12 33 16
12 33 16
12 33 16
12 33 16
12 33 16
12 33 16
12 33 16
12 33 16
12 33 16
12 33 16
12 33 16
12 33 16
12 33 16
12 33 16
12 33 16
12 33 16
12 33 16
12 33 16
12 33 16
12 33 16
12 33 16
12 33 16
12 33 16
12 33 16
12 32 16
12 32 16
12 32 16
12 32 16
12 32 16
12 32 16
12 32 16
12 32 16
12 32 16
12 32 16
12 32 16
12 32 16
12 32 16
12 32 16
12 32 16
12 32 16
12 32 16
12 32 16
12 32 16
12 32 16
12 32 16
12 32 16
12 32 16
12 32 16
12 32 16
12 32 16
12 32 16
12 32 16
12 32 16
12 32 16
12 32 16
12 32 16
12 32 16
12 32 16
12 32 16
12 32 16
12 32 16
12 32 16
12 32 16
12 32 16
12 32 16
12 32 16
12 32 16
12 32 16
12 32 16
12 32 16
12 32 16
12 32 16
12 32 16
12 32 16
12 32 16
12 32 16
12 32 16
12 32 16
12 32 16
12 32 16
12 32 16
12 33 16
12 33 16
12 33 16
12 33 16
12 33 16
12 33 16
12 33 16
12 33 16
12 33 16
12 33 16
12 33 16
12 33 16
12 33 16
12 33 16
12 33 16
12 33 16
12 33 16
12 33 16
12 33 16
12 33 16
12 33 16
12 33 16
12 33 16
12 33 16
12 33 16
12 33 16
12 33 16
12 33 16
12 33 16
12 33 16
12 33 16
12 33 16
12 33 16
12 33 16
12 33 16
12 33 16
12 33 16
12 33 16
12 33 16
12 33 16
12 33 16
12 33 16
12 33 16
12 33 16
12 33 16
12 33 16
12 33 16
12 33 16
12 33 16
12 33 16
12 33 16
12 33 16
12 33 16
12 33 16
12 33 16
12 33 16
12 33 16
12 33 16
12 33 16
12 33 16
12 33 16
12 33 16
12 33 16
12 33 16
12 33 16
12 33 16
12 33 16
12 33 16
12 33 16
12 33 16
12 33 16
12 33 16
12 33 16
12 33 16
12 33 16
12 33 16
12 33 16
12 33 16
12 33 16
12 33 16
12 33 16
12 33 16
12 33 16
12 33 16
12 33 16
12 33 16
12 33 16
12 33 16
12 33 16
12 33 16
12 33 16
12 33 16
12 33 16
12 33 16
12 33 16
12 33 16
12 33 16
12 33 16
12 33 16
12 33 16
12 33 16
12 33 16
12 33 16
12 33 16
12 33 16
12 33 16
12 33 16
12 33 16
12 33 16
12 33 16
12 33 16
12 33 16
12 33 16
12 33 16
12 33 16
12 33 16
12 33 16
12 33 16
12 33 16
12 33 16
12 33 16
12 33 16
12 33 16
12 33 16
12 33 16
12 33 16
12 33 16
12 33 16
12 33 16
12 33 16
12 33 16
12 33 16
12 33 16
12 33 16
12 33 16
12 33 16
12 33 16
12 33 16
12 33 16
12 33 16
12 33 16
12 33 16
12 33 16
12 33 16
12 33 16
12 33 16
12 33 16
12 33 16
12 33 16
12 33 16
12 33 16
12 33 16
12 33 16
12 33 16
12 33 16
12 33 16
12 33 16
12 33 16
12 33 16
12 33 16
12 33 16
12 33 16
12 33 16
12 33 16
12 33 16
12 33 16
12 33 16
12 33 16
12 33 16
12 33 16
12 33 16
12 33 16
12 33 16
12 33 16
12 33 16
12 33 16
12 33 16
12 33 16
12 33 16
12 33 16
12 33 16
12 33 16
12 33 16
12 33 16
12 33 16
12 33 16
12 33 16
12 33 16
12 33 16
12 33 16
12 33 16
12 33 16
12 33 16
12 33 16
12 33 16
12 33 16
12 33 16
12 33 16
12 33 16
12 33 16
12 33 16
12 33 16
12 33 16
12 33 16
12 33 16
12 33 16
12 33 16
12 33 16
12 33 16
12 33 16
12 33 16
12 33 16
12 33 16
12 33 16
12 33 16
12 33 16
12 33 16
12 33 16
12 33 16
12 33 16
12 33 16
12 33 16
12 33 16
12 33 16
12 33 16
12 33 16
12 33 16
12 33 16
12 32 16
12 32 16
12 32 16
12 32 16
12 32 16
12 32 16
12 32 16
12 32 16
12 32 16
12 32 16
12 32 16
12 32 16
12 32 16
12 32 16
12 32 16
12 32 16
12 32 16
12 32 16
12 32 16
12 32 16
12 32 16
12 32 16
12 32 16
12 32 16
12 32 16
12 32 16
12 32 16
12 32 16
12 32 16
12 32 16
12 32 16
12 32 16
12 32 16
12 32 16
12 32 16
12 32 16
12 32 16
12 32 16
12 32 16
12 32 16
12 32 16
12 32 16
12 32 16
12 32 16
12 32 16
12 32 16
12 32 16
12 32 16
12 32 16
12 32 16
12 32 16
12 32 16
12 32 16
12 32 16
12 32 16
12 32 16
12 32 16
12 32 16
12 32 16
12 32 16
12 32 16
12 32 16
12 32 16
12 32 16
12 32 16
12 32 16
12 32 16
12 32 16
12 32 16
12 32 16
12 32 16
12 32 16
12 32 16
12 32 16
12 32 16
12 32 16
12 32 16
12 32 16
12 32 16
12 32 16
12 32 16
12 32 16
12 32 16
12 32 16
12 32 16
12 32 16
12 32 16
12 32 16
12 32 16
12 32 16
12 33 16
12 33 16
12 33 16
12 33 16
12 33 16
12 33 16
12 33 16
12 33 16
12 33 16
12 33 16
12 33 16
12 33 16
12 33 16
12 33 16
12 33 16
12 33 16
12 33 16
12 33 16
12 33 16
12 33 16
12 33 16
12 33 16
12 33 16
12 33 16
12 33 16
12 33 16
12 33 16
12 33 16
12 33 16
12 33 16
12 33 16
12 33 16
12 33 16
12 33 16
12 33 16
12 33 16
12 33 16
12 33 16
12 33 16
12 33 16
12 33 16
12 33 16
12 33 16
12 33 16
12 33 16
12 33 16
12 33 16
12 33 16
12 33 16
12 33 16
12 33 16
12 33 16
12 33 16
12 33 16
12 33 16
12 33 16
12 33 16
12 33 16
12 33 16
12 33 16
12 33 16
12 33 16
12 33 16
12 33 16
12 33 16
12 33 16
12 33 16
12 33 16
12 33 16
12 33 16
12 33 16
12 33 16
12 33 16
12 33 16
12 33 16
12 33 16
12 33 16
12 33 16
12 33 16
12 33 16
12 33 16
12 33 16
12 33 16
12 33 16
12 33 16
12 33 16
12 33 16
12 33 16
12 33 16
12 33 16
12 33 16
12 33 16
12 33 16
12 33 16
12 33 16
12 33 16
12 33 16
12 33 16
12 33 16
12 33 16
12 33 16
12 33 16
12 33 16
12 33 16
12 33 16
12 33 16
12 33 16
12 33 16
12 33 16
12 33 16
12 33 16
12 33 16
12 33 16
12 33 16
12 33 16
12 33 16
12 33 16
12 33 16
12 33 16
12 33 16
12 33 16
12 33 16
12 33 16
12 33 16
12 33 16
12 33 16
12 33 16
12 33 16
12 33 16
12 33 16
12 33 16
12 33 16
12 33 16
12 33 16
12 33 16
12 33 16
12 33 16
12 33 16
12 33 16
12 33 16
12 33 16
12 33 16
12 33 16
12 33 16
12 33 16
12 33 16
12 33 16
12 33 16
12 33 16
12 33 16
12 33 16
12 33 16
12 33 16
12 33 16
12 33 16
12 33 16
12 33 16
12 33 16
12 33 16
12 33 16
12 33 16
12 33 16
12 33 16
12 33 16
12 33 16
12 33 16
12 33 16
12 33 16
12 33 16
12 33 16
12 33 16
12 33 16
12 33 16
12 33 16
12 33 16
12 33 16
12 33 16
12 33 16
12 33 16
12 33 16
12 33 16
12 33 16
12 33 16
12 33 16
12 33 16
12 33 16
12 33 16
12 33 16
12 33 16
12 33 16
12 33 16
12 33 16
12 32 16
12 32 16
12 32 16
12 32 16
12 32 16
12 32 16
12 32 16
12 32 16
12 32 16
12 32 16
12 32 16
12 32 16
12 32 16
12 32 16
12 32 16
12 32 16
12 32 16
12 32 16
12 32 16
12 32 16
12 32 16
12 32 16
12 32 16
12 32 16
12 32 16
12 32 16
12 32 16
12 32 16
12 32 16
12 32 16
12 32 16
12 32 16
12 32 16
12 32 16
12 32 16
12 32 16
12 32 16
12 32 16
12 32 16
12 32 16
12 32 16
12 32 16
12 32 16
12 32 16
12 32 16
12 32 16
12 32 16
12 32 16
12 32 16
12 32 16
12 32 16
12 32 16
12 32 16
12 32 16
12 32 16
12 32 16
12 32 16
12 32 16
12 32 16
12 32 16
12 32 16
12 32 16
12 32 16
12 32 16
12 32 16
12 32 16
12 32 16
12 32 16
12 32 16
12 32 16
12 32 16
12 32 16
12 32 16
12 32 16
12 32 16
12 32 16
12 32 16
12 32 16
12 32 16
12 32 16
12 32 16
12 32 16
12 32 16
12 32 16
12 32 16
12 32 16
12 32 16
12 32 16
12 32 16
12 32 16
12 32 16
12 32 16
12 32 16
12 32 16
12 32 16
12 32 16
12 32 16
12 32 16
12 32 16
12 32 16
12 32 16
12 32 16
12 32 16
12 32 16
12 32 16
12 32 16
12 32 16
12 32 16
12 32 16
12 32 16
12 32 16
12 32 16
12 32 16
12 32 16
12 32 16
12 32 16
12 32 16
12 32 16
12 32 16
12 32 16
12 32 16
12 32 16
12 32 16
12 32 16
12 32 16
12 32 16
12 32 16
12 32 16
12 32 16
12 32 16
12 32 16
12 33 16
12 33 16
12 33 16
12 33 16
12 33 16
12 33 16
12 33 16
12 33 16
12 33 16
12 33 16
12 33 16
12 33 16
12 33 16
12 33 16
12 33 16
12 33 16
12 33 16
12 33 16
12 33 16
12 33 16
12 33 16
12 33 16
12 33 16
12 33 16
12 33 16
12 33 16
12 33 16
12 33 16
12 33 16
12 33 16
12 33 16
12 33 16
12 33 16
12 33 16
12 33 16
12 33 16
12 33 16
12 33 16
12 33 16
12 33 16
12 33 16
12 33 16
12 33 16
12 33 16
12 33 16
12 33 16
12 33 16
12 33 16
12 33 16
12 33 16
12 33 16
12 33 16
12 33 16
12 33 16
12 33 16
12 33 16
12 33 16
12 33 16
12 33 16
12 33 16
12 33 16
12 33 16
12 33 16
12 33 16
12 33 16
12 33 16
12 33 16
12 33 16
12 33 16
12 33 16
12 33 16
12 33 16
12 33 16
12 33 16
12 33 16
12 33 16
12 33 16
12 33 16
12 33 16
12 33 16
12 33 16
12 33 16
12 33 16
12 33 16
12 33 16
12 33 16
12 33 16
12 33 16
12 33 16
12 33 16
12 33 16
12 33 16
12 33 16
12 33 16
12 33 16
12 33 16
12 33 16
12 33 16
12 33 16
12 33 16
12 33 16
12 33 16
12 33 16
12 33 16
12 33 16
12 33 16
12 33 16
12 33 16
12 33 16
12 33 16
12 33 16
12 33 16
12 33 16
12 33 16
12 33 16
12 33 16
12 33 16
12 33 16
12 33 16
12 33 16
12 33 16
12 33 16
12 33 16
12 33 16
12 33 16
12 33 16
12 33 16
12 33 16
12 33 16
12 33 16
12 33 16
12 33 16
12 33 16
12 33 16
12 33 16
12 33 16
12 33 16
12 33 16
12 33 16
12 33 16
12 33 16
12 33 16
12 33 16
12 33 16
12 33 16
12 33 16
12 32 16
12 32 16
12 32 16
12 32 16
12 32 16
12 32 16
12 32 16
12 32 16
12 32 16
12 32 16
12 32 16
12 32 16
12 32 16
12 32 16
12 32 16
12 32 16
12 32 16
12 32 16
12 32 16
12 32 16
12 32 16
12 32 16
12 32 16
12 32 16
12 32 16
12 32 16
12 32 16
12 32 16
12 32 16
12 32 16
12 32 16
12 32 16
12 32 16
12 32 16
12 32 16
12 32 16
12 32 16
12 32 16
12 32 16
12 32 16
12 32 16
12 32 16
12 32 16
12 32 16
12 32 16
12 32 16
12 32 16
12 32 16
12 32 16
12 32 16
12 32 16
12 32 16
12 32 16
12 32 16
12 32 16
12 32 16
12 32 16
12 32 16
12 32 16
12 32 16
12 32 16
12 32 16
12 32 16
12 32 16
12 32 16
12 32 16
12 32 16
12 32 16
12 32 16
12 32 16
12 32 16
12 32 16
12 32 16
12 32 16
12 32 16
12 32 16
12 32 16
12 32 16
12 32 16
12 32 16
12 32 16
12 32 16
12 32 16
12 32 16
12 32 16
12 32 16
12 32 16
12 32 16
12 32 16
12 32 16
12 32 16
12 32 16
12 32 16
12 32 16
12 32 16
12 32 16
12 32 16
12 32 16
12 32 16
12 32 16
12 32 16
12 32 16
12 32 16
12 32 16
12 32 16
12 32 16
12 32 16
12 32 16
12 32 16
12 32 16
12 32 16
12 32 16
12 32 16
12 32 16
12 32 16
12 32 16
12 32 16
12 32 16
12 32 16
12 32 16
12 32 16
12 32 16
12 32 16
12 32 16
12 32 16
12 32 16
12 32 16
12 32 16
12 32 16
12 32 16
12 32 16
12 32 16
12 32 16
12 32 16
12 32 16
12 32 16
12 32 16
12 32 16
12 32 16
12 32 16
12 32 16
12 32 16
12 32 16
12 32 16
12 32 16
12 32 16
12 32 16
12 32 16
12 32 16
12 32 16
12 32 16
12 32 16
12 32 16
12 32 16
12 32 16
12 32 16
12 32 16
12 32 16
12 32 16
12 32 16
12 32 16
12 32 16
12 32 16
12 32 16
12 32 16
12 32 16
12 32 16
12 32 16
12 32 16
12 32 16
12 32 16
12 32 16
12 32 16
12 32 16
12 32 16
12 32 16
12 32 16
12 32 16
12 32 16
12 32 16
12 32 16
12 32 16
12 32 16
12 32 16
12 32 16
12 32 16
12 32 16
12 32 16
12 32 16
12 32 16
12 32 16
12 33 16
12 33 16
12 33 16
12 33 16
12 33 16
12 33 16
12 33 16
12 33 16
12 33 16
12 33 16
12 33 16
12 33 16
12 33 16
12 33 16
12 33 16
12 33 16
12 33 16
12 33 16
12 33 16
12 33 16
12 33 16
12 33 16
12 33 16
12 33 16
12 33 16
12 33 16
12 33 16
12 33 16
12 33 16
12 33 16
12 33 16
12 33 16
12 33 16
12 33 16
12 33 16
12 33 16
12 33 16
12 33 16
12 33 16
12 33 16
12 33 16
12 33 16
12 33 16
12 33 16
12 33 16
12 33 16
12 33 16
12 33 16
12 33 16
12 33 16
12 33 16
12 33 16
12 33 16
12 33 16
12 33 16
12 33 16
12 33 16
12 33 16
12 33 16
12 33 16
12 33 16
12 33 16
12 33 16
12 33 16
12 33 16
12 33 16
12 33 16
12 33 16
12 33 16
12 33 16
12 33 16
12 33 16
12 33 16
12 32 16
12 32 16
12 32 16
12 32 16
12 32 16
12 32 16
12 32 16
12 32 16
12 32 16
12 32 16
12 32 16
12 32 16
12 32 16
12 32 16
12 32 16
12 32 16
12 32 16
12 32 16
12 32 16
12 32 16
12 32 16
12 32 16
12 32 16
12 32 16
12 32 16
12 32 16
12 32 16
12 32 16
12 32 16
12 32 16
12 32 16
12 32 16
12 32 16
12 32 16
12 32 16
12 32 16
12 32 16
12 32 16
12 32 16
12 32 16
12 32 16
12 32 16
12 32 16
12 32 16
12 32 16
12 32 16
12 32 16
12 32 16
12 32 16
12 32 16
12 32 16
12 32 16
12 32 16
12 32 16
12 32 16
12 32 16
12 32 16
12 32 16
12 32 16
12 32 16
12 32 16
12 32 16
12 32 16
12 32 16
12 32 16
12 32 16
12 32 16
12 32 16
12 32 16
12 32 16
12 32 16
12 32 16
12 32 16
12 32 16
12 32 16
12 32 16
12 32 16
12 32 16
12 32 16
12 32 16
12 32 16
12 32 16
12 32 16
12 32 16
12 32 16
12 32 16
12 32 16
12 32 16
12 32 16
12 32 16
12 32 16
12 32 16
12 32 16
12 32 16
12 32 16
12 32 16
12 32 16
12 32 16
12 32 16
12 32 16
12 32 16
12 32 16
12 32 16
12 32 16
12 32 16
12 32 16
12 32 16
12 32 16
12 32 16
12 32 16
12 32 16
12 32 16
12 32 16
12 32 16
12 32 16
12 32 16
12 32 16
12 32 16
12 32 16
12 32 16
12 32 16
12 32 16
12 32 16
12 32 16
12 32 16
12 32 16
12 32 16
12 32 16
12 32 16
12 32 16
12 32 16
12 32 16
12 32 16
12 32 16
12 32 16
12 32 16
12 32 16
12 32 16
12 32 16
12 32 16
12 32 16
12 32 16
12 32 16
12 32 16
12 32 16
12 32 16
12 32 16
12 32 16
12 32 16
12 32 16
12 32 16
12 32 16
12 32 16
12 32 16
12 32 16
12 32 16
12 32 16
12 32 16
12 32 16
12 32 16
12 32 16
12 32 16
12 32 16
12 32 16
12 32 16
12 32 16
12 32 16
12 32 16
12 32 16
12 32 16
12 32 16
12 32 16
12 32 16
12 32 16
12 32 16
12 32 16
12 32 16
12 32 16
12 32 16
12 32 16
12 32 16
12 32 16
12 32 16
12 32 16
12 32 16
12 32 16
12 32 16
12 32 16
12 32 16
12 32 16
12 32 16
12 32 16
12 32 16
12 32 16
12 32 16
12 32 16
12 32 16
12 32 16
12 32 16
12 32 16
12 32 16
12 32 16
12 32 16
12 32 16
12 32 16
12 32 16
12 32 16
12 32 16
12 32 16
12 32 16
12 32 16
12 32 16
12 32 16
12 32 16
12 32 16
12 32 16
12 32 16
12 32 16
12 32 16
12 32 16
12 32 16
12 32 16
12 32 16
12 32 16
12 32 16
12 32 16
12 32 16
12 32 16
12 32 16
12 32 16
12 32 16
12 32 16
12 32 16
12 32 16
12 32 16
12 32 16
12 32 16
12 32 16
12 32 16
12 32 16
12 32 16
12 32 16
12 32 16
12 32 16
12 32 16
12 32 16
12 32 16
12 32 16
12 32 16
12 32 16
12 32 16
12 32 16
12 32 16
12 32 16
12 32 16
12 32 16
12 32 16
12 32 16
12 32 16
12 32 16
12 32 16
12 32 16
12 32 16
12 32 16
12 32 16
12 32 16
12 32 16
12 32 16
12 32 16
12 32 16
12 32 16
12 32 16
12 32 16
12 32 16
12 32 16
12 32 16
12 32 16
12 32 16
12 32 16
12 32 16
12 32 16
12 32 16
12 32 16
12 32 16
12 32 16
12 32 16
12 32 16
12 32 16
12 32 16
12 32 16
12 32 16
12 32 16
12 32 16
12 32 16
12 32 16
12 32 16
12 32 16
12 32 16
12 32 16
12 32 16
12 32 16
12 32 16
12 32 16
12 32 16
12 32 16
12 32 16
12 32 16
12 32 16
12 32 16
12 32 16
12 32 16
12 32 16
12 32 16
12 32 16
12 32 16
12 32 16
12 32 16
12 32 16
12 32 16
12 32 16
12 32 16
12 32 16
12 32 16
12 32 16
12 32 16
12 32 16
12 32 16
12 32 16
12 32 16
12 32 16
12 32 16
12 32 16
12 32 16
12 32 16
12 32 16
12 32 16
12 32 16
12 32 16
12 32 16
12 32 16
12 32 16
12 32 16
12 32 16
12 32 16
12 32 16
12 32 16
12 32 16
12 32 16
12 32 16
12 32 16
12 32 16
12 32 16
12 32 16
12 32 16
12 32 16
12 32 16
12 32 16
12 32 16
12 32 16
12 32 16
12 32 16
12 32 16
12 32 16
12 32 16
12 32 16
12 32 16
12 32 16
12 32 16
12 32 16
12 32 16
12 32 16
12 32 16
12 32 16
12 32 16
12 32 16
12 32 16
12 32 16
12 32 16
12 32 16
12 32 16
12 32 16
12 32 16
12 32 16
12 32 16
12 32 16
12 32 16
12 32 16
12 32 16
12 32 16
12 32 16
12 32 16
12 32 16
12 32 16
12 32 16
12 32 16
12 32 16
12 32 16
12 32 16
12 32 16
12 32 16
12 32 16
12 32 16
12 32 16
12 32 16
12 32 16
12 32 16
12 32 16
12 32 16
12 32 16
12 32 16
12 32 16
12 32 16
12 32 16
12 32 16
12 32 16
12 32 16
12 32 16
12 32 16
12 32 16
12 32 16
12 32 16
12 32 16
12 32 16
12 32 16
12 32 16
12 32 16
12 32 16
12 32 16
12 32 16
12 32 16
12 32 16
12 32 16
12 32 16
12 32 16
12 32 16
12 32 16
12 32 16
12 32 16
12 32 16
12 32 16
12 32 16
12 32 16
12 32 16
12 32 16
12 32 16
12 32 16
12 32 16
12 32 16
12 32 16
12 32 16
12 32 16
12 32 16
12 32 16
12 32 16
12 32 16
12 32 16
12 32 16
12 32 16
12 32 16
12 32 16
12 32 16
12 32 16
12 32 16
12 32 16
12 32 16
12 32 16
12 32 16
12 32 16
12 32 16
12 32 16
12 32 16
12 32 16
12 32 16
12 32 16
12 32 16
12 32 16
12 32 16
12 32 16
12 32 16
12 32 16
12 32 16
12 32 16
12 32 16
12 32 16
12 32 16
12 32 16
12 32 16
12 32 16
12 32 16
12 32 16
12 32 16
12 32 16
12 32 16
12 32 16
12 32 16
12 32 16
12 32 16
12 32 16
12 32 16
12 32 16
12 32 16
12 32 16
12 32 16
12 32 16
12 32 16
12 32 16
12 32 16
12 32 16
12 32 16
12 32 16
12 32 16
12 32 16
12 32 16
12 32 16
12 32 16
12 32 16
12 32 16
12 32 16
12 32 16
12 32 16
12 32 16
12 32 16
12 32 16
12 32 16
12 32 16
12 32 16
12 32 16
12 32 16
12 32 16
12 32 16
12 32 16
12 32 16
12 32 16
12 32 16
12 32 16
12 32 16
12 32 16
12 32 16
12 32 16
12 32 16
12 32 16
12 32 16
12 32 16
12 32 16
12 32 16
12 32 16
12 32 16
12 32 16
12 32 16
12 32 16
12 32 16
12 32 16
12 32 16
12 32 16
12 32 16
12 32 16
12 32 16
12 32 16
12 32 16
12 32 16
12 32 16
12 32 16
12 32 16
12 32 16
12 32 16
12 32 16
12 32 16
12 32 16
12 32 16
12 32 16
12 32 16
12 32 16
12 32 16
12 32 16
12 32 16
12 32 16
12 32 16
12 32 16
12 32 16
12 32 16
12 32 16
12 32 16
12 32 16
12 32 16
12 32 16
12 32 16
12 32 16
12 32 16
12 32 16
12 32 16
12 32 16
12 32 16
12 32 16
12 32 16
12 32 16
12 32 16
12 32 16
12 32 16
12 32 16
12 32 16
12 32 16
12 32 16
12 32 16
12 32 16
12 32 16
12 32 16
12 32 16
12 32 16
12 32 16
12 32 16
12 32 16
12 32 16
12 32 16
12 32 16
12 32 16
12 32 16
12 32 16
12 32 16
12 32 16
12 32 16
12 32 16
12 32 16
12 32 16
12 32 16
12 32 16
12 32 16
12 32 16
12 32 16
12 32 16
12 32 16
12 32 16
12 32 16
12 32 16
12 32 16
12 32 16
12 32 16
12 32 16
12 32 16
12 32 16
12 32 16
12 32 16
12 32 16
12 32 16
12 32 16
12 32 16
12 32 16
12 32 16
12 32 16
12 32 16
12 32 16
12 32 16
12 32 16
12 32 16
12 32 16
12 32 16
12 32 16
12 32 16
12 32 16
12 32 16
12 32 16
12 32 16
12 32 16
12 32 16
12 32 16
12 32 16
12 32 16
12 32 16
12 32 16
12 32 16
12 32 16
12 32 16
12 32 16
12 32 16
12 32 16
12 32 16
12 32 16
12 32 16
12 32 16
12 32 16
12 32 16
12 32 16
12 32 16
12 32 16
12 32 16
12 32 16
12 32 16
12 32 16
12 32 16
12 32 16
12 32 16
12 32 16
12 32 16
12 32 16
12 32 16
12 32 16
12 32 16
12 32 16
12 32 16
12 32 16
12 32 16
12 32 16
12 32 16
12 32 16
12 32 16
12 32 16
12 32 16
12 32 16
12 32 16
12 32 16
12 32 16
12 32 16
12 32 16
12 32 16
12 32 16
12 32 16
12 32 16
12 32 16
12 32 16
12 32 16
12 32 16
12 32 16
12 32 16
12 32 16
12 32 16
12 32 16
12 32 16
12 32 16
12 32 16
12 32 16
12 32 16
12 32 16
12 32 16
12 32 16
12 32 16
12 32 16
12 32 16
12 32 16
12 32 16
12 32 16
12 32 16
12 32 16
12 32 16
12 32 16
12 32 16
12 32 16
12 32 16
12 32 16
12 32 16
12 32 16
12 32 16
12 32 16
12 32 16
12 32 16
12 32 16
12 32 16
12 32 16
12 32 16
12 32 16
12 32 16
12 32 16
12 32 16
12 32 16
12 32 16
12 32 16
12 32 16
12 32 16
12 32 16
12 32 16
12 32 16
12 32 16
12 32 16
12 32 16
12 32 16
12 32 16
12 32 16
12 32 16
12 32 16
12 32 16
12 32 16
12 32 16
12 32 16
12 32 16
12 32 16
12 32 16
12 32 16
12 32 16
12 32 16
12 32 16
12 32 16
12 32 16
12 32 16
12 32 16
12 32 16
12 32 16
12 32 16
12 32 16
12 32 16
12 32 16
12 32 16
12 32 16
12 32 16
12 32 16
12 32 16
12 32 16
12 32 16
12 32 16
12 32 16
12 32 16
12 32 16
12 32 16
12 32 16
12 32 16
12 32 16
12 32 16
12 32 16
12 32 16
12 32 16
12 32 16
12 32 16
12 32 16
12 32 16
12 32 16
12 32 16
12 32 16
12 32 16
12 32 16
12 32 16
12 32 16
12 32 16
12 32 16
12 32 16
12 32 16
12 32 16
12 32 16
12 32 16
12 32 16
12 32 16
12 32 16
12 32 16
12 32 16
12 32 16
12 32 16
12 32 16
12 32 16
12 32 16
12 32 16
12 32 16
12 32 16
12 32 16
12 32 16
12 32 16
12 32 16
12 32 16
12 32 16
12 32 16
12 32 16
12 32 16
12 32 16
12 32 16
12 32 16
12 32 16
12 32 16
12 32 16
12 32 16
12 32 16
12 32 16
12 32 16
12 32 16
12 32 16
12 32 16
12 32 16
12 32 16
12 32 16
12 32 16
12 32 16
12 32 16
12 32 16
12 32 16
12 32 16
12 32 16
12 32 16
12 32 16
12 32 16
12 32 16
12 32 16
12 32 16
12 32 16
12 32 16
12 32 16
12 32 16
12 32 16
12 32 16
12 32 16
12 32 16
12 32 16
12 32 16
12 32 16
12 32 16
12 32 16
12 32 16
12 32 16
12 32 16
12 32 16
12 32 16
12 32 16
12 32 16
12 32 16
12 32 16
12 32 16
12 32 16
12 32 16
12 32 16
12 32 16
12 32 16
12 32 16
12 32 16
12 32 16
12 32 16
12 32 16
12 32 16
12 32 16
12 32 16
12 32 16
12 32 16
12 32 16
12 32 16
12 32 16
12 32 16
12 32 16
12 32 16
12 32 16
12 32 16
12 32 16
12 32 16
12 32 16
12 32 16
12 32 16
12 32 16
12 32 16
12 32 16
12 32 16
12 32 16
12 32 16
12 32 16
12 32 16
12 32 16
12 32 16
12 32 16
12 32 16
12 32 16
12 32 16
12 32 16
12 32 16
12 32 16
12 32 16
12 32 16
12 32 16
12 32 16
12 32 16
12 32 16
12 32 16
12 32 16
12 32 16
12 32 16
12 32 16
12 32 16
12 32 16
12 32 16
12 32 16
12 32 16
12 32 16
12 32 16
12 32 16
12 32 16
12 32 16
12 32 16
12 32 16
12 32 16
12 32 16
12 32 16
12 32 16
12 32 16
12 32 16
12 32 16
12 32 16
12 32 16
12 32 16
12 32 16
12 32 16
12 32 16
12 32 16
12 32 16
12 32 16
12 32 16
12 32 16
12 32 16
12 32 16
12 32 16
12 32 16
12 32 16
12 32 16
12 32 16
12 32 16
12 32 16
12 32 16
12 32 16
12 32 16
12 32 16
12 32 16
12 32 16
12 32 16
12 32 16
12 32 16
12 32 16
12 32 16
12 32 16
12 32 16
12 32 16
12 32 16
12 32 16
12 32 16
12 32 16
12 32 16
12 32 16
12 32 16
12 32 16
12 32 16
12 32 16
12 32 16
12 32 16
12 32 16
12 32 16
12 32 16
12 32 16
12 32 16
12 32 16
12 32 16
12 32 16
12 32 16
12 32 16
12 32 16
12 32 16
12 32 16
12 32 16
12 32 16
12 32 16
12 32 16
12 32 16
12 32 16
12 32 16
12 32 16
12 32 16
12 32 16
12 32 16
12 32 16
12 32 16
12 32 16
12 32 16
12 32 16
12 32 16
12 32 16
12 32 16
12 32 16
12 32 16
12 32 16
12 32 16
12 32 16
12 32 16
12 32 16
12 32 16
12 32 16
12 32 16
12 32 16
12 32 16
12 32 16
12 32 16
12 32 16
12 32 16
12 32 16
12 32 16
12 32 16
12 32 16
12 32 16
12 32 16
12 32 16
12 32 16
12 32 16
12 32 16
12 32 16
12 32 16
12 32 16
12 32 16
12 32 16
12 32 16
12 32 16
12 32 16
12 32 16
12 32 16
12 32 16
12 32 16
12 32 16
12 32 16
12 32 16
12 32 16
12 32 16
12 32 16
12 32 16
12 32 16
12 32 16
12 32 16
12 32 16
12 32 16
12 32 16
12 32 16
12 32 16
12 32 16
12 32 16
12 32 16
12 32 16
12 32 16
12 32 16
12 32 16
12 32 16
12 32 16
12 32 16
12 32 16
12 32 16
12 32 16
12 32 16
12 32 16
12 32 16
12 32 16
12 32 16
12 32 16
12 32 16
12 32 16
12 32 16
12 32 16
12 32 16
12 32 16
12 32 16
12 32 16
12 32 16
12 32 16
12 32 16
12 32 16
12 32 16
12 32 16
12 32 16
12 32 16
12 32 16
12 32 16
12 32 16
12 32 16
12 32 16
12 32 16
12 32 16
12 32 16
12 32 16
12 32 16
12 32 16
12 32 16
12 32 16
12 32 16
12 32 16
12 32 16
12 32 16
12 32 16
12 32 16
12 32 16
12 32 16
12 32 16
12 32 16
12 32 16
12 32 16
12 32 16
12 32 16
12 32 16
12 32 16
12 32 16
12 32 16
12 32 16
12 32 16
12 32 16
12 32 16
12 32 16
12 32 16
12 32 16
12 32 16
12 32 16
12 32 16
12 32 16
12 32 16
12 32 16
12 32 16
12 32 16
12 32 16
12 32 16
12 32 16
12 32 16
12 32 16
12 32 16
12 32 16
12 32 16
12 32 16
12 32 16
12 32 16
12 32 16
12 32 16
12 32 16
12 32 16
12 32 16
12 32 16
12 32 16
12 32 16
12 32 16
12 32 16
12 32 16
12 32 16
12 32 16
12 32 16
12 32 16
12 32 16
12 32 16
12 32 16
12 32 16
12 32 16
12 32 16
12 32 16
12 32 16
12 32 16
12 32 16
12 32 16
12 32 16
12 32 16
12 32 16
12 32 16
12 32 16
12 32 16
12 32 16
12 32 16
12 32 16
12 32 16
12 32 16
12 32 16
12 32 16
12 32 16
12 32 16
12 32 16
12 32 16
12 32 16
12 32 16
12 32 16
12 32 16
12 32 16
12 32 16
12 32 16
12 32 16
12 32 16
12 32 16
12 32 16
12 32 16
12 32 16
12 32 16
12 32 16
12 32 16
12 32 16
12 32 16
12 32 16
12 32 16
12 32 16
12 32 16
12 32 16
12 32 16
12 32 16
12 32 16
12 32 16
12 32 16
12 32 16
12 32 16
12 32 16
12 32 16
12 32 16
12 32 16
12 32 16
12 32 16
12 32 16
12 32 16
12 32 16
12 32 16
12 32 16
12 32 16
12 32 16
12 32 16
12 32 16
12 32 16
12 32 16
12 32 16
12 32 16
12 32 16
12 32 16
12 32 16
12 32 16
12 32 16
12 32 16
12 32 16
12 32 16
12 32 16
12 32 16
12 32 16
12 32 16
12 32 16
12 32 16
12 32 16
12 32 16
12 32 16
12 32 16
12 32 16
12 32 16
12 32 16
12 32 16
12 32 16
12 32 16
12 32 16
12 32 16
12 32 16
12 32 16
12 32 16
12 32 16
12 32 16
12 32 16
12 32 16
12 32 16
12 32 16
12 32 16
12 32 16
12 32 16
12 32 16
12 32 16
12 32 16
12 32 16
12 32 16
12 32 16
12 32 16
12 32 16
12 32 16
12 32 16
12 32 16
12 32 16
12 32 16
12 32 16
12 32 16
12 32 16
12 32 16
12 32 16
12 32 16
12 32 16
12 32 16
12 32 16
12 32 16
12 32 16
12 32 16
12 32 16
12 32 16
12 32 16
12 32 16
12 32 16
12 32 16
12 32 16
12 32 16
12 32 16
12 32 16
12 32 16
12 32 16
12 32 16
12 32 16
12 32 16
12 32 16
12 32 16
12 32 16
12 32 16
12 32 16
12 32 16
12 32 16
12 32 16
12 32 16
12 32 16
12 32 16
12 32 16
12 32 16
12 32 16
12 32 16
12 32 16
12 32 16
12 32 16
12 32 16
12 32 16
12 32 16
12 32 16
12 32 16
12 32 16
12 32 16
12 32 16
12 32 16
12 32 16
12 32 16
12 32 16
12 32 16
12 32 16
12 32 16
12 32 16
12 32 16
12 32 16
12 32 16
12 32 16
12 32 16
12 32 16
12 32 16
12 32 16
12 32 16
12 32 16
12 32 16
12 32 16
12 32 16
12 32 16
12 32 16
12 32 16
12 32 16
12 32 16
12 32 16
12 32 16
12 32 16
12 32 16
12 32 16
12 32 16
12 32 16
12 32 16
12 32 16
12 32 16
12 32 16
12 32 16
12 32 16
12 32 16
12 32 16
12 32 16
12 32 16
12 32 16
12 32 16
12 32 16
12 32 16
12 32 16
12 32 16
12 32 16
12 32 16
12 32 16
12 32 16
12 32 16
12 32 16
12 32 16
12 32 16
12 32 16
12 32 16
12 32 16
12 32 16
12 32 16
12 32 16
12 32 16
12 32 16
12 32 16
12 32 16
12 32 16
12 32 16
12 32 16
12 32 16
12 32 16
12 32 16
12 32 16
12 32 16
12 32 16
12 32 16
12 32 16
12 32 16
12 32 16
12 32 16
12 32 16
12 32 16
12 32 16
12 32 16
12 32 16
12 32 16
12 32 16
12 32 16
12 32 16
12 32 16
12 32 16
12 32 16
12 32 16
12 32 16
12 32 16
12 32 16
12 32 16
12 32 16
12 32 16
12 32 16
12 32 16
12 32 16
12 32 16
12 32 16
12 32 16
12 32 16
12 32 16
12 32 16
12 32 16
12 32 16
12 32 16
12 32 16
12 32 16
12 32 16
12 32 16
12 32 16
12 32 16
12 32 16
12 32 16
12 32 16
12 32 16
12 32 16
12 32 16
12 32 16
12 32 16
12 32 16
12 32 16
12 32 16
12 32 16
12 32 16
12 32 16
12 32 16
12 32 16
12 32 16
12 32 16
12 32 16
12 32 16
12 32 16
12 32 16
12 32 16
12 32 16
12 32 16
12 32 16
12 32 16
12 32 16
12 32 16
12 32 16
12 32 16
12 32 16
12 32 16
12 32 16
12 32 16
12 32 16
12 32 16
12 32 16
12 32 16
12 32 16
12 32 16
12 32 16
12 32 16
12 32 16
12 32 16
12 32 16
12 32 16
12 32 16
12 32 16
12 32 16
12 32 16
12 32 16
12 32 16
12 32 16
12 32 16
12 32 16
12 32 16
12 32 16
12 32 16
12 32 16
12 32 16
12 32 16
12 32 16
12 32 16
12 32 16
12 32 16
12 32 16
12 32 16
12 32 16
12 32 16
12 32 16
12 32 16
12 32 16
12 32 16
12 32 16
12 32 16
12 32 16
12 32 16
12 32 16
12 32 16
12 32 16
12 32 16
12 32 16
12 32 16
12 32 16
12 32 16
12 32 16
12 32 16
12 32 16
12 32 16
12 32 16
12 32 16
12 32 16
12 32 16
12 32 16
12 32 16
12 32 16
12 32 16
12 32 16
12 32 16
12 32 16
12 32 16
12 32 16
12 32 16
12 32 16
12 32 16
12 32 16
12 32 16
12 32 16
12 32 16
12 32 16
12 32 16
12 32 16
12 32 16
12 32 16
12 32 16
12 32 16
12 32 16
12 32 16
12 32 16
12 32 16
12 32 16
12 32 16
12 32 16
12 32 16
12 32 16
12 32 16
12 32 16
12 32 16
12 32 16
12 32 16
12 32 16
12 32 16
12 32 16
12 32 16
12 32 16
12 32 16
12 32 16
12 32 16
12 32 16
12 32 16
12 32 16
12 32 16
12 32 16
12 32 16
12 32 16
12 32 16
12 32 16
12 32 16
12 32 16
12 32 16
12 32 16
12 32 16
12 32 16
12 32 16
12 32 16
12 32 16
12 32 16
12 32 16
12 32 16
12 32 16
12 32 16
12 32 16
12 32 16
12 32 16
12 32 16
12 32 16
12 32 16
12 32 16
12 32 16
12 32 16
12 32 16
12 32 16
12 32 16
12 32 16
12 32 16
12 32 16
12 32 16
12 32 16
12 32 16
12 32 16
12 32 16
12 32 16
12 32 16
12 32 16
12 32 16
12 32 16
12 32 16
12 32 16
12 32 16
12 32 16
12 32 16
12 32 16
12 32 16
12 32 16
12 32 16
12 32 16
12 32 16
12 32 16
12 32 16
12 32 16
12 32 16
12 32 16
12 32 16
12 32 16
12 32 16
12 32 16
12 32 16
12 32 16
12 32 16
12 32 16
12 32 16
12 32 16
12 32 16
12 32 16
12 32 16
12 32 16
12 32 16
12 32 16
12 32 16
12 32 16
12 32 16
12 32 16
12 32 16
12 32 16
12 32 16
12 32 16
12 32 16
12 32 16
12 32 16
12 32 16
12 32 16
12 32 16
12 32 16
12 32 16
12 32 16
12 32 16
12 32 16
12 32 16
12 32 16
12 32 16
12 32 16
12 32 16
12 32 16
12 32 16
12 32 16
12 32 16
12 32 16
12 32 16
12 32 16
12 32 16
12 32 16
12 32 16
12 32 16
12 32 16
12 32 16
12 32 16
12 32 16
12 32 16
12 32 16
12 32 16
12 32 16
12 32 16
12 32 16
12 32 16
12 32 16
12 32 16
12 32 16
12 32 16
12 32 16
12 32 16
12 32 16
12 32 16
12 32 16
12 32 16
12 32 16
12 32 16
12 32 16
12 32 16
12 32 16
12 32 16
12 32 16
12 32 16
12 32 16
12 32 16
12 32 16
12 32 16
12 32 16
12 32 16
12 32 16
12 32 16
12 32 16
12 32 16
12 32 16
12 32 16
12 32 16
12 32 16
12 32 16
12 32 16
12 32 16
12 32 16
12 32 16
12 32 16
12 32 16
12 32 16
12 32 16
12 32 16
12 32 16
12 32 16
12 32 16
12 32 16
12 32 16
12 32 16
12 32 16
12 32 16
12 32 16
12 32 16
12 32 16
12 32 16
12 32 16
12 32 16
12 32 16
12 32 16
12 32 16
12 32 16
12 32 16
12 32 16
12 32 16
12 32 16
12 32 16
12 32 16
12 32 16
12 32 16
12 32 16
12 32 16
12 32 16
12 32 16
12 32 16
12 32 16
12 32 16
12 32 16
12 32 16
12 32 16
12 32 16
12 32 16
12 32 16
12 32 16
12 32 16
12 32 16
12 32 16
12 32 16
12 32 16
12 32 16
12 32 16
12 32 16
12 32 16
12 32 16
12 32 16
12 32 16
12 32 16
12 32 16
12 32 16
12 32 16
12 32 16
12 32 16
12 32 16
12 32 16
12 32 16
12 32 16
12 32 16
12 32 16
12 32 16
12 32 16
12 32 16
12 32 16
12 32 16
12 32 16
12 32 16
12 32 16
12 32 16
12 32 16
12 32 16
12 32 16
12 32 16
12 32 16
12 32 16
12 32 16
12 32 16
12 32 16
12 32 16
12 32 16
12 32 16
12 32 16
12 32 16
12 32 16
12 32 16
12 32 16
12 32 16
12 32 16
12 32 16
12 32 16
12 32 16
12 32 16
12 32 16
12 32 16
12 32 16
12 32 16
12 32 16
12 32 16
12 32 16
12 32 16
12 32 16
12 32 16
12 32 16
12 32 16
12 32 16
12 32 16
12 32 16
12 32 16
12 32 16
12 32 16
12 32 16
12 32 16
12 32 16
12 32 16
12 32 16
12 32 16
12 32 16
12 32 16
12 32 16
12 32 16
12 32 16
12 32 16
12 32 16
12 32 16
12 32 16
12 32 16
12 32 16
12 32 16
12 32 16
12 32 16
12 32 16
12 32 16
12 32 16
12 32 16
12 32 16
12 32 16
12 32 16
12 32 16
12 32 16
12 32 16
12 32 16
12 32 16
12 32 16
12 32 16
12 32 16
12 32 16
12 32 16
12 32 16
12 32 16
12 32 16
12 32 16
12 32 16
12 32 16
12 32 16
12 32 16
12 32 16
12 32 16
12 32 16
12 32 16
12 32 16
12 32 16
12 32 16
12 32 16
12 32 16
12 32 16
12 32 16
12 32 16
12 32 16
12 32 16
12 32 16
12 32 16
12 32 16
12 32 16
12 32 16
12 32 16
12 32 16
12 32 16
12 32 16
12 32 16
12 32 16
12 32 16
12 32 16
12 32 16
12 32 16
12 32 16
12 32 16
12 32 16
12 32 16
12 32 16
12 32 16
12 32 16
12 32 16
12 32 16
12 32 16
12 32 16
12 32 16
12 32 16
12 32 16
12 32 16
12 32 16
12 32 16
12 32 16
12 32 16
12 32 16
12 32 16
12 32 16
12 32 16
12 32 16
12 32 16
12 32 16
12 32 16
12 32 16
12 32 16
12 32 16
12 32 16
12 32 16
12 32 16
12 32 16
12 32 16
12 32 16
12 32 16
12 32 16
12 32 16
12 32 16
12 32 16
12 32 16
12 32 16
12 32 16
12 32 16
12 32 16
12 32 16
12 32 16
12 32 16
12 32 16
12 32 16
12 32 16
12 32 16
12 32 16
12 32 16
12 32 16
12 32 16
12 32 16
12 32 16
12 32 16
12 32 16
12 32 16
12 32 16
12 32 16
12 32 16
12 32 16
12 32 16
12 32 16
12 32 16
12 32 16
12 32 16
12 32 16
12 32 16
12 32 16
12 32 16
12 32 16
12 32 16
12 32 16
12 32 16
12 32 16
12 32 16
12 32 16
12 32 16
12 32 16
12 32 16
12 32 16
12 32 16
12 32 16
12 32 16
12 32 16
12 32 16
12 32 16
12 32 16
12 32 16
12 32 16
12 32 16
12 32 16
12 32 16
12 32 16
12 32 16
12 32 16
12 32 16
12 32 16
12 32 16
12 32 16
12 32 16
12 32 16
12 32 16
12 32 16
12 32 16
12 32 16
12 32 16
12 32 16
12 32 16
12 32 16
12 32 16
12 32 16
12 32 16
12 32 16
12 32 16
12 32 16
12 32 16
12 32 16
12 32 16
12 32 16
12 32 16
12 32 16
12 32 16
12 32 16
12 32 16
12 32 16
12 32 16
12 32 16
12 32 16
12 32 16
12 32 16
12 32 16
12 32 16
12 32 16
12 32 16
12 32 16
12 32 16
12 32 16
12 32 16
12 32 16
12 32 16
12 32 16
12 32 16
12 32 16
12 32 16
12 32 16
12 32 16
12 32 16
12 32 16
12 32 16
12 32 16
12 32 16
12 32 16
12 32 16
12 32 16
12 32 16
12 32 16
12 32 16
12 32 16
12 32 16
12 32 16
12 32 16
12 32 16
12 32 16
12 32 16
12 32 16
12 32 16
12 32 16
12 32 16
12 32 16
12 32 16
12 32 16
12 32 16
12 32 16
12 32 16
12 32 16
12 32 16
12 32 16
12 32 16
12 32 16
